;Project 0102
;Created by Estlcam version 10 build 10.039
;Machining time about 00:02:33 hours

G90
G92 X0 Y0 Z0
G00 X0.0000 Y0.0000 Z0.0000 F2100
G00 X0.0000 Y0.0000 Z5.0000 F500


;No. 1: Engraving 6
G00 X75.2682 Y15.5365 Z5.0000 F2100
G00 X75.2682 Y15.5365 Z0.5000 F500
G01 X75.2682 Y15.5365 Z-1.0000 F210 S20000
G01 X77.4366 Y15.4952 Z-1.0000 F720
G01 X79.6043 Y15.4295 Z-1.0000 F720
G01 X81.7712 Y15.3396 Z-1.0000 F720
G01 X83.9370 Y15.2253 Z-1.0000 F720
G01 X86.1013 Y15.0868 Z-1.0000 F720
G01 X88.2640 Y14.9240 Z-1.0000 F720
G01 X90.4246 Y14.7370 Z-1.0000 F720
G01 X92.5831 Y14.5257 Z-1.0000 F720
G01 X94.7390 Y14.2902 Z-1.0000 F720
G01 X96.8922 Y14.0306 Z-1.0000 F720
G01 X99.0423 Y13.7468 Z-1.0000 F720
G01 X101.1891 Y13.4390 Z-1.0000 F720
G01 X103.0393 Y13.1513 Z-1.0000 F720
G01 X104.8850 Y12.8368 Z-1.0000 F720
G01 X106.7260 Y12.4954 Z-1.0000 F720
G01 X108.5619 Y12.1272 Z-1.0000 F720
G01 X110.3921 Y11.7323 Z-1.0000 F720
G01 X112.2164 Y11.3108 Z-1.0000 F720
G01 X114.0344 Y10.8628 Z-1.0000 F720
G01 X115.8457 Y10.3884 Z-1.0000 F720
G01 X115.1622 Y8.0732 Z-1.0000 F720
G01 X113.5276 Y8.4933 Z-1.0000 F720
G01 X111.8880 Y8.8934 Z-1.0000 F720
G01 X110.2437 Y9.2736 Z-1.0000 F720
G01 X108.5949 Y9.6337 Z-1.0000 F720
G01 X106.9418 Y9.9737 Z-1.0000 F720
G01 X105.2847 Y10.2936 Z-1.0000 F720
G01 X103.6238 Y10.5934 Z-1.0000 F720
G01 X101.9595 Y10.8729 Z-1.0000 F720
G01 X100.2918 Y11.1322 Z-1.0000 F720
G01 X98.6211 Y11.3711 Z-1.0000 F720
G01 X96.9476 Y11.5897 Z-1.0000 F720
G01 X95.2716 Y11.7880 Z-1.0000 F720
G01 X92.3080 Y12.1120 Z-1.0000 F720
G01 X89.6951 Y12.3486 Z-1.0000 F720
G01 X87.0795 Y12.5538 Z-1.0000 F720
G01 X84.4617 Y12.7275 Z-1.0000 F720
G01 X81.8420 Y12.8696 Z-1.0000 F720
G01 X79.2207 Y12.9802 Z-1.0000 F720
G01 X76.5983 Y13.0592 Z-1.0000 F720
G01 X73.9751 Y13.1066 Z-1.0000 F720
G01 X71.3516 Y13.1224 Z-1.0000 F720
G01 X68.7280 Y13.1066 Z-1.0000 F720
G01 X66.1049 Y13.0592 Z-1.0000 F720
G01 X63.4825 Y12.9802 Z-1.0000 F720
G01 X60.8612 Y12.8696 Z-1.0000 F720
G01 X58.2415 Y12.7275 Z-1.0000 F720
G01 X55.6236 Y12.5538 Z-1.0000 F720
G01 X53.0081 Y12.3486 Z-1.0000 F720
G01 X50.3952 Y12.1120 Z-1.0000 F720
G01 X48.7570 Y11.9453 Z-1.0000 F720
G01 X47.1208 Y11.7606 Z-1.0000 F720
G01 X45.4867 Y11.5579 Z-1.0000 F720
G01 X43.8549 Y11.3373 Z-1.0000 F720
G01 X42.2256 Y11.0988 Z-1.0000 F720
G01 X40.5991 Y10.8423 Z-1.0000 F720
G01 X38.9754 Y10.5680 Z-1.0000 F720
G01 X37.3549 Y10.2759 Z-1.0000 F720
G01 X35.7377 Y9.9659 Z-1.0000 F720
G01 X34.1240 Y9.6382 Z-1.0000 F720
G01 X32.5140 Y9.2927 Z-1.0000 F720
G01 X30.9079 Y8.9296 Z-1.0000 F720
G01 X29.1494 Y8.4970 Z-1.0000 F720
G01 X27.5410 Y8.0732 Z-1.0000 F720
G01 X26.8575 Y10.3884 Z-1.0000 F720
G01 X28.5196 Y10.8183 Z-1.0000 F720
G01 X30.1868 Y11.2279 Z-1.0000 F720
G01 X31.8589 Y11.6172 Z-1.0000 F720
G01 X33.5356 Y11.9860 Z-1.0000 F720
G01 X35.2167 Y12.3344 Z-1.0000 F720
G01 X36.9019 Y12.6623 Z-1.0000 F720
G01 X38.5910 Y12.9695 Z-1.0000 F720
G01 X40.2837 Y13.2562 Z-1.0000 F720
G01 X41.9798 Y13.5222 Z-1.0000 F720
G01 X43.6790 Y13.7675 Z-1.0000 F720
G01 X45.3810 Y13.9921 Z-1.0000 F720
G01 X47.0857 Y14.1958 Z-1.0000 F720
G01 X49.4246 Y14.4527 Z-1.0000 F720
G01 X51.7663 Y14.6832 Z-1.0000 F720
G01 X54.1104 Y14.8874 Z-1.0000 F720
G01 X56.4566 Y15.0652 Z-1.0000 F720
G01 X58.8047 Y15.2166 Z-1.0000 F720
G01 X61.1543 Y15.3417 Z-1.0000 F720
G01 X63.5052 Y15.4403 Z-1.0000 F720
G01 X65.8571 Y15.5124 Z-1.0000 F720
G01 X68.2096 Y15.5581 Z-1.0000 F720
G01 X70.5625 Y15.5774 Z-1.0000 F720
G01 X72.9155 Y15.5702 Z-1.0000 F720
G01 X75.2682 Y15.5365 Z-1.0000 F720
G00 X75.2682 Y15.5365 Z5.0000 F500


;No. 2: Engraving 5
G00 X77.4710 Y66.9949 Z5.0000 F2100
G00 X77.4710 Y66.9949 Z0.5000 F500
G01 X77.4710 Y66.9949 Z-1.0000 F210
G01 X78.1920 Y67.7164 Z-1.0000 F720
G01 X78.9386 Y68.4113 Z-1.0000 F720
G01 X79.7099 Y69.0788 Z-1.0000 F720
G01 X80.5049 Y69.7178 Z-1.0000 F720
G01 X81.3225 Y70.3277 Z-1.0000 F720
G01 X82.1616 Y70.9076 Z-1.0000 F720
G01 X83.0212 Y71.4567 Z-1.0000 F720
G01 X83.9001 Y71.9743 Z-1.0000 F720
G01 X84.7971 Y72.4598 Z-1.0000 F720
G01 X85.7112 Y72.9124 Z-1.0000 F720
G01 X86.6410 Y73.3317 Z-1.0000 F720
G01 X87.5854 Y73.7171 Z-1.0000 F720
G01 X88.5431 Y74.0680 Z-1.0000 F720
G01 X89.5129 Y74.3840 Z-1.0000 F720
G01 X90.4936 Y74.6647 Z-1.0000 F720
G01 X91.4837 Y74.9097 Z-1.0000 F720
G01 X92.4820 Y75.1187 Z-1.0000 F720
G01 X93.4873 Y75.2914 Z-1.0000 F720
G01 X94.4982 Y75.4276 Z-1.0000 F720
G01 X95.5133 Y75.5271 Z-1.0000 F720
G01 X96.5314 Y75.5898 Z-1.0000 F720
G01 X97.5510 Y75.6156 Z-1.0000 F720
G01 X98.5709 Y75.6045 Z-1.0000 F720
G01 X99.5898 Y75.5565 Z-1.0000 F720
G01 X100.6063 Y75.4716 Z-1.0000 F720
G01 X101.6190 Y75.3499 Z-1.0000 F720
G01 X102.6266 Y75.1917 Z-1.0000 F720
G01 X103.6279 Y74.9971 Z-1.0000 F720
G01 X104.6214 Y74.7664 Z-1.0000 F720
G01 X105.6060 Y74.4999 Z-1.0000 F720
G01 X106.5802 Y74.1979 Z-1.0000 F720
G01 X107.5429 Y73.8608 Z-1.0000 F720
G01 X108.4928 Y73.4891 Z-1.0000 F720
G01 X109.4286 Y73.0832 Z-1.0000 F720
G01 X110.3490 Y72.6438 Z-1.0000 F720
G01 X111.2530 Y72.1713 Z-1.0000 F720
G01 X112.1392 Y71.6663 Z-1.0000 F720
G01 X113.0066 Y71.1297 Z-1.0000 F720
G01 X113.8540 Y70.5620 Z-1.0000 F720
G01 X114.6803 Y69.9639 Z-1.0000 F720
G01 X115.4844 Y69.3364 Z-1.0000 F720
G01 X116.2652 Y68.6801 Z-1.0000 F720
G01 X117.0218 Y67.9960 Z-1.0000 F720
G01 X117.7531 Y67.2850 Z-1.0000 F720
G01 X118.4000 Y66.6190 Z-1.0000 F720
G01 X119.0247 Y65.9322 Z-1.0000 F720
G01 X119.6266 Y65.2252 Z-1.0000 F720
G01 X120.2048 Y64.4988 Z-1.0000 F720
G01 X120.7590 Y63.7539 Z-1.0000 F720
G01 X121.2884 Y62.9912 Z-1.0000 F720
G01 X121.7925 Y62.2115 Z-1.0000 F720
G01 X122.2707 Y61.4157 Z-1.0000 F720
G01 X122.7226 Y60.6046 Z-1.0000 F720
G01 X123.1476 Y59.7791 Z-1.0000 F720
G01 X123.5453 Y58.9402 Z-1.0000 F720
G01 X123.9152 Y58.0886 Z-1.0000 F720
G01 X124.2570 Y57.2254 Z-1.0000 F720
G01 X124.5703 Y56.3514 Z-1.0000 F720
G01 X124.8547 Y55.4676 Z-1.0000 F720
G01 X125.1100 Y54.5749 Z-1.0000 F720
G01 X125.3358 Y53.6743 Z-1.0000 F720
G01 X125.5320 Y52.7668 Z-1.0000 F720
G01 X125.6983 Y51.8534 Z-1.0000 F720
G01 X125.8345 Y50.9350 Z-1.0000 F720
G01 X125.9405 Y50.0126 Z-1.0000 F720
G01 X126.0162 Y49.0873 Z-1.0000 F720
G01 X126.0615 Y48.1599 Z-1.0000 F720
G01 X126.0763 Y47.2316 Z-1.0000 F720
G01 X126.1081 Y45.5775 Z-1.0000 F720
G01 X126.1794 Y43.9246 Z-1.0000 F720
G01 X126.2901 Y42.2739 Z-1.0000 F720
G01 X126.4401 Y40.6263 Z-1.0000 F720
G01 X126.6275 Y38.5003 Z-1.0000 F720
G01 X126.4636 Y38.7333 Z-1.0000 F720
G01 X126.2839 Y38.9544 Z-1.0000 F720
G01 X126.0894 Y39.1624 Z-1.0000 F720
G01 X125.8809 Y39.3565 Z-1.0000 F720
G01 X125.6594 Y39.5356 Z-1.0000 F720
G01 X125.4260 Y39.6989 Z-1.0000 F720
G01 X125.1818 Y39.8456 Z-1.0000 F720
G01 X124.9281 Y39.9750 Z-1.0000 F720
G01 X124.6659 Y40.0864 Z-1.0000 F720
G01 X124.3967 Y40.1795 Z-1.0000 F720
G01 X124.1217 Y40.2535 Z-1.0000 F720
G01 X123.8422 Y40.3084 Z-1.0000 F720
G01 X123.3136 Y40.3868 Z-1.0000 F720
G01 X122.7910 Y40.4185 Z-1.0000 F720
G01 X122.8227 Y39.9643 Z-1.0000 F720
G01 X122.8857 Y39.5134 Z-1.0000 F720
G01 X122.9796 Y39.0679 Z-1.0000 F720
G01 X123.1039 Y38.6299 Z-1.0000 F720
G01 X123.2582 Y38.2015 Z-1.0000 F720
G01 X123.4416 Y37.7848 Z-1.0000 F720
G01 X123.6533 Y37.3817 Z-1.0000 F720
G01 X123.8923 Y36.9941 Z-1.0000 F720
G01 X124.0554 Y36.7645 Z-1.0000 F720
G01 X124.2376 Y36.5497 Z-1.0000 F720
G01 X124.4376 Y36.3514 Z-1.0000 F720
G01 X124.6539 Y36.1710 Z-1.0000 F720
G01 X124.8849 Y36.0099 Z-1.0000 F720
G01 X125.1290 Y35.8692 Z-1.0000 F720
G01 X125.3842 Y35.7501 Z-1.0000 F720
G01 X125.6487 Y35.6533 Z-1.0000 F720
G01 X125.9205 Y35.5796 Z-1.0000 F720
G01 X126.1977 Y35.5296 Z-1.0000 F720
G01 X126.4781 Y35.5036 Z-1.0000 F720
G01 X126.7598 Y35.5017 Z-1.0000 F720
G01 X126.8193 Y35.0418 Z-1.0000 F720
G01 X126.8616 Y34.5800 Z-1.0000 F720
G01 X126.8865 Y34.1169 Z-1.0000 F720
G01 X126.8940 Y33.6533 Z-1.0000 F720
G01 X126.8921 Y33.1646 Z-1.0000 F720
G01 X126.7216 Y33.0458 Z-1.0000 F720
G01 X126.5390 Y32.9467 Z-1.0000 F720
G01 X126.3467 Y32.8683 Z-1.0000 F720
G01 X126.1468 Y32.8115 Z-1.0000 F720
G01 X125.9419 Y32.7772 Z-1.0000 F720
G01 X125.7345 Y32.7658 Z-1.0000 F720
G01 X125.5271 Y32.7772 Z-1.0000 F720
G01 X125.3222 Y32.8115 Z-1.0000 F720
G01 X125.1224 Y32.8683 Z-1.0000 F720
G01 X124.9300 Y32.9467 Z-1.0000 F720
G01 X124.7475 Y33.0458 Z-1.0000 F720
G01 X124.5770 Y33.1646 Z-1.0000 F720
G01 X123.7194 Y34.0258 Z-1.0000 F720
G01 X123.3994 Y34.3590 Z-1.0000 F720
G01 X123.1069 Y34.7164 Z-1.0000 F720
G01 X122.8436 Y35.0960 Z-1.0000 F720
G01 X122.6113 Y35.4952 Z-1.0000 F720
G01 X121.7106 Y37.1333 Z-1.0000 F720
G01 X121.4655 Y37.4751 Z-1.0000 F720
G01 X121.2891 Y37.6863 Z-1.0000 F720
G01 X121.0937 Y37.8801 Z-1.0000 F720
G01 X120.8809 Y38.0548 Z-1.0000 F720
G01 X120.6528 Y38.2088 Z-1.0000 F720
G01 X120.4112 Y38.3407 Z-1.0000 F720
G01 X120.1583 Y38.4494 Z-1.0000 F720
G01 X119.8964 Y38.5340 Z-1.0000 F720
G01 X119.6277 Y38.5937 Z-1.0000 F720
G01 X119.3546 Y38.6280 Z-1.0000 F720
G01 X119.0795 Y38.6365 Z-1.0000 F720
G01 X118.8048 Y38.6192 Z-1.0000 F720
G01 X118.5329 Y38.5763 Z-1.0000 F720
G01 X118.1143 Y38.4930 Z-1.0000 F720
G01 X117.7003 Y38.3892 Z-1.0000 F720
G01 X117.2919 Y38.2651 Z-1.0000 F720
G01 X116.8901 Y38.1212 Z-1.0000 F720
G01 X116.2564 Y37.8536 Z-1.0000 F720
G01 X115.6167 Y37.6009 Z-1.0000 F720
G01 X114.9712 Y37.3632 Z-1.0000 F720
G01 X114.3203 Y37.1406 Z-1.0000 F720
G01 X113.7272 Y36.9902 Z-1.0000 F720
G01 X113.5317 Y36.9449 Z-1.0000 F720
G01 X113.3330 Y36.9176 Z-1.0000 F720
G01 X113.1326 Y36.9085 Z-1.0000 F720
G01 X112.9322 Y36.9176 Z-1.0000 F720
G01 X112.7334 Y36.9450 Z-1.0000 F720
G01 X112.5380 Y36.9903 Z-1.0000 F720
G01 X112.3475 Y37.0533 Z-1.0000 F720
G01 X112.1636 Y37.1333 Z-1.0000 F720
G01 X112.3850 Y36.9498 Z-1.0000 F720
G01 X112.5918 Y36.7500 Z-1.0000 F720
G01 X112.7828 Y36.5350 Z-1.0000 F720
G01 X112.9569 Y36.3062 Z-1.0000 F720
G01 X113.1132 Y36.0647 Z-1.0000 F720
G01 X113.2506 Y35.8121 Z-1.0000 F720
G01 X113.3684 Y35.5498 Z-1.0000 F720
G01 X113.4659 Y35.2792 Z-1.0000 F720
G01 X113.6146 Y34.7509 Z-1.0000 F720
G01 X113.7469 Y34.2182 Z-1.0000 F720
G01 X113.8629 Y33.6817 Z-1.0000 F720
G01 X113.9624 Y33.1420 Z-1.0000 F720
G01 X114.0478 Y32.7435 Z-1.0000 F720
G01 X114.1605 Y32.3518 Z-1.0000 F720
G01 X114.3001 Y31.9690 Z-1.0000 F720
G01 X114.4659 Y31.5967 Z-1.0000 F720
G01 X114.6106 Y31.3491 Z-1.0000 F720
G01 X114.7729 Y31.1126 Z-1.0000 F720
G01 X114.9520 Y30.8886 Z-1.0000 F720
G01 X115.1468 Y30.6782 Z-1.0000 F720
G01 X115.3565 Y30.4825 Z-1.0000 F720
G01 X115.5798 Y30.3025 Z-1.0000 F720
G01 X115.8155 Y30.1392 Z-1.0000 F720
G01 X116.0625 Y29.9935 Z-1.0000 F720
G01 X116.3195 Y29.8661 Z-1.0000 F720
G01 X116.5850 Y29.7576 Z-1.0000 F720
G01 X116.8577 Y29.6688 Z-1.0000 F720
G01 X117.1361 Y29.6000 Z-1.0000 F720
G01 X117.6048 Y29.5914 Z-1.0000 F720
G01 X118.0727 Y29.6207 Z-1.0000 F720
G01 X118.5367 Y29.6878 Z-1.0000 F720
G01 X118.9937 Y29.7923 Z-1.0000 F720
G01 X120.2186 Y30.0712 Z-1.0000 F720
G01 X120.5029 Y30.1428 Z-1.0000 F720
G01 X120.7895 Y30.2045 Z-1.0000 F720
G01 X121.0782 Y30.2561 Z-1.0000 F720
G01 X121.3684 Y30.2976 Z-1.0000 F720
G01 X121.6599 Y30.3288 Z-1.0000 F720
G01 X121.9524 Y30.3499 Z-1.0000 F720
G01 X122.2454 Y30.3607 Z-1.0000 F720
G01 X122.5386 Y30.3612 Z-1.0000 F720
G01 X122.7852 Y30.3315 Z-1.0000 F720
G01 X123.0175 Y30.2889 Z-1.0000 F720
G01 X123.2399 Y30.2098 Z-1.0000 F720
G01 X123.4469 Y30.0962 Z-1.0000 F720
G01 X123.6331 Y29.9510 Z-1.0000 F720
G01 X123.7938 Y29.7779 Z-1.0000 F720
G01 X123.9247 Y29.5814 Z-1.0000 F720
G01 X124.0226 Y29.3665 Z-1.0000 F720
G01 X124.0849 Y29.1387 Z-1.0000 F720
G01 X124.1298 Y28.8854 Z-1.0000 F720
G01 X124.1571 Y28.6296 Z-1.0000 F720
G01 X124.1665 Y28.3725 Z-1.0000 F720
G01 X124.1580 Y28.1154 Z-1.0000 F720
G01 X124.1331 Y27.9763 Z-1.0000 F720
G01 X124.0835 Y27.8439 Z-1.0000 F720
G01 X124.0109 Y27.7225 Z-1.0000 F720
G01 X123.9177 Y27.6163 Z-1.0000 F720
G01 X123.8068 Y27.5286 Z-1.0000 F720
G01 X123.6819 Y27.4622 Z-1.0000 F720
G01 X123.5472 Y27.4195 Z-1.0000 F720
G01 X123.4069 Y27.4017 Z-1.0000 F720
G01 X123.0288 Y27.3961 Z-1.0000 F720
G01 X122.6507 Y27.4040 Z-1.0000 F720
G01 X122.2732 Y27.4251 Z-1.0000 F720
G01 X121.8966 Y27.4596 Z-1.0000 F720
G01 X121.3276 Y27.4849 Z-1.0000 F720
G01 X120.9935 Y27.4748 Z-1.0000 F720
G01 X120.6617 Y27.4346 Z-1.0000 F720
G01 X120.3349 Y27.3646 Z-1.0000 F720
G01 X120.0158 Y27.2654 Z-1.0000 F720
G01 X119.7069 Y27.1378 Z-1.0000 F720
G01 X119.4108 Y26.9828 Z-1.0000 F720
G01 X119.1299 Y26.8017 Z-1.0000 F720
G01 X118.8665 Y26.5960 Z-1.0000 F720
G01 X118.6227 Y26.3674 Z-1.0000 F720
G01 X118.4006 Y26.1177 Z-1.0000 F720
G01 X118.2019 Y25.8490 Z-1.0000 F720
G01 X118.0283 Y25.5634 Z-1.0000 F720
G01 X117.8812 Y25.2633 Z-1.0000 F720
G01 X117.7617 Y24.9512 Z-1.0000 F720
G01 X117.6709 Y24.6296 Z-1.0000 F720
G01 X117.6096 Y24.3010 Z-1.0000 F720
G01 X118.1019 Y24.2091 Z-1.0000 F720
G01 X118.5410 Y24.1714 Z-1.0000 F720
G01 X118.9815 Y24.1580 Z-1.0000 F720
G01 X119.4220 Y24.1691 Z-1.0000 F720
G01 X119.8612 Y24.2047 Z-1.0000 F720
G01 X120.2978 Y24.2645 Z-1.0000 F720
G01 X120.7304 Y24.3485 Z-1.0000 F720
G01 X121.1577 Y24.4563 Z-1.0000 F720
G01 X121.5783 Y24.5877 Z-1.0000 F720
G01 X122.0422 Y24.9174 Z-1.0000 F720
G01 X122.5266 Y25.2162 Z-1.0000 F720
G01 X123.0293 Y25.4829 Z-1.0000 F720
G01 X123.5484 Y25.7163 Z-1.0000 F720
G01 X123.7211 Y25.7776 Z-1.0000 F720
G01 X123.8985 Y25.8233 Z-1.0000 F720
G01 X124.0794 Y25.8529 Z-1.0000 F720
G01 X124.2621 Y25.8663 Z-1.0000 F720
G01 X124.4454 Y25.8484 Z-1.0000 F720
G01 X124.6209 Y25.7928 Z-1.0000 F720
G01 X124.7811 Y25.7019 Z-1.0000 F720
G01 X124.9189 Y25.5798 Z-1.0000 F720
G01 X125.0282 Y25.4316 Z-1.0000 F720
G01 X125.1044 Y25.2640 Z-1.0000 F720
G01 X125.1440 Y25.0842 Z-1.0000 F720
G01 X125.1454 Y24.9000 Z-1.0000 F720
G01 X125.1306 Y24.6965 Z-1.0000 F720
G01 X125.0990 Y24.4949 Z-1.0000 F720
G01 X125.0510 Y24.2966 Z-1.0000 F720
G01 X124.9868 Y24.1029 Z-1.0000 F720
G01 X124.9068 Y23.9151 Z-1.0000 F720
G01 X124.8117 Y23.7346 Z-1.0000 F720
G01 X124.7020 Y23.5625 Z-1.0000 F720
G01 X124.5786 Y23.4000 Z-1.0000 F720
G01 X124.2945 Y23.0735 Z-1.0000 F720
G01 X123.9865 Y22.7695 Z-1.0000 F720
G01 X123.6561 Y22.4899 Z-1.0000 F720
G01 X123.3055 Y22.2363 Z-1.0000 F720
G01 X122.8504 Y21.9564 Z-1.0000 F720
G01 X122.3811 Y21.7011 Z-1.0000 F720
G01 X121.8990 Y21.4710 Z-1.0000 F720
G01 X121.4053 Y21.2668 Z-1.0000 F720
G01 X120.9015 Y21.0891 Z-1.0000 F720
G01 X120.3889 Y20.9384 Z-1.0000 F720
G01 X119.8691 Y20.8151 Z-1.0000 F720
G01 X119.3435 Y20.7195 Z-1.0000 F720
G01 X118.8136 Y20.6520 Z-1.0000 F720
G01 X118.2808 Y20.6126 Z-1.0000 F720
G01 X117.7466 Y20.6016 Z-1.0000 F720
G01 X117.2127 Y20.6189 Z-1.0000 F720
G01 X116.3152 Y20.6718 Z-1.0000 F720
G01 X115.4208 Y20.7622 Z-1.0000 F720
G01 X114.5309 Y20.8900 Z-1.0000 F720
G01 X113.6472 Y21.0550 Z-1.0000 F720
G01 X113.1163 Y21.1662 Z-1.0000 F720
G01 X112.5893 Y21.2950 Z-1.0000 F720
G01 X112.0670 Y21.4415 Z-1.0000 F720
G01 X111.5499 Y21.6053 Z-1.0000 F720
G01 X111.0386 Y21.7865 Z-1.0000 F720
G01 X110.5336 Y21.9846 Z-1.0000 F720
G01 X110.0355 Y22.1996 Z-1.0000 F720
G01 X109.5449 Y22.4311 Z-1.0000 F720
G01 X109.0624 Y22.6789 Z-1.0000 F720
G01 X108.5885 Y22.9428 Z-1.0000 F720
G01 X108.1236 Y23.2224 Z-1.0000 F720
G01 X107.6684 Y23.5175 Z-1.0000 F720
G01 X107.2083 Y23.8410 Z-1.0000 F720
G01 X106.7652 Y24.1874 Z-1.0000 F720
G01 X106.3401 Y24.5557 Z-1.0000 F720
G01 X105.9342 Y24.9451 Z-1.0000 F720
G01 X105.5486 Y25.3546 Z-1.0000 F720
G01 X105.1841 Y25.7830 Z-1.0000 F720
G01 X104.8418 Y26.2292 Z-1.0000 F720
G01 X104.5225 Y26.6923 Z-1.0000 F720
G01 X104.2270 Y27.1709 Z-1.0000 F720
G01 X103.9561 Y27.6638 Z-1.0000 F720
G01 X103.7104 Y28.1698 Z-1.0000 F720
G01 X103.4907 Y28.6875 Z-1.0000 F720
G01 X103.2975 Y29.2158 Z-1.0000 F720
G01 X103.1312 Y29.7531 Z-1.0000 F720
G01 X102.9923 Y30.2981 Z-1.0000 F720
G01 X102.8811 Y30.8495 Z-1.0000 F720
G01 X102.7013 Y31.9781 Z-1.0000 F720
G01 X102.5275 Y33.1076 Z-1.0000 F720
G01 X102.3596 Y34.2381 Z-1.0000 F720
G01 X102.1976 Y35.3694 Z-1.0000 F720
G01 X102.4220 Y35.1397 Z-1.0000 F720
G01 X102.6595 Y34.9252 Z-1.0000 F720
G01 X102.9189 Y34.7376 Z-1.0000 F720
G01 X103.1970 Y34.5792 Z-1.0000 F720
G01 X103.4907 Y34.4520 Z-1.0000 F720
G01 X103.7964 Y34.3573 Z-1.0000 F720
G01 X104.1106 Y34.2963 Z-1.0000 F720
G01 X104.4296 Y34.2697 Z-1.0000 F720
G01 X104.7496 Y34.2778 Z-1.0000 F720
G01 X105.0668 Y34.3206 Z-1.0000 F720
G01 X105.3775 Y34.3975 Z-1.0000 F720
G01 X105.6780 Y34.5076 Z-1.0000 F720
G01 X105.9648 Y34.6496 Z-1.0000 F720
G01 X106.2532 Y34.8475 Z-1.0000 F720
G01 X106.5185 Y35.0755 Z-1.0000 F720
G01 X106.7575 Y35.3309 Z-1.0000 F720
G01 X106.9675 Y35.6106 Z-1.0000 F720
G01 X107.1458 Y35.9115 Z-1.0000 F720
G01 X107.2905 Y36.2299 Z-1.0000 F720
G01 X107.3999 Y36.5622 Z-1.0000 F720
G01 X107.4726 Y36.9043 Z-1.0000 F720
G01 X107.5078 Y37.2523 Z-1.0000 F720
G01 X107.5050 Y37.6021 Z-1.0000 F720
G01 X107.4644 Y37.9495 Z-1.0000 F720
G01 X107.3864 Y38.2905 Z-1.0000 F720
G01 X107.2719 Y38.6210 Z-1.0000 F720
G01 X107.1222 Y38.9371 Z-1.0000 F720
G01 X106.9392 Y39.2352 Z-1.0000 F720
G01 X106.7249 Y39.5116 Z-1.0000 F720
G01 X106.4819 Y39.7632 Z-1.0000 F720
G01 X106.2131 Y39.9870 Z-1.0000 F720
G01 X105.9216 Y40.1804 Z-1.0000 F720
G01 X105.6109 Y40.3410 Z-1.0000 F720
G01 X105.4090 Y40.4169 Z-1.0000 F720
G01 X105.2020 Y40.4773 Z-1.0000 F720
G01 X104.9910 Y40.5221 Z-1.0000 F720
G01 X104.7773 Y40.5509 Z-1.0000 F720
G01 X104.9630 Y40.8032 Z-1.0000 F720
G01 X105.1214 Y41.0736 Z-1.0000 F720
G01 X105.2507 Y41.3590 Z-1.0000 F720
G01 X105.3494 Y41.6564 Z-1.0000 F720
G01 X105.4166 Y41.9624 Z-1.0000 F720
G01 X105.4515 Y42.2738 Z-1.0000 F720
G01 X105.4537 Y42.5871 Z-1.0000 F720
G01 X105.4232 Y42.8990 Z-1.0000 F720
G01 X105.3603 Y43.2059 Z-1.0000 F720
G01 X105.2657 Y43.5046 Z-1.0000 F720
G01 X105.1404 Y43.7918 Z-1.0000 F720
G01 X104.9859 Y44.0644 Z-1.0000 F720
G01 X104.8037 Y44.3193 Z-1.0000 F720
G01 X104.5959 Y44.5539 Z-1.0000 F720
G01 X104.3648 Y44.7654 Z-1.0000 F720
G01 X104.1128 Y44.9517 Z-1.0000 F720
G01 X103.8428 Y45.1107 Z-1.0000 F720
G01 X103.5577 Y45.2406 Z-1.0000 F720
G01 X103.2605 Y45.3400 Z-1.0000 F720
G01 X102.9547 Y45.4079 Z-1.0000 F720
G01 X102.6425 Y45.4607 Z-1.0000 F720
G01 X102.3265 Y45.4800 Z-1.0000 F720
G01 X102.0102 Y45.4655 Z-1.0000 F720
G01 X101.6973 Y45.4174 Z-1.0000 F720
G01 X101.3912 Y45.3363 Z-1.0000 F720
G01 X101.0956 Y45.2230 Z-1.0000 F720
G01 X100.8137 Y45.0789 Z-1.0000 F720
G01 X100.5488 Y44.9056 Z-1.0000 F720
G01 X100.3038 Y44.7050 Z-1.0000 F720
G01 X100.0816 Y44.4795 Z-1.0000 F720
G01 X99.8846 Y44.2316 Z-1.0000 F720
G01 X99.7152 Y43.9641 Z-1.0000 F720
G01 X99.5752 Y43.6801 Z-1.0000 F720
G01 X99.4663 Y43.3829 Z-1.0000 F720
G01 X99.3897 Y43.0757 Z-1.0000 F720
G01 X99.3462 Y42.7621 Z-1.0000 F720
G01 X99.3313 Y42.4471 Z-1.0000 F720
G01 X99.3729 Y42.0315 Z-1.0000 F720
G01 X99.4636 Y41.6313 Z-1.0000 F720
G01 X99.2408 Y41.7183 Z-1.0000 F720
G01 X99.0131 Y41.7913 Z-1.0000 F720
G01 X98.7812 Y41.8499 Z-1.0000 F720
G01 X98.5462 Y41.8939 Z-1.0000 F720
G01 X98.2194 Y41.9068 Z-1.0000 F720
G01 X97.8931 Y41.8859 Z-1.0000 F720
G01 X97.5707 Y41.8314 Z-1.0000 F720
G01 X97.2556 Y41.7438 Z-1.0000 F720
G01 X96.9513 Y41.6242 Z-1.0000 F720
G01 X96.6609 Y41.4737 Z-1.0000 F720
G01 X96.3877 Y41.2941 Z-1.0000 F720
G01 X96.1345 Y41.0871 Z-1.0000 F720
G01 X95.9040 Y40.8552 Z-1.0000 F720
G01 X95.6987 Y40.6006 Z-1.0000 F720
G01 X95.5209 Y40.3262 Z-1.0000 F720
G01 X95.3723 Y40.0349 Z-1.0000 F720
G01 X95.2547 Y39.7298 Z-1.0000 F720
G01 X95.1692 Y39.4142 Z-1.0000 F720
G01 X95.1167 Y39.0914 Z-1.0000 F720
G01 X95.0979 Y38.7649 Z-1.0000 F720
G01 X95.1144 Y38.4502 Z-1.0000 F720
G01 X95.1624 Y38.1464 Z-1.0000 F720
G01 X95.2405 Y37.8548 Z-1.0000 F720
G01 X95.3638 Y37.5568 Z-1.0000 F720
G01 X95.5170 Y37.2730 Z-1.0000 F720
G01 X95.6985 Y37.0064 Z-1.0000 F720
G01 X95.9064 Y36.7598 Z-1.0000 F720
G01 X96.1385 Y36.5359 Z-1.0000 F720
G01 X96.3924 Y36.3369 Z-1.0000 F720
G01 X96.6653 Y36.1651 Z-1.0000 F720
G01 X96.9544 Y36.0222 Z-1.0000 F720
G01 X97.2567 Y35.9097 Z-1.0000 F720
G01 X97.5689 Y35.8288 Z-1.0000 F720
G01 X97.8877 Y35.7804 Z-1.0000 F720
G01 X98.2099 Y35.7649 Z-1.0000 F720
G01 X98.5319 Y35.7826 Z-1.0000 F720
G01 X98.8504 Y35.8332 Z-1.0000 F720
G01 X99.1621 Y35.9163 Z-1.0000 F720
G01 X99.4636 Y36.0309 Z-1.0000 F720
G01 X98.0667 Y34.5805 Z-1.0000 F720
G01 X96.1783 Y32.6354 Z-1.0000 F720
G01 X95.8004 Y32.2528 Z-1.0000 F720
G01 X95.4087 Y31.8843 Z-1.0000 F720
G01 X95.0038 Y31.5305 Z-1.0000 F720
G01 X94.5862 Y31.1917 Z-1.0000 F720
G01 X94.1564 Y30.8684 Z-1.0000 F720
G01 X93.7150 Y30.5612 Z-1.0000 F720
G01 X93.2627 Y30.2703 Z-1.0000 F720
G01 X92.8000 Y29.9962 Z-1.0000 F720
G01 X92.3276 Y29.7393 Z-1.0000 F720
G01 X91.8461 Y29.4998 Z-1.0000 F720
G01 X91.3561 Y29.2782 Z-1.0000 F720
G01 X90.8583 Y29.0747 Z-1.0000 F720
G01 X90.3416 Y28.8836 Z-1.0000 F720
G01 X89.8164 Y28.7173 Z-1.0000 F720
G01 X89.2838 Y28.5763 Z-1.0000 F720
G01 X88.7452 Y28.4608 Z-1.0000 F720
G01 X88.2016 Y28.3712 Z-1.0000 F720
G01 X87.6544 Y28.3075 Z-1.0000 F720
G01 X87.1047 Y28.2701 Z-1.0000 F720
G01 X86.5539 Y28.2588 Z-1.0000 F720
G01 X86.0032 Y28.2739 Z-1.0000 F720
G01 X85.4538 Y28.3152 Z-1.0000 F720
G01 X84.9070 Y28.3826 Z-1.0000 F720
G01 X84.3641 Y28.4761 Z-1.0000 F720
G01 X83.8262 Y28.5953 Z-1.0000 F720
G01 X83.2947 Y28.7400 Z-1.0000 F720
G01 X82.7706 Y28.9099 Z-1.0000 F720
G01 X82.2552 Y29.1046 Z-1.0000 F720
G01 X81.7497 Y29.3237 Z-1.0000 F720
G01 X81.2552 Y29.5666 Z-1.0000 F720
G01 X80.7729 Y29.8328 Z-1.0000 F720
G01 X80.3038 Y30.1217 Z-1.0000 F720
G01 X79.8182 Y30.4526 Z-1.0000 F720
G01 X79.3595 Y30.8862 Z-1.0000 F720
G01 X78.9184 Y31.3375 Z-1.0000 F720
G01 X78.4955 Y31.8061 Z-1.0000 F720
G01 X78.0915 Y32.2910 Z-1.0000 F720
G01 X77.7070 Y32.7915 Z-1.0000 F720
G01 X77.3426 Y33.3069 Z-1.0000 F720
G01 X76.9990 Y33.8364 Z-1.0000 F720
G01 X76.6767 Y34.3790 Z-1.0000 F720
G01 X76.3761 Y34.9340 Z-1.0000 F720
G01 X76.0977 Y35.5004 Z-1.0000 F720
G01 X75.8420 Y36.0775 Z-1.0000 F720
G01 X75.6094 Y36.6642 Z-1.0000 F720
G01 X75.5018 Y36.9762 Z-1.0000 F720
G01 X75.4048 Y37.2916 Z-1.0000 F720
G01 X75.3185 Y37.6101 Z-1.0000 F720
G01 X75.2430 Y37.9314 Z-1.0000 F720
G01 X75.1784 Y38.2550 Z-1.0000 F720
G01 X75.1248 Y38.5806 Z-1.0000 F720
G01 X75.0822 Y38.9078 Z-1.0000 F720
G01 X75.0507 Y39.2363 Z-1.0000 F720
G01 X75.0337 Y39.8674 Z-1.0000 F720
G01 X75.6100 Y39.7324 Z-1.0000 F720
G01 X75.6982 Y39.7111 Z-1.0000 F720
G01 X75.7890 Y39.7114 Z-1.0000 F720
G01 X75.8771 Y39.7330 Z-1.0000 F720
G01 X75.9576 Y39.7748 Z-1.0000 F720
G01 X76.0260 Y39.8344 Z-1.0000 F720
G01 X76.0783 Y39.9085 Z-1.0000 F720
G01 X76.1117 Y39.9929 Z-1.0000 F720
G01 X76.1243 Y40.0828 Z-1.0000 F720
G01 X76.2685 Y40.8154 Z-1.0000 F720
G01 X76.3244 Y40.8607 Z-1.0000 F720
G01 X76.3888 Y40.8926 Z-1.0000 F720
G01 X76.4586 Y40.9099 Z-1.0000 F720
G01 X76.5305 Y40.9115 Z-1.0000 F720
G01 X76.6010 Y40.8975 Z-1.0000 F720
G01 X76.6668 Y40.8685 Z-1.0000 F720
G01 X76.7247 Y40.8259 Z-1.0000 F720
G01 X76.7720 Y40.7717 Z-1.0000 F720
G01 X76.8990 Y40.6284 Z-1.0000 F720
G01 X77.1500 Y40.2104 Z-1.0000 F720
G01 X77.3692 Y39.7750 Z-1.0000 F720
G01 X77.5553 Y39.3244 Z-1.0000 F720
G01 X77.7074 Y38.8612 Z-1.0000 F720
G01 X78.0323 Y37.8168 Z-1.0000 F720
G01 X78.1502 Y37.2910 Z-1.0000 F720
G01 X78.2024 Y37.0834 Z-1.0000 F720
G01 X78.2726 Y36.8811 Z-1.0000 F720
G01 X78.3601 Y36.6858 Z-1.0000 F720
G01 X78.4643 Y36.4988 Z-1.0000 F720
G01 X78.5844 Y36.3216 Z-1.0000 F720
G01 X78.7196 Y36.1555 Z-1.0000 F720
G01 X78.8687 Y36.0019 Z-1.0000 F720
G01 X79.0307 Y35.8619 Z-1.0000 F720
G01 X79.2042 Y35.7365 Z-1.0000 F720
G01 X79.3880 Y35.6268 Z-1.0000 F720
G01 X79.5807 Y35.5335 Z-1.0000 F720
G01 X79.7808 Y35.4574 Z-1.0000 F720
G01 X80.1565 Y35.3313 Z-1.0000 F720
G01 X80.5386 Y35.2267 Z-1.0000 F720
G01 X80.9261 Y35.1438 Z-1.0000 F720
G01 X81.3176 Y35.0828 Z-1.0000 F720
G01 X81.3930 Y35.4703 Z-1.0000 F720
G01 X81.4417 Y35.8620 Z-1.0000 F720
G01 X81.4637 Y36.2561 Z-1.0000 F720
G01 X81.4587 Y36.6508 Z-1.0000 F720
G01 X81.4490 Y36.8816 Z-1.0000 F720
G01 X81.4180 Y37.1106 Z-1.0000 F720
G01 X81.3661 Y37.3358 Z-1.0000 F720
G01 X81.2936 Y37.5552 Z-1.0000 F720
G01 X81.2013 Y37.7670 Z-1.0000 F720
G01 X81.0898 Y37.9694 Z-1.0000 F720
G01 X80.9602 Y38.1607 Z-1.0000 F720
G01 X80.8135 Y38.3392 Z-1.0000 F720
G01 X80.6509 Y38.5034 Z-1.0000 F720
G01 X80.4740 Y38.6520 Z-1.0000 F720
G01 X80.2841 Y38.7836 Z-1.0000 F720
G01 X80.0828 Y38.8972 Z-1.0000 F720
G01 X79.5308 Y39.4459 Z-1.0000 F720
G01 X79.0043 Y40.0191 Z-1.0000 F720
G01 X78.5045 Y40.6157 Z-1.0000 F720
G01 X78.0323 Y41.2344 Z-1.0000 F720
G01 X78.5702 Y41.2012 Z-1.0000 F720
G01 X79.0042 Y41.2186 Z-1.0000 F720
G01 X79.1597 Y41.2314 Z-1.0000 F720
G01 X79.3111 Y41.2688 Z-1.0000 F720
G01 X79.4546 Y41.3300 Z-1.0000 F720
G01 X79.5864 Y41.4133 Z-1.0000 F720
G01 X79.7032 Y41.5167 Z-1.0000 F720
G01 X79.8020 Y41.6374 Z-1.0000 F720
G01 X79.8803 Y41.7723 Z-1.0000 F720
G01 X79.9360 Y41.9180 Z-1.0000 F720
G01 X80.0263 Y42.2818 Z-1.0000 F720
G01 X80.0828 Y42.7337 Z-1.0000 F720
G01 X81.2404 Y40.6170 Z-1.0000 F720
G01 X82.3979 Y38.5003 Z-1.0000 F720
G01 X82.6642 Y38.3719 Z-1.0000 F720
G01 X82.9816 Y38.2621 Z-1.0000 F720
G01 X83.3047 Y38.1706 Z-1.0000 F720
G01 X83.6326 Y38.0979 Z-1.0000 F720
G01 X83.9641 Y38.0441 Z-1.0000 F720
G01 X84.2982 Y38.0093 Z-1.0000 F720
G01 X84.6337 Y37.9938 Z-1.0000 F720
G01 X84.9695 Y37.9976 Z-1.0000 F720
G01 X85.3045 Y38.0206 Z-1.0000 F720
G01 X85.6377 Y38.0628 Z-1.0000 F720
G01 X85.9679 Y38.1240 Z-1.0000 F720
G01 X86.2941 Y38.2040 Z-1.0000 F720
G01 X86.6152 Y38.3027 Z-1.0000 F720
G01 X86.7738 Y38.3639 Z-1.0000 F720
G01 X86.9282 Y38.4351 Z-1.0000 F720
G01 X87.0779 Y38.5158 Z-1.0000 F720
G01 X87.2221 Y38.6059 Z-1.0000 F720
G01 X87.3603 Y38.7050 Z-1.0000 F720
G01 X87.4920 Y38.8125 Z-1.0000 F720
G01 X87.6167 Y38.9282 Z-1.0000 F720
G01 X87.7337 Y39.0516 Z-1.0000 F720
G01 X88.1851 Y39.6536 Z-1.0000 F720
G01 X88.6276 Y40.2623 Z-1.0000 F720
G01 X89.0610 Y40.8774 Z-1.0000 F720
G01 X89.4852 Y41.4989 Z-1.0000 F720
G01 X89.7327 Y41.8430 Z-1.0000 F720
G01 X89.9934 Y42.1772 Z-1.0000 F720
G01 X90.2670 Y42.5010 Z-1.0000 F720
G01 X90.5531 Y42.8138 Z-1.0000 F720
G01 X90.8512 Y43.1152 Z-1.0000 F720
G01 X91.1608 Y43.4047 Z-1.0000 F720
G01 X91.4814 Y43.6819 Z-1.0000 F720
G01 X91.8127 Y43.9464 Z-1.0000 F720
G01 X91.4356 Y44.3355 Z-1.0000 F720
G01 X91.0703 Y44.7357 Z-1.0000 F720
G01 X90.7171 Y45.1466 Z-1.0000 F720
G01 X90.3764 Y45.5679 Z-1.0000 F720
G01 X90.0484 Y45.9992 Z-1.0000 F720
G01 X89.7334 Y46.4400 Z-1.0000 F720
G01 X89.4317 Y46.8901 Z-1.0000 F720
G01 X89.1435 Y47.3490 Z-1.0000 F720
G01 X88.6857 Y48.0991 Z-1.0000 F720
G01 X87.8660 Y49.5467 Z-1.0000 F720
G01 X87.6348 Y49.8012 Z-1.0000 F720
G01 X87.3714 Y50.0338 Z-1.0000 F720
G01 X87.0679 Y50.2452 Z-1.0000 F720
G01 X86.7490 Y50.4325 Z-1.0000 F720
G01 X86.4166 Y50.5945 Z-1.0000 F720
G01 X86.0726 Y50.7303 Z-1.0000 F720
G01 X85.7191 Y50.8390 Z-1.0000 F720
G01 X85.3583 Y50.9201 Z-1.0000 F720
G01 X84.9923 Y50.9730 Z-1.0000 F720
G01 X84.6233 Y50.9974 Z-1.0000 F720
G01 X84.2535 Y50.9932 Z-1.0000 F720
G01 X83.8851 Y50.9604 Z-1.0000 F720
G01 X83.5204 Y50.8992 Z-1.0000 F720
G01 X83.1615 Y50.8099 Z-1.0000 F720
G01 X82.8449 Y50.6803 Z-1.0000 F720
G01 X82.5523 Y50.5168 Z-1.0000 F720
G01 X82.3926 Y50.3051 Z-1.0000 F720
G01 X82.2419 Y50.0869 Z-1.0000 F720
G01 X82.1007 Y49.8625 Z-1.0000 F720
G01 X81.9690 Y49.6323 Z-1.0000 F720
G01 X81.8473 Y49.3967 Z-1.0000 F720
G01 X81.7355 Y49.1563 Z-1.0000 F720
G01 X81.6341 Y48.9113 Z-1.0000 F720
G01 X81.5431 Y48.6622 Z-1.0000 F720
G01 X81.3176 Y48.0474 Z-1.0000 F720
G01 X81.3069 Y48.4865 Z-1.0000 F720
G01 X81.2755 Y48.7274 Z-1.0000 F720
G01 X81.2089 Y48.9609 Z-1.0000 F720
G01 X81.1084 Y49.1820 Z-1.0000 F720
G01 X80.9764 Y49.3858 Z-1.0000 F720
G01 X80.8156 Y49.5679 Z-1.0000 F720
G01 X80.6298 Y49.7242 Z-1.0000 F720
G01 X80.4228 Y49.8512 Z-1.0000 F720
G01 X80.1994 Y49.9463 Z-1.0000 F720
G01 X79.7184 Y50.1074 Z-1.0000 F720
G01 X79.1348 Y50.2302 Z-1.0000 F720
G01 X79.3650 Y50.5174 Z-1.0000 F720
G01 X79.6224 Y50.7806 Z-1.0000 F720
G01 X79.9045 Y51.0171 Z-1.0000 F720
G01 X80.2085 Y51.2247 Z-1.0000 F720
G01 X80.5315 Y51.4012 Z-1.0000 F720
G01 X80.8703 Y51.5451 Z-1.0000 F720
G01 X81.2217 Y51.6549 Z-1.0000 F720
G01 X81.5821 Y51.7295 Z-1.0000 F720
G01 X81.8218 Y51.9381 Z-1.0000 F720
G01 X82.0419 Y52.1672 Z-1.0000 F720
G01 X82.2407 Y52.4150 Z-1.0000 F720
G01 X82.4167 Y52.6795 Z-1.0000 F720
G01 X82.5684 Y52.9586 Z-1.0000 F720
G01 X82.6947 Y53.2501 Z-1.0000 F720
G01 X82.7945 Y53.5517 Z-1.0000 F720
G01 X82.8671 Y53.8611 Z-1.0000 F720
G01 X82.9763 Y54.4218 Z-1.0000 F720
G01 X83.0359 Y54.8483 Z-1.0000 F720
G01 X83.1212 Y55.2704 Z-1.0000 F720
G01 X83.2321 Y55.6865 Z-1.0000 F720
G01 X83.3681 Y56.0951 Z-1.0000 F720
G01 X82.9999 Y55.9630 Z-1.0000 F720
G01 X82.6234 Y55.8566 Z-1.0000 F720
G01 X82.2404 Y55.7767 Z-1.0000 F720
G01 X81.8528 Y55.7234 Z-1.0000 F720
G01 X81.3837 Y55.6544 Z-1.0000 F720
G01 X81.1032 Y55.5974 Z-1.0000 F720
G01 X80.8283 Y55.5175 Z-1.0000 F720
G01 X80.5610 Y55.4150 Z-1.0000 F720
G01 X80.3031 Y55.2909 Z-1.0000 F720
G01 X80.0563 Y55.1458 Z-1.0000 F720
G01 X79.8224 Y54.9808 Z-1.0000 F720
G01 X79.6029 Y54.7971 Z-1.0000 F720
G01 X79.3993 Y54.5958 Z-1.0000 F720
G01 X79.3063 Y54.2710 Z-1.0000 F720
G01 X79.1924 Y53.9528 Z-1.0000 F720
G01 X79.0580 Y53.6428 Z-1.0000 F720
G01 X78.9038 Y53.3422 Z-1.0000 F720
G01 X78.7303 Y53.0522 Z-1.0000 F720
G01 X78.5383 Y52.7742 Z-1.0000 F720
G01 X78.3286 Y52.5092 Z-1.0000 F720
G01 X78.1022 Y52.2584 Z-1.0000 F720
G01 X77.8662 Y51.9510 Z-1.0000 F720
G01 X77.6354 Y51.5972 Z-1.0000 F720
G01 X77.6173 Y52.0464 Z-1.0000 F720
G01 X77.5908 Y52.2433 Z-1.0000 F720
G01 X77.5304 Y52.4326 Z-1.0000 F720
G01 X77.4379 Y52.6085 Z-1.0000 F720
G01 X77.3161 Y52.7655 Z-1.0000 F720
G01 X77.1687 Y52.8988 Z-1.0000 F720
G01 X77.0004 Y53.0044 Z-1.0000 F720
G01 X76.8162 Y53.0789 Z-1.0000 F720
G01 X76.6218 Y53.1202 Z-1.0000 F720
G01 X76.2598 Y53.1853 Z-1.0000 F720
G01 X75.8495 Y53.2288 Z-1.0000 F720
G01 X76.0667 Y53.3304 Z-1.0000 F720
G01 X76.2787 Y53.4423 Z-1.0000 F720
G01 X76.4851 Y53.5642 Z-1.0000 F720
G01 X76.6855 Y53.6959 Z-1.0000 F720
G01 X76.9564 Y53.8907 Z-1.0000 F720
G01 X77.2051 Y54.1131 Z-1.0000 F720
G01 X77.4290 Y54.3606 Z-1.0000 F720
G01 X77.6254 Y54.6303 Z-1.0000 F720
G01 X77.7921 Y54.9194 Z-1.0000 F720
G01 X77.9274 Y55.2244 Z-1.0000 F720
G01 X78.0296 Y55.5421 Z-1.0000 F720
G01 X78.0976 Y55.8687 Z-1.0000 F720
G01 X78.1307 Y56.2008 Z-1.0000 F720
G01 X78.1285 Y56.5344 Z-1.0000 F720
G01 X78.0910 Y56.8660 Z-1.0000 F720
G01 X78.0186 Y57.1918 Z-1.0000 F720
G01 X77.9386 Y57.4828 Z-1.0000 F720
G01 X77.8373 Y57.7672 Z-1.0000 F720
G01 X77.7151 Y58.0433 Z-1.0000 F720
G01 X77.5728 Y58.3095 Z-1.0000 F720
G01 X77.4112 Y58.5645 Z-1.0000 F720
G01 X77.2311 Y58.8068 Z-1.0000 F720
G01 X77.0336 Y59.0351 Z-1.0000 F720
G01 X76.8196 Y59.2481 Z-1.0000 F720
G01 X76.0115 Y59.9425 Z-1.0000 F720
G01 X75.2165 Y60.6519 Z-1.0000 F720
G01 X74.4348 Y61.3760 Z-1.0000 F720
G01 X73.6667 Y62.1144 Z-1.0000 F720
G01 X74.0836 Y62.7677 Z-1.0000 F720
G01 X74.5179 Y63.4096 Z-1.0000 F720
G01 X74.9693 Y64.0395 Z-1.0000 F720
G01 X75.4374 Y64.6571 Z-1.0000 F720
G01 X75.9221 Y65.2618 Z-1.0000 F720
G01 X76.4228 Y65.8534 Z-1.0000 F720
G01 X76.9392 Y66.4312 Z-1.0000 F720
G01 X77.4710 Y66.9949 Z-1.0000 F720
G00 X77.4710 Y66.9949 Z5.0000 F500


;No. 3: Engraving 3
G00 X76.6653 Y74.3955 Z5.0000 F2100
G00 X76.6653 Y74.3955 Z0.5000 F500
G01 X76.6653 Y74.3955 Z-1.0000 F210
G01 X76.6470 Y73.9675 Z-1.0000 F720
G01 X76.5969 Y73.5421 Z-1.0000 F720
G01 X76.5153 Y73.1216 Z-1.0000 F720
G01 X76.4028 Y72.7083 Z-1.0000 F720
G01 X76.2598 Y72.3046 Z-1.0000 F720
G01 X76.0872 Y71.9125 Z-1.0000 F720
G01 X75.8859 Y71.5344 Z-1.0000 F720
G01 X75.6571 Y71.1723 Z-1.0000 F720
G01 X75.4021 Y70.8281 Z-1.0000 F720
G01 X75.1221 Y70.5039 Z-1.0000 F720
G01 X74.8189 Y70.2014 Z-1.0000 F720
G01 X74.4940 Y69.9222 Z-1.0000 F720
G01 X74.1492 Y69.6680 Z-1.0000 F720
G01 X73.7866 Y69.4401 Z-1.0000 F720
G01 X73.4080 Y69.2397 Z-1.0000 F720
G01 X73.0155 Y69.0681 Z-1.0000 F720
G01 X72.6114 Y68.9261 Z-1.0000 F720
G01 X72.1978 Y68.8145 Z-1.0000 F720
G01 X71.7771 Y68.7339 Z-1.0000 F720
G01 X71.3516 Y68.6849 Z-1.0000 F720
G01 X70.9261 Y68.7339 Z-1.0000 F720
G01 X70.5054 Y68.8145 Z-1.0000 F720
G01 X70.0918 Y68.9261 Z-1.0000 F720
G01 X69.6877 Y69.0681 Z-1.0000 F720
G01 X69.2952 Y69.2397 Z-1.0000 F720
G01 X68.9166 Y69.4401 Z-1.0000 F720
G01 X68.5539 Y69.6680 Z-1.0000 F720
G01 X68.2092 Y69.9222 Z-1.0000 F720
G01 X67.8843 Y70.2014 Z-1.0000 F720
G01 X67.5811 Y70.5039 Z-1.0000 F720
G01 X67.3011 Y70.8281 Z-1.0000 F720
G01 X67.0461 Y71.1723 Z-1.0000 F720
G01 X66.8173 Y71.5344 Z-1.0000 F720
G01 X66.6160 Y71.9125 Z-1.0000 F720
G01 X66.4434 Y72.3045 Z-1.0000 F720
G01 X66.3005 Y72.7083 Z-1.0000 F720
G01 X66.1879 Y73.1216 Z-1.0000 F720
G01 X66.1063 Y73.5421 Z-1.0000 F720
G01 X66.0562 Y73.9675 Z-1.0000 F720
G01 X66.0379 Y74.3955 Z-1.0000 F720
G01 X66.0650 Y74.9580 Z-1.0000 F720
G01 X66.1197 Y75.3580 Z-1.0000 F720
G01 X66.2018 Y75.7533 Z-1.0000 F720
G01 X66.3108 Y76.1420 Z-1.0000 F720
G01 X66.4462 Y76.5223 Z-1.0000 F720
G01 X66.6073 Y76.8924 Z-1.0000 F720
G01 X66.7935 Y77.2507 Z-1.0000 F720
G01 X67.0038 Y77.5953 Z-1.0000 F720
G01 X67.2372 Y77.9247 Z-1.0000 F720
G01 X67.4926 Y78.2372 Z-1.0000 F720
G01 X67.7689 Y78.5316 Z-1.0000 F720
G01 X68.0647 Y78.8063 Z-1.0000 F720
G01 X68.3787 Y79.0601 Z-1.0000 F720
G01 X68.7093 Y79.2917 Z-1.0000 F720
G01 X69.0551 Y79.5001 Z-1.0000 F720
G01 X69.4143 Y79.6843 Z-1.0000 F720
G01 X69.7853 Y79.8435 Z-1.0000 F720
G01 X70.1663 Y79.9768 Z-1.0000 F720
G01 X70.5556 Y80.0837 Z-1.0000 F720
G01 X70.9513 Y80.1637 Z-1.0000 F720
G01 X71.3516 Y80.2163 Z-1.0000 F720
G01 X71.7797 Y80.1592 Z-1.0000 F720
G01 X72.2024 Y80.0709 Z-1.0000 F720
G01 X72.6175 Y79.9518 Z-1.0000 F720
G01 X73.0227 Y79.8025 Z-1.0000 F720
G01 X73.4159 Y79.6238 Z-1.0000 F720
G01 X73.7948 Y79.4168 Z-1.0000 F720
G01 X74.1576 Y79.1824 Z-1.0000 F720
G01 X74.5021 Y78.9221 Z-1.0000 F720
G01 X74.8266 Y78.6371 Z-1.0000 F720
G01 X75.1293 Y78.3291 Z-1.0000 F720
G01 X75.4085 Y77.9996 Z-1.0000 F720
G01 X75.6628 Y77.6506 Z-1.0000 F720
G01 X75.8908 Y77.2838 Z-1.0000 F720
G01 X76.0912 Y76.9013 Z-1.0000 F720
G01 X76.2629 Y76.5051 Z-1.0000 F720
G01 X76.4051 Y76.0973 Z-1.0000 F720
G01 X76.5170 Y75.6802 Z-1.0000 F720
G01 X76.5979 Y75.2560 Z-1.0000 F720
G01 X76.6474 Y74.8270 Z-1.0000 F720
G01 X76.6653 Y74.3955 Z-1.0000 F720
G00 X76.6653 Y74.3955 Z5.0000 F500


;No. 4: Engraving 4
G00 X65.2323 Y66.9949 Z5.0000 F2100
G00 X65.2323 Y66.9949 Z0.5000 F500
G01 X65.2323 Y66.9949 Z-1.0000 F210
G01 X65.7641 Y66.4312 Z-1.0000 F720
G01 X66.2805 Y65.8534 Z-1.0000 F720
G01 X66.7812 Y65.2618 Z-1.0000 F720
G01 X67.2658 Y64.6571 Z-1.0000 F720
G01 X67.7339 Y64.0395 Z-1.0000 F720
G01 X68.1853 Y63.4095 Z-1.0000 F720
G01 X68.6196 Y62.7677 Z-1.0000 F720
G01 X69.0365 Y62.1144 Z-1.0000 F720
G01 X68.2657 Y61.3789 Z-1.0000 F720
G01 X67.4831 Y60.6559 Z-1.0000 F720
G01 X66.6890 Y59.9456 Z-1.0000 F720
G01 X65.8835 Y59.2481 Z-1.0000 F720
G01 X65.6902 Y59.0551 Z-1.0000 F720
G01 X65.5101 Y58.8498 Z-1.0000 F720
G01 X65.3440 Y58.6330 Z-1.0000 F720
G01 X65.1927 Y58.4056 Z-1.0000 F720
G01 X65.0567 Y58.1687 Z-1.0000 F720
G01 X64.9368 Y57.9233 Z-1.0000 F720
G01 X64.8334 Y57.6705 Z-1.0000 F720
G01 X64.7471 Y57.4114 Z-1.0000 F720
G01 X64.6781 Y57.1471 Z-1.0000 F720
G01 X64.6268 Y56.8788 Z-1.0000 F720
G01 X64.5934 Y56.6077 Z-1.0000 F720
G01 X64.5780 Y56.3350 Z-1.0000 F720
G01 X64.6059 Y55.8993 Z-1.0000 F720
G01 X64.6550 Y55.6545 Z-1.0000 F720
G01 X64.7225 Y55.4141 Z-1.0000 F720
G01 X64.8079 Y55.1795 Z-1.0000 F720
G01 X64.9107 Y54.9520 Z-1.0000 F720
G01 X65.0304 Y54.7328 Z-1.0000 F720
G01 X65.1663 Y54.5233 Z-1.0000 F720
G01 X65.3175 Y54.3247 Z-1.0000 F720
G01 X65.4833 Y54.1380 Z-1.0000 F720
G01 X65.6628 Y53.9644 Z-1.0000 F720
G01 X65.8548 Y53.8047 Z-1.0000 F720
G01 X66.0582 Y53.6600 Z-1.0000 F720
G01 X66.2720 Y53.5310 Z-1.0000 F720
G01 X66.5504 Y53.3752 Z-1.0000 F720
G01 X66.8537 Y53.2288 Z-1.0000 F720
G01 X66.5773 Y53.2113 Z-1.0000 F720
G01 X66.3033 Y53.1706 Z-1.0000 F720
G01 X66.0336 Y53.1072 Z-1.0000 F720
G01 X65.7703 Y53.0214 Z-1.0000 F720
G01 X65.6299 Y52.9511 Z-1.0000 F720
G01 X65.5008 Y52.8617 Z-1.0000 F720
G01 X65.3856 Y52.7550 Z-1.0000 F720
G01 X65.2866 Y52.6332 Z-1.0000 F720
G01 X65.2057 Y52.4987 Z-1.0000 F720
G01 X65.1445 Y52.3541 Z-1.0000 F720
G01 X65.1043 Y52.2023 Z-1.0000 F720
G01 X65.0859 Y52.0464 Z-1.0000 F720
G01 X65.0678 Y51.5972 Z-1.0000 F720
G01 X64.8369 Y51.9510 Z-1.0000 F720
G01 X64.6010 Y52.2584 Z-1.0000 F720
G01 X64.3732 Y52.5081 Z-1.0000 F720
G01 X64.1625 Y52.7725 Z-1.0000 F720
G01 X63.9698 Y53.0503 Z-1.0000 F720
G01 X63.7960 Y53.3403 Z-1.0000 F720
G01 X63.6419 Y53.6412 Z-1.0000 F720
G01 X63.5081 Y53.9516 Z-1.0000 F720
G01 X63.3952 Y54.2703 Z-1.0000 F720
G01 X63.3039 Y54.5958 Z-1.0000 F720
G01 X63.1011 Y54.7982 Z-1.0000 F720
G01 X62.8821 Y54.9828 Z-1.0000 F720
G01 X62.6484 Y55.1483 Z-1.0000 F720
G01 X62.4016 Y55.2936 Z-1.0000 F720
G01 X62.1434 Y55.4177 Z-1.0000 F720
G01 X61.8757 Y55.5196 Z-1.0000 F720
G01 X61.6004 Y55.5987 Z-1.0000 F720
G01 X61.3195 Y55.6544 Z-1.0000 F720
G01 X60.8854 Y55.7044 Z-1.0000 F720
G01 X60.4546 Y55.7766 Z-1.0000 F720
G01 X60.0280 Y55.8710 Z-1.0000 F720
G01 X59.6068 Y55.9871 Z-1.0000 F720
G01 X59.3351 Y56.0951 Z-1.0000 F720
G01 X59.4615 Y55.6839 Z-1.0000 F720
G01 X59.5691 Y55.2674 Z-1.0000 F720
G01 X59.6577 Y54.8464 Z-1.0000 F720
G01 X59.7270 Y54.4218 Z-1.0000 F720
G01 X59.8362 Y53.8611 Z-1.0000 F720
G01 X59.9080 Y53.5515 Z-1.0000 F720
G01 X60.0074 Y53.2496 Z-1.0000 F720
G01 X60.1334 Y52.9579 Z-1.0000 F720
G01 X60.2851 Y52.6786 Z-1.0000 F720
G01 X60.4612 Y52.4141 Z-1.0000 F720
G01 X60.6603 Y52.1664 Z-1.0000 F720
G01 X60.8809 Y51.9376 Z-1.0000 F720
G01 X61.1210 Y51.7295 Z-1.0000 F720
G01 X61.4815 Y51.6549 Z-1.0000 F720
G01 X61.8329 Y51.5451 Z-1.0000 F720
G01 X62.1717 Y51.4012 Z-1.0000 F720
G01 X62.4947 Y51.2246 Z-1.0000 F720
G01 X62.7988 Y51.0171 Z-1.0000 F720
G01 X63.0808 Y50.7806 Z-1.0000 F720
G01 X63.3382 Y50.5174 Z-1.0000 F720
G01 X63.5685 Y50.2302 Z-1.0000 F720
G01 X62.9848 Y50.1074 Z-1.0000 F720
G01 X62.5038 Y49.9463 Z-1.0000 F720
G01 X62.2797 Y49.8522 Z-1.0000 F720
G01 X62.0720 Y49.7257 Z-1.0000 F720
G01 X61.8856 Y49.5696 Z-1.0000 F720
G01 X61.7246 Y49.3875 Z-1.0000 F720
G01 X61.5926 Y49.1833 Z-1.0000 F720
G01 X61.4925 Y48.9618 Z-1.0000 F720
G01 X61.4266 Y48.7278 Z-1.0000 F720
G01 X61.3963 Y48.4865 Z-1.0000 F720
G01 X61.3856 Y48.0474 Z-1.0000 F720
G01 X61.2913 Y48.3395 Z-1.0000 F720
G01 X61.1866 Y48.6280 Z-1.0000 F720
G01 X61.0715 Y48.9125 Z-1.0000 F720
G01 X60.9463 Y49.1927 Z-1.0000 F720
G01 X60.8111 Y49.4683 Z-1.0000 F720
G01 X60.6660 Y49.7387 Z-1.0000 F720
G01 X60.5113 Y50.0038 Z-1.0000 F720
G01 X60.3472 Y50.2632 Z-1.0000 F720
G01 X60.1509 Y50.5168 Z-1.0000 F720
G01 X59.9277 Y50.6439 Z-1.0000 F720
G01 X59.6945 Y50.7517 Z-1.0000 F720
G01 X59.4531 Y50.8394 Z-1.0000 F720
G01 X59.2051 Y50.9064 Z-1.0000 F720
G01 X58.8689 Y50.9625 Z-1.0000 F720
G01 X58.5297 Y50.9948 Z-1.0000 F720
G01 X58.1889 Y51.0032 Z-1.0000 F720
G01 X57.8485 Y50.9876 Z-1.0000 F720
G01 X57.5099 Y50.9482 Z-1.0000 F720
G01 X57.1750 Y50.8850 Z-1.0000 F720
G01 X56.8454 Y50.7984 Z-1.0000 F720
G01 X56.5226 Y50.6889 Z-1.0000 F720
G01 X56.2083 Y50.5570 Z-1.0000 F720
G01 X55.9041 Y50.4033 Z-1.0000 F720
G01 X55.6115 Y50.2287 Z-1.0000 F720
G01 X55.3318 Y50.0338 Z-1.0000 F720
G01 X55.0684 Y49.8012 Z-1.0000 F720
G01 X54.8372 Y49.5467 Z-1.0000 F720
G01 X54.5316 Y48.9723 Z-1.0000 F720
G01 X54.2125 Y48.4053 Z-1.0000 F720
G01 X53.8801 Y47.8461 Z-1.0000 F720
G01 X53.5344 Y47.2949 Z-1.0000 F720
G01 X53.1758 Y46.7520 Z-1.0000 F720
G01 X52.8044 Y46.2178 Z-1.0000 F720
G01 X52.4205 Y45.6926 Z-1.0000 F720
G01 X52.0242 Y45.1766 Z-1.0000 F720
G01 X51.4667 Y44.5295 Z-1.0000 F720
G01 X50.8905 Y43.9464 Z-1.0000 F720
G01 X51.2205 Y43.6805 Z-1.0000 F720
G01 X51.5402 Y43.4023 Z-1.0000 F720
G01 X51.8492 Y43.1123 Z-1.0000 F720
G01 X52.1470 Y42.8108 Z-1.0000 F720
G01 X52.4331 Y42.4983 Z-1.0000 F720
G01 X52.7073 Y42.1751 Z-1.0000 F720
G01 X52.9691 Y41.8419 Z-1.0000 F720
G01 X53.2180 Y41.4989 Z-1.0000 F720
G01 X53.6339 Y40.8716 Z-1.0000 F720
G01 X54.0646 Y40.2544 Z-1.0000 F720
G01 X54.5099 Y39.6476 Z-1.0000 F720
G01 X54.9695 Y39.0516 Z-1.0000 F720
G01 X55.0865 Y38.9282 Z-1.0000 F720
G01 X55.2112 Y38.8125 Z-1.0000 F720
G01 X55.3429 Y38.7049 Z-1.0000 F720
G01 X55.4811 Y38.6059 Z-1.0000 F720
G01 X55.6253 Y38.5158 Z-1.0000 F720
G01 X55.7750 Y38.4350 Z-1.0000 F720
G01 X55.9294 Y38.3639 Z-1.0000 F720
G01 X56.0881 Y38.3027 Z-1.0000 F720
G01 X56.4091 Y38.2041 Z-1.0000 F720
G01 X56.7353 Y38.1241 Z-1.0000 F720
G01 X57.0655 Y38.0630 Z-1.0000 F720
G01 X57.3987 Y38.0208 Z-1.0000 F720
G01 X57.7338 Y37.9979 Z-1.0000 F720
G01 X58.0696 Y37.9941 Z-1.0000 F720
G01 X58.4050 Y38.0096 Z-1.0000 F720
G01 X58.7391 Y38.0443 Z-1.0000 F720
G01 X59.0706 Y38.0981 Z-1.0000 F720
G01 X59.3984 Y38.1708 Z-1.0000 F720
G01 X59.7216 Y38.2622 Z-1.0000 F720
G01 X60.0390 Y38.3719 Z-1.0000 F720
G01 X60.3053 Y38.5003 Z-1.0000 F720
G01 X61.4628 Y40.6170 Z-1.0000 F720
G01 X62.6203 Y42.7337 Z-1.0000 F720
G01 X62.6769 Y42.2818 Z-1.0000 F720
G01 X62.7672 Y41.9180 Z-1.0000 F720
G01 X62.8229 Y41.7723 Z-1.0000 F720
G01 X62.9011 Y41.6374 Z-1.0000 F720
G01 X63.0000 Y41.5167 Z-1.0000 F720
G01 X63.1168 Y41.4133 Z-1.0000 F720
G01 X63.2486 Y41.3300 Z-1.0000 F720
G01 X63.3921 Y41.2688 Z-1.0000 F720
G01 X63.5435 Y41.2314 Z-1.0000 F720
G01 X63.6990 Y41.2186 Z-1.0000 F720
G01 X64.1330 Y41.2012 Z-1.0000 F720
G01 X64.6709 Y41.2344 Z-1.0000 F720
G01 X64.1987 Y40.6156 Z-1.0000 F720
G01 X63.6989 Y40.0190 Z-1.0000 F720
G01 X63.1724 Y39.4458 Z-1.0000 F720
G01 X62.6203 Y38.8972 Z-1.0000 F720
G01 X62.3508 Y38.7400 Z-1.0000 F720
G01 X62.1032 Y38.5500 Z-1.0000 F720
G01 X61.8815 Y38.3303 Z-1.0000 F720
G01 X61.6894 Y38.0844 Z-1.0000 F720
G01 X61.5298 Y37.8162 Z-1.0000 F720
G01 X61.4053 Y37.5300 Z-1.0000 F720
G01 X61.3179 Y37.2304 Z-1.0000 F720
G01 X61.2691 Y36.9222 Z-1.0000 F720
G01 X61.2382 Y36.3655 Z-1.0000 F720
G01 X61.2783 Y35.7528 Z-1.0000 F720
G01 X61.3856 Y35.0828 Z-1.0000 F720
G01 X61.7772 Y35.1438 Z-1.0000 F720
G01 X62.1646 Y35.2267 Z-1.0000 F720
G01 X62.5468 Y35.3314 Z-1.0000 F720
G01 X62.9224 Y35.4574 Z-1.0000 F720
G01 X63.1226 Y35.5333 Z-1.0000 F720
G01 X63.3155 Y35.6265 Z-1.0000 F720
G01 X63.4994 Y35.7361 Z-1.0000 F720
G01 X63.6730 Y35.8614 Z-1.0000 F720
G01 X63.8351 Y36.0014 Z-1.0000 F720
G01 X63.9842 Y36.1550 Z-1.0000 F720
G01 X64.1194 Y36.3211 Z-1.0000 F720
G01 X64.2395 Y36.4984 Z-1.0000 F720
G01 X64.3437 Y36.6855 Z-1.0000 F720
G01 X64.4311 Y36.8809 Z-1.0000 F720
G01 X64.5010 Y37.0833 Z-1.0000 F720
G01 X64.5530 Y37.2910 Z-1.0000 F720
G01 X64.6426 Y37.7014 Z-1.0000 F720
G01 X64.7472 Y38.1082 Z-1.0000 F720
G01 X64.8665 Y38.5110 Z-1.0000 F720
G01 X65.0004 Y38.9091 Z-1.0000 F720
G01 X65.1487 Y39.3021 Z-1.0000 F720
G01 X65.3113 Y39.6893 Z-1.0000 F720
G01 X65.4880 Y40.0704 Z-1.0000 F720
G01 X65.6784 Y40.4448 Z-1.0000 F720
G01 X65.7664 Y40.5984 Z-1.0000 F720
G01 X65.8837 Y40.7310 Z-1.0000 F720
G01 X66.0254 Y40.8371 Z-1.0000 F720
G01 X66.1856 Y40.9124 Z-1.0000 F720
G01 X66.3112 Y40.8968 Z-1.0000 F720
G01 X66.4348 Y40.8154 Z-1.0000 F720
G01 X66.5082 Y40.3898 Z-1.0000 F720
G01 X66.5789 Y40.0828 Z-1.0000 F720
G01 X66.6600 Y39.8790 Z-1.0000 F720
G01 X66.6984 Y39.8312 Z-1.0000 F720
G01 X66.7440 Y39.7902 Z-1.0000 F720
G01 X66.7956 Y39.7571 Z-1.0000 F720
G01 X66.8519 Y39.7328 Z-1.0000 F720
G01 X66.9114 Y39.7179 Z-1.0000 F720
G01 X66.9725 Y39.7129 Z-1.0000 F720
G01 X67.0337 Y39.7177 Z-1.0000 F720
G01 X67.0932 Y39.7324 Z-1.0000 F720
G01 X67.6695 Y39.8674 Z-1.0000 F720
G01 X67.6590 Y39.4587 Z-1.0000 F720
G01 X67.6307 Y39.0508 Z-1.0000 F720
G01 X67.5848 Y38.6446 Z-1.0000 F720
G01 X67.5212 Y38.2407 Z-1.0000 F720
G01 X67.4402 Y37.8400 Z-1.0000 F720
G01 X67.3418 Y37.4432 Z-1.0000 F720
G01 X67.2263 Y37.0510 Z-1.0000 F720
G01 X67.0939 Y36.6642 Z-1.0000 F720
G01 X66.8605 Y36.0779 Z-1.0000 F720
G01 X66.6042 Y35.5011 Z-1.0000 F720
G01 X66.3254 Y34.9350 Z-1.0000 F720
G01 X66.0246 Y34.3802 Z-1.0000 F720
G01 X65.7020 Y33.8377 Z-1.0000 F720
G01 X65.3584 Y33.3084 Z-1.0000 F720
G01 X64.9941 Y32.7930 Z-1.0000 F720
G01 X64.6099 Y32.2924 Z-1.0000 F720
G01 X64.2062 Y31.8073 Z-1.0000 F720
G01 X63.7837 Y31.3385 Z-1.0000 F720
G01 X63.3431 Y30.8867 Z-1.0000 F720
G01 X62.8849 Y30.4526 Z-1.0000 F720
G01 X62.4064 Y30.1244 Z-1.0000 F720
G01 X61.9120 Y29.8206 Z-1.0000 F720
G01 X61.4029 Y29.5420 Z-1.0000 F720
G01 X60.8805 Y29.2893 Z-1.0000 F720
G01 X60.3461 Y29.0631 Z-1.0000 F720
G01 X59.8010 Y28.8640 Z-1.0000 F720
G01 X59.2466 Y28.6926 Z-1.0000 F720
G01 X58.6843 Y28.5492 Z-1.0000 F720
G01 X58.1154 Y28.4342 Z-1.0000 F720
G01 X57.5416 Y28.3479 Z-1.0000 F720
G01 X56.9641 Y28.2905 Z-1.0000 F720
G01 X56.3845 Y28.2622 Z-1.0000 F720
G01 X55.8042 Y28.2630 Z-1.0000 F720
G01 X55.2247 Y28.2929 Z-1.0000 F720
G01 X54.6474 Y28.3518 Z-1.0000 F720
G01 X54.0737 Y28.4397 Z-1.0000 F720
G01 X53.5052 Y28.5563 Z-1.0000 F720
G01 X52.9433 Y28.7012 Z-1.0000 F720
G01 X52.3894 Y28.8742 Z-1.0000 F720
G01 X51.8448 Y29.0747 Z-1.0000 F720
G01 X51.3474 Y29.2789 Z-1.0000 F720
G01 X50.8577 Y29.5010 Z-1.0000 F720
G01 X50.3765 Y29.7409 Z-1.0000 F720
G01 X49.9043 Y29.9981 Z-1.0000 F720
G01 X49.4417 Y30.2723 Z-1.0000 F720
G01 X48.9895 Y30.5632 Z-1.0000 F720
G01 X48.5482 Y30.8704 Z-1.0000 F720
G01 X48.1183 Y31.1934 Z-1.0000 F720
G01 X47.7005 Y31.5319 Z-1.0000 F720
G01 X47.2953 Y31.8854 Z-1.0000 F720
G01 X46.9033 Y32.2534 Z-1.0000 F720
G01 X46.5249 Y32.6354 Z-1.0000 F720
G01 X44.6365 Y34.5805 Z-1.0000 F720
G01 X43.2396 Y36.0309 Z-1.0000 F720
G01 X43.4604 Y35.9434 Z-1.0000 F720
G01 X43.6872 Y35.8731 Z-1.0000 F720
G01 X43.9187 Y35.8202 Z-1.0000 F720
G01 X44.1536 Y35.7851 Z-1.0000 F720
G01 X44.3904 Y35.7680 Z-1.0000 F720
G01 X44.6279 Y35.7690 Z-1.0000 F720
G01 X44.8646 Y35.7881 Z-1.0000 F720
G01 X45.0991 Y35.8252 Z-1.0000 F720
G01 X45.4098 Y35.8941 Z-1.0000 F720
G01 X45.7114 Y35.9954 Z-1.0000 F720
G01 X46.0007 Y36.1280 Z-1.0000 F720
G01 X46.2744 Y36.2904 Z-1.0000 F720
G01 X46.5293 Y36.4808 Z-1.0000 F720
G01 X46.7627 Y36.6971 Z-1.0000 F720
G01 X46.9720 Y36.9368 Z-1.0000 F720
G01 X47.1548 Y37.1973 Z-1.0000 F720
G01 X47.3090 Y37.4756 Z-1.0000 F720
G01 X47.4330 Y37.7687 Z-1.0000 F720
G01 X47.5253 Y38.0733 Z-1.0000 F720
G01 X47.5849 Y38.3858 Z-1.0000 F720
G01 X47.6111 Y38.7030 Z-1.0000 F720
G01 X47.6037 Y39.0211 Z-1.0000 F720
G01 X47.5628 Y39.3367 Z-1.0000 F720
G01 X47.4887 Y39.6461 Z-1.0000 F720
G01 X47.3824 Y39.9461 Z-1.0000 F720
G01 X47.2449 Y40.2331 Z-1.0000 F720
G01 X47.0779 Y40.5039 Z-1.0000 F720
G01 X46.8833 Y40.7557 Z-1.0000 F720
G01 X46.6609 Y41.0085 Z-1.0000 F720
G01 X46.4118 Y41.2351 Z-1.0000 F720
G01 X46.1390 Y41.4325 Z-1.0000 F720
G01 X45.8459 Y41.5982 Z-1.0000 F720
G01 X45.5362 Y41.7304 Z-1.0000 F720
G01 X45.2137 Y41.8272 Z-1.0000 F720
G01 X44.8825 Y41.8875 Z-1.0000 F720
G01 X44.5465 Y41.9105 Z-1.0000 F720
G01 X44.2101 Y41.8960 Z-1.0000 F720
G01 X43.8774 Y41.8441 Z-1.0000 F720
G01 X43.5526 Y41.7555 Z-1.0000 F720
G01 X43.2396 Y41.6313 Z-1.0000 F720
G01 X43.3155 Y41.9324 Z-1.0000 F720
G01 X43.3595 Y42.2399 Z-1.0000 F720
G01 X43.3712 Y42.5502 Z-1.0000 F720
G01 X43.3505 Y42.8601 Z-1.0000 F720
G01 X43.2976 Y43.1661 Z-1.0000 F720
G01 X43.2130 Y43.4649 Z-1.0000 F720
G01 X43.0977 Y43.7533 Z-1.0000 F720
G01 X42.9529 Y44.0281 Z-1.0000 F720
G01 X42.7803 Y44.2862 Z-1.0000 F720
G01 X42.5817 Y44.5250 Z-1.0000 F720
G01 X42.3593 Y44.7417 Z-1.0000 F720
G01 X42.1154 Y44.9340 Z-1.0000 F720
G01 X41.8529 Y45.0999 Z-1.0000 F720
G01 X41.5744 Y45.2375 Z-1.0000 F720
G01 X41.2832 Y45.3452 Z-1.0000 F720
G01 X40.9822 Y45.4220 Z-1.0000 F720
G01 X40.6750 Y45.4670 Z-1.0000 F720
G01 X40.3646 Y45.4796 Z-1.0000 F720
G01 X40.0547 Y45.4599 Z-1.0000 F720
G01 X39.7485 Y45.4079 Z-1.0000 F720
G01 X39.4916 Y45.3514 Z-1.0000 F720
G01 X39.2405 Y45.2728 Z-1.0000 F720
G01 X38.9972 Y45.1728 Z-1.0000 F720
G01 X38.7636 Y45.0519 Z-1.0000 F720
G01 X38.5413 Y44.9113 Z-1.0000 F720
G01 X38.3320 Y44.7519 Z-1.0000 F720
G01 X38.1374 Y44.5749 Z-1.0000 F720
G01 X37.9588 Y44.3817 Z-1.0000 F720
G01 X37.7978 Y44.1737 Z-1.0000 F720
G01 X37.6554 Y43.9525 Z-1.0000 F720
G01 X37.5327 Y43.7198 Z-1.0000 F720
G01 X37.4307 Y43.4773 Z-1.0000 F720
G01 X37.3502 Y43.2269 Z-1.0000 F720
G01 X37.2916 Y42.9704 Z-1.0000 F720
G01 X37.2556 Y42.7098 Z-1.0000 F720
G01 X37.2424 Y42.4471 Z-1.0000 F720
G01 X37.2537 Y42.1732 Z-1.0000 F720
G01 X37.2805 Y41.9518 Z-1.0000 F720
G01 X37.3244 Y41.7331 Z-1.0000 F720
G01 X37.3852 Y41.5186 Z-1.0000 F720
G01 X37.4625 Y41.3093 Z-1.0000 F720
G01 X37.5559 Y41.1068 Z-1.0000 F720
G01 X37.6646 Y40.9120 Z-1.0000 F720
G01 X37.7882 Y40.7264 Z-1.0000 F720
G01 X37.9259 Y40.5509 Z-1.0000 F720
G01 X37.6626 Y40.5069 Z-1.0000 F720
G01 X37.4041 Y40.4405 Z-1.0000 F720
G01 X37.1523 Y40.3522 Z-1.0000 F720
G01 X36.9089 Y40.2427 Z-1.0000 F720
G01 X36.6758 Y40.1126 Z-1.0000 F720
G01 X36.4548 Y39.9631 Z-1.0000 F720
G01 X36.2474 Y39.7951 Z-1.0000 F720
G01 X36.0551 Y39.6100 Z-1.0000 F720
G01 X35.8795 Y39.4090 Z-1.0000 F720
G01 X35.7217 Y39.1938 Z-1.0000 F720
G01 X35.5829 Y38.9658 Z-1.0000 F720
G01 X35.4643 Y38.7267 Z-1.0000 F720
G01 X35.3665 Y38.4783 Z-1.0000 F720
G01 X35.2905 Y38.2225 Z-1.0000 F720
G01 X35.2366 Y37.9611 Z-1.0000 F720
G01 X35.2054 Y37.6960 Z-1.0000 F720
G01 X35.1919 Y37.3979 Z-1.0000 F720
G01 X35.2068 Y37.0817 Z-1.0000 F720
G01 X35.2507 Y36.7736 Z-1.0000 F720
G01 X35.3223 Y36.4756 Z-1.0000 F720
G01 X35.4169 Y36.1795 Z-1.0000 F720
G01 X35.5420 Y35.8950 Z-1.0000 F720
G01 X35.6963 Y35.6253 Z-1.0000 F720
G01 X35.8780 Y35.3731 Z-1.0000 F720
G01 X36.0852 Y35.1415 Z-1.0000 F720
G01 X36.3156 Y34.9328 Z-1.0000 F720
G01 X36.5665 Y34.7495 Z-1.0000 F720
G01 X36.8353 Y34.5935 Z-1.0000 F720
G01 X37.1190 Y34.4665 Z-1.0000 F720
G01 X37.4144 Y34.3700 Z-1.0000 F720
G01 X37.7184 Y34.3051 Z-1.0000 F720
G01 X38.0274 Y34.2723 Z-1.0000 F720
G01 X38.3382 Y34.2722 Z-1.0000 F720
G01 X38.6473 Y34.3047 Z-1.0000 F720
G01 X38.9513 Y34.3694 Z-1.0000 F720
G01 X39.2468 Y34.4656 Z-1.0000 F720
G01 X39.5306 Y34.5924 Z-1.0000 F720
G01 X39.7995 Y34.7481 Z-1.0000 F720
G01 X40.0507 Y34.9313 Z-1.0000 F720
G01 X40.2812 Y35.1397 Z-1.0000 F720
G01 X40.5056 Y35.3694 Z-1.0000 F720
G01 X40.3526 Y34.2368 Z-1.0000 F720
G01 X40.1876 Y33.1058 Z-1.0000 F720
G01 X40.0108 Y31.9767 Z-1.0000 F720
G01 X39.8221 Y30.8495 Z-1.0000 F720
G01 X39.7105 Y30.2982 Z-1.0000 F720
G01 X39.5713 Y29.7533 Z-1.0000 F720
G01 X39.4048 Y29.2162 Z-1.0000 F720
G01 X39.2113 Y28.6881 Z-1.0000 F720
G01 X38.9915 Y28.1705 Z-1.0000 F720
G01 X38.7458 Y27.6646 Z-1.0000 F720
G01 X38.4748 Y27.1717 Z-1.0000 F720
G01 X38.1793 Y26.6932 Z-1.0000 F720
G01 X37.8601 Y26.2302 Z-1.0000 F720
G01 X37.5178 Y25.7839 Z-1.0000 F720
G01 X37.1535 Y25.3555 Z-1.0000 F720
G01 X36.7680 Y24.9460 Z-1.0000 F720
G01 X36.3624 Y24.5565 Z-1.0000 F720
G01 X35.9376 Y24.1879 Z-1.0000 F720
G01 X35.4947 Y23.8413 Z-1.0000 F720
G01 X35.0349 Y23.5175 Z-1.0000 F720
G01 X34.4922 Y23.1734 Z-1.0000 F720
G01 X33.9370 Y22.8501 Z-1.0000 F720
G01 X33.3699 Y22.5480 Z-1.0000 F720
G01 X32.7918 Y22.2675 Z-1.0000 F720
G01 X32.2036 Y22.0090 Z-1.0000 F720
G01 X31.6060 Y21.7728 Z-1.0000 F720
G01 X31.0000 Y21.5595 Z-1.0000 F720
G01 X30.3863 Y21.3691 Z-1.0000 F720
G01 X29.7659 Y21.2020 Z-1.0000 F720
G01 X29.1396 Y21.0585 Z-1.0000 F720
G01 X28.5083 Y20.9387 Z-1.0000 F720
G01 X27.8730 Y20.8428 Z-1.0000 F720
G01 X26.6817 Y20.6981 Z-1.0000 F720
G01 X25.4905 Y20.6189 Z-1.0000 F720
G01 X24.9054 Y20.5978 Z-1.0000 F720
G01 X24.3201 Y20.6118 Z-1.0000 F720
G01 X23.7367 Y20.6606 Z-1.0000 F720
G01 X23.1573 Y20.7442 Z-1.0000 F720
G01 X22.5838 Y20.8623 Z-1.0000 F720
G01 X22.0185 Y21.0145 Z-1.0000 F720
G01 X21.4633 Y21.2002 Z-1.0000 F720
G01 X20.9201 Y21.4187 Z-1.0000 F720
G01 X20.3910 Y21.6692 Z-1.0000 F720
G01 X19.8778 Y21.9510 Z-1.0000 F720
G01 X19.3823 Y22.2629 Z-1.0000 F720
G01 X18.9064 Y22.6038 Z-1.0000 F720
G01 X18.4795 Y22.9931 Z-1.0000 F720
G01 X18.1246 Y23.4000 Z-1.0000 F720
G01 X17.9991 Y23.5613 Z-1.0000 F720
G01 X17.8879 Y23.7328 Z-1.0000 F720
G01 X17.7917 Y23.9131 Z-1.0000 F720
G01 X17.7114 Y24.1010 Z-1.0000 F720
G01 X17.6474 Y24.2951 Z-1.0000 F720
G01 X17.6003 Y24.4939 Z-1.0000 F720
G01 X17.5703 Y24.6961 Z-1.0000 F720
G01 X17.5578 Y24.9000 Z-1.0000 F720
G01 X17.5750 Y25.1168 Z-1.0000 F720
G01 X17.6522 Y25.3596 Z-1.0000 F720
G01 X17.7265 Y25.4926 Z-1.0000 F720
G01 X17.8227 Y25.6106 Z-1.0000 F720
G01 X17.9380 Y25.7101 Z-1.0000 F720
G01 X18.0689 Y25.7881 Z-1.0000 F720
G01 X18.2113 Y25.8420 Z-1.0000 F720
G01 X18.3609 Y25.8704 Z-1.0000 F720
G01 X18.5132 Y25.8724 Z-1.0000 F720
G01 X18.6635 Y25.8478 Z-1.0000 F720
G01 X18.9021 Y25.7968 Z-1.0000 F720
G01 X19.1996 Y25.6855 Z-1.0000 F720
G01 X19.4924 Y25.5624 Z-1.0000 F720
G01 X19.7801 Y25.4277 Z-1.0000 F720
G01 X20.0621 Y25.2815 Z-1.0000 F720
G01 X20.3380 Y25.1242 Z-1.0000 F720
G01 X20.6074 Y24.9559 Z-1.0000 F720
G01 X20.8698 Y24.7770 Z-1.0000 F720
G01 X21.1249 Y24.5877 Z-1.0000 F720
G01 X21.6055 Y24.4395 Z-1.0000 F720
G01 X22.0947 Y24.3228 Z-1.0000 F720
G01 X22.5904 Y24.2380 Z-1.0000 F720
G01 X23.0906 Y24.1855 Z-1.0000 F720
G01 X23.5931 Y24.1656 Z-1.0000 F720
G01 X24.0958 Y24.1782 Z-1.0000 F720
G01 X24.5967 Y24.2235 Z-1.0000 F720
G01 X25.0936 Y24.3010 Z-1.0000 F720
G01 X25.0327 Y24.6298 Z-1.0000 F720
G01 X24.9423 Y24.9517 Z-1.0000 F720
G01 X24.8231 Y25.2640 Z-1.0000 F720
G01 X24.6762 Y25.5644 Z-1.0000 F720
G01 X24.5027 Y25.8501 Z-1.0000 F720
G01 X24.3041 Y26.1191 Z-1.0000 F720
G01 X24.0819 Y26.3689 Z-1.0000 F720
G01 X23.8381 Y26.5977 Z-1.0000 F720
G01 X23.5746 Y26.8034 Z-1.0000 F720
G01 X23.2935 Y26.9845 Z-1.0000 F720
G01 X22.9972 Y27.1394 Z-1.0000 F720
G01 X22.6881 Y27.2668 Z-1.0000 F720
G01 X22.3688 Y27.3658 Z-1.0000 F720
G01 X22.0418 Y27.4355 Z-1.0000 F720
G01 X21.7098 Y27.4753 Z-1.0000 F720
G01 X21.3756 Y27.4849 Z-1.0000 F720
G01 X20.9100 Y27.4515 Z-1.0000 F720
G01 X20.4441 Y27.4235 Z-1.0000 F720
G01 X19.9779 Y27.4009 Z-1.0000 F720
G01 X19.5114 Y27.3836 Z-1.0000 F720
G01 X19.2963 Y27.4017 Z-1.0000 F720
G01 X19.1545 Y27.4156 Z-1.0000 F720
G01 X19.0178 Y27.4560 Z-1.0000 F720
G01 X18.8911 Y27.5213 Z-1.0000 F720
G01 X18.7790 Y27.6093 Z-1.0000 F720
G01 X18.6854 Y27.7168 Z-1.0000 F720
G01 X18.6136 Y27.8400 Z-1.0000 F720
G01 X18.5664 Y27.9745 Z-1.0000 F720
G01 X18.5452 Y28.1154 Z-1.0000 F720
G01 X18.5392 Y28.4985 Z-1.0000 F720
G01 X18.5640 Y28.8388 Z-1.0000 F720
G01 X18.6183 Y29.1387 Z-1.0000 F720
G01 X18.6806 Y29.3665 Z-1.0000 F720
G01 X18.7785 Y29.5814 Z-1.0000 F720
G01 X18.9094 Y29.7779 Z-1.0000 F720
G01 X19.0701 Y29.9510 Z-1.0000 F720
G01 X19.2563 Y30.0962 Z-1.0000 F720
G01 X19.4632 Y30.2098 Z-1.0000 F720
G01 X19.6857 Y30.2889 Z-1.0000 F720
G01 X19.9180 Y30.3315 Z-1.0000 F720
G01 X20.1627 Y30.3537 Z-1.0000 F720
G01 X20.4082 Y30.3649 Z-1.0000 F720
G01 X20.6539 Y30.3652 Z-1.0000 F720
G01 X20.8994 Y30.3544 Z-1.0000 F720
G01 X21.1441 Y30.3327 Z-1.0000 F720
G01 X21.3877 Y30.3001 Z-1.0000 F720
G01 X21.6295 Y30.2566 Z-1.0000 F720
G01 X21.8692 Y30.2023 Z-1.0000 F720
G01 X22.4846 Y30.0712 Z-1.0000 F720
G01 X23.7095 Y29.7923 Z-1.0000 F720
G01 X24.1665 Y29.6878 Z-1.0000 F720
G01 X24.6305 Y29.6207 Z-1.0000 F720
G01 X25.0984 Y29.5914 Z-1.0000 F720
G01 X25.5671 Y29.6000 Z-1.0000 F720
G01 X25.7771 Y29.6368 Z-1.0000 F720
G01 X26.1625 Y29.7804 Z-1.0000 F720
G01 X26.4232 Y29.8840 Z-1.0000 F720
G01 X26.6754 Y30.0068 Z-1.0000 F720
G01 X26.9177 Y30.1482 Z-1.0000 F720
G01 X27.1487 Y30.3073 Z-1.0000 F720
G01 X27.3672 Y30.4833 Z-1.0000 F720
G01 X27.5719 Y30.6751 Z-1.0000 F720
G01 X27.7616 Y30.8817 Z-1.0000 F720
G01 X27.9353 Y31.1020 Z-1.0000 F720
G01 X28.0920 Y31.3347 Z-1.0000 F720
G01 X28.2309 Y31.5784 Z-1.0000 F720
G01 X28.3511 Y31.8319 Z-1.0000 F720
G01 X28.4519 Y32.0936 Z-1.0000 F720
G01 X28.6065 Y32.6183 Z-1.0000 F720
G01 X28.7423 Y33.1482 Z-1.0000 F720
G01 X28.8591 Y33.6825 Z-1.0000 F720
G01 X28.9568 Y34.2207 Z-1.0000 F720
G01 X29.0804 Y34.7557 Z-1.0000 F720
G01 X29.2373 Y35.2792 Z-1.0000 F720
G01 X29.3341 Y35.5501 Z-1.0000 F720
G01 X29.4514 Y35.8128 Z-1.0000 F720
G01 X29.5886 Y36.0656 Z-1.0000 F720
G01 X29.7447 Y36.3072 Z-1.0000 F720
G01 X29.9190 Y36.5361 Z-1.0000 F720
G01 X30.1104 Y36.7509 Z-1.0000 F720
G01 X30.3176 Y36.9504 Z-1.0000 F720
G01 X30.5396 Y37.1333 Z-1.0000 F720
G01 X30.3538 Y37.0602 Z-1.0000 F720
G01 X30.1627 Y37.0023 Z-1.0000 F720
G01 X29.9675 Y36.9601 Z-1.0000 F720
G01 X29.7695 Y36.9339 Z-1.0000 F720
G01 X29.5701 Y36.9237 Z-1.0000 F720
G01 X29.3705 Y36.9298 Z-1.0000 F720
G01 X29.1720 Y36.9520 Z-1.0000 F720
G01 X28.9760 Y36.9902 Z-1.0000 F720
G01 X28.5043 Y37.1144 Z-1.0000 F720
G01 X28.0381 Y37.2577 Z-1.0000 F720
G01 X27.5782 Y37.4200 Z-1.0000 F720
G01 X27.1252 Y37.6010 Z-1.0000 F720
G01 X25.8131 Y38.1212 Z-1.0000 F720
G01 X25.3369 Y38.2979 Z-1.0000 F720
G01 X24.8491 Y38.4392 Z-1.0000 F720
G01 X24.3522 Y38.5443 Z-1.0000 F720
G01 X23.8490 Y38.6127 Z-1.0000 F720
G01 X23.6010 Y38.6303 Z-1.0000 F720
G01 X23.3525 Y38.6261 Z-1.0000 F720
G01 X23.1053 Y38.6002 Z-1.0000 F720
G01 X22.8613 Y38.5528 Z-1.0000 F720
G01 X22.6224 Y38.4842 Z-1.0000 F720
G01 X22.3904 Y38.3950 Z-1.0000 F720
G01 X22.1670 Y38.2858 Z-1.0000 F720
G01 X21.9541 Y38.1575 Z-1.0000 F720
G01 X21.7532 Y38.0111 Z-1.0000 F720
G01 X21.5659 Y37.8478 Z-1.0000 F720
G01 X21.3936 Y37.6686 Z-1.0000 F720
G01 X21.2376 Y37.4751 Z-1.0000 F720
G01 X20.9926 Y37.1333 Z-1.0000 F720
G01 X20.0919 Y35.4952 Z-1.0000 F720
G01 X19.8596 Y35.0960 Z-1.0000 F720
G01 X19.5963 Y34.7164 Z-1.0000 F720
G01 X19.3037 Y34.3590 Z-1.0000 F720
G01 X18.9838 Y34.0258 Z-1.0000 F720
G01 X18.1263 Y33.1646 Z-1.0000 F720
G01 X17.9558 Y33.0458 Z-1.0000 F720
G01 X17.7732 Y32.9467 Z-1.0000 F720
G01 X17.5809 Y32.8683 Z-1.0000 F720
G01 X17.3810 Y32.8115 Z-1.0000 F720
G01 X17.1761 Y32.7772 Z-1.0000 F720
G01 X16.9687 Y32.7658 Z-1.0000 F720
G01 X16.7613 Y32.7772 Z-1.0000 F720
G01 X16.5564 Y32.8115 Z-1.0000 F720
G01 X16.3565 Y32.8683 Z-1.0000 F720
G01 X16.1642 Y32.9467 Z-1.0000 F720
G01 X15.9816 Y33.0458 Z-1.0000 F720
G01 X15.8111 Y33.1646 Z-1.0000 F720
G01 X15.8092 Y33.6533 Z-1.0000 F720
G01 X15.8111 Y34.1347 Z-1.0000 F720
G01 X15.8730 Y34.8146 Z-1.0000 F720
G01 X15.9435 Y35.5017 Z-1.0000 F720
G01 X16.2251 Y35.5036 Z-1.0000 F720
G01 X16.5055 Y35.5296 Z-1.0000 F720
G01 X16.7827 Y35.5796 Z-1.0000 F720
G01 X17.0546 Y35.6533 Z-1.0000 F720
G01 X17.3191 Y35.7501 Z-1.0000 F720
G01 X17.5743 Y35.8693 Z-1.0000 F720
G01 X17.8183 Y36.0099 Z-1.0000 F720
G01 X18.0493 Y36.1710 Z-1.0000 F720
G01 X18.2656 Y36.3514 Z-1.0000 F720
G01 X18.4656 Y36.5497 Z-1.0000 F720
G01 X18.6478 Y36.7645 Z-1.0000 F720
G01 X18.8109 Y36.9941 Z-1.0000 F720
G01 X19.0499 Y37.3817 Z-1.0000 F720
G01 X19.2616 Y37.7847 Z-1.0000 F720
G01 X19.4450 Y38.2015 Z-1.0000 F720
G01 X19.5993 Y38.6299 Z-1.0000 F720
G01 X19.7237 Y39.0679 Z-1.0000 F720
G01 X19.8176 Y39.5134 Z-1.0000 F720
G01 X19.8805 Y39.9643 Z-1.0000 F720
G01 X19.9122 Y40.4185 Z-1.0000 F720
G01 X19.3896 Y40.3868 Z-1.0000 F720
G01 X18.8610 Y40.3084 Z-1.0000 F720
G01 X18.5812 Y40.2543 Z-1.0000 F720
G01 X18.3059 Y40.1808 Z-1.0000 F720
G01 X18.0364 Y40.0883 Z-1.0000 F720
G01 X17.7740 Y39.9771 Z-1.0000 F720
G01 X17.5201 Y39.8478 Z-1.0000 F720
G01 X17.2758 Y39.7011 Z-1.0000 F720
G01 X17.0423 Y39.5377 Z-1.0000 F720
G01 X16.8209 Y39.3583 Z-1.0000 F720
G01 X16.6125 Y39.1639 Z-1.0000 F720
G01 X16.4182 Y38.9555 Z-1.0000 F720
G01 X16.2390 Y38.7339 Z-1.0000 F720
G01 X16.0757 Y38.5003 Z-1.0000 F720
G01 X16.2574 Y40.3993 Z-1.0000 F720
G01 X16.4076 Y42.3011 Z-1.0000 F720
G01 X16.5262 Y44.2051 Z-1.0000 F720
G01 X16.6131 Y46.1108 Z-1.0000 F720
G01 X16.6270 Y47.2316 Z-1.0000 F720
G01 X16.6639 Y48.6890 Z-1.0000 F720
G01 X16.7335 Y49.6932 Z-1.0000 F720
G01 X16.8387 Y50.6943 Z-1.0000 F720
G01 X16.9794 Y51.6911 Z-1.0000 F720
G01 X17.1553 Y52.6822 Z-1.0000 F720
G01 X17.3662 Y53.6665 Z-1.0000 F720
G01 X17.6120 Y54.6426 Z-1.0000 F720
G01 X17.8922 Y55.6094 Z-1.0000 F720
G01 X18.2066 Y56.5657 Z-1.0000 F720
G01 X18.5547 Y57.5102 Z-1.0000 F720
G01 X18.9361 Y58.4418 Z-1.0000 F720
G01 X19.3503 Y59.3592 Z-1.0000 F720
G01 X19.7968 Y60.2614 Z-1.0000 F720
G01 X20.2751 Y61.1471 Z-1.0000 F720
G01 X20.7844 Y62.0154 Z-1.0000 F720
G01 X21.3243 Y62.8650 Z-1.0000 F720
G01 X21.8939 Y63.6949 Z-1.0000 F720
G01 X22.4927 Y64.5041 Z-1.0000 F720
G01 X23.1197 Y65.2915 Z-1.0000 F720
G01 X23.7744 Y66.0562 Z-1.0000 F720
G01 X24.4557 Y66.7972 Z-1.0000 F720
G01 X25.1629 Y67.5135 Z-1.0000 F720
G01 X25.8951 Y68.2043 Z-1.0000 F720
G01 X26.6513 Y68.8687 Z-1.0000 F720
G01 X27.4306 Y69.5058 Z-1.0000 F720
G01 X28.2321 Y70.1149 Z-1.0000 F720
G01 X29.0546 Y70.6951 Z-1.0000 F720
G01 X29.8972 Y71.2458 Z-1.0000 F720
G01 X30.7588 Y71.7663 Z-1.0000 F720
G01 X31.6384 Y72.2559 Z-1.0000 F720
G01 X32.5347 Y72.7139 Z-1.0000 F720
G01 X33.4468 Y73.1399 Z-1.0000 F720
G01 X34.3734 Y73.5332 Z-1.0000 F720
G01 X35.3134 Y73.8934 Z-1.0000 F720
G01 X36.2655 Y74.2200 Z-1.0000 F720
G01 X37.2286 Y74.5126 Z-1.0000 F720
G01 X38.2016 Y74.7709 Z-1.0000 F720
G01 X39.1830 Y74.9945 Z-1.0000 F720
G01 X40.1718 Y75.1831 Z-1.0000 F720
G01 X41.1667 Y75.3365 Z-1.0000 F720
G01 X42.1663 Y75.4545 Z-1.0000 F720
G01 X43.1696 Y75.5370 Z-1.0000 F720
G01 X44.1751 Y75.5838 Z-1.0000 F720
G01 X45.1817 Y75.5949 Z-1.0000 F720
G01 X46.1880 Y75.5703 Z-1.0000 F720
G01 X47.1928 Y75.5100 Z-1.0000 F720
G01 X48.1948 Y75.4141 Z-1.0000 F720
G01 X49.1928 Y75.2827 Z-1.0000 F720
G01 X50.1855 Y75.1160 Z-1.0000 F720
G01 X51.1717 Y74.9142 Z-1.0000 F720
G01 X52.1501 Y74.6774 Z-1.0000 F720
G01 X53.1194 Y74.4062 Z-1.0000 F720
G01 X54.0786 Y74.1007 Z-1.0000 F720
G01 X54.8631 Y73.8172 Z-1.0000 F720
G01 X55.6390 Y73.5107 Z-1.0000 F720
G01 X56.4055 Y73.1816 Z-1.0000 F720
G01 X57.1620 Y72.8301 Z-1.0000 F720
G01 X57.9079 Y72.4565 Z-1.0000 F720
G01 X58.6425 Y72.0612 Z-1.0000 F720
G01 X59.3651 Y71.6444 Z-1.0000 F720
G01 X60.0751 Y71.2066 Z-1.0000 F720
G01 X60.7720 Y70.7481 Z-1.0000 F720
G01 X61.4551 Y70.2693 Z-1.0000 F720
G01 X62.1239 Y69.7707 Z-1.0000 F720
G01 X62.7777 Y69.2526 Z-1.0000 F720
G01 X63.4160 Y68.7155 Z-1.0000 F720
G01 X64.0382 Y68.1598 Z-1.0000 F720
G01 X64.6438 Y67.5862 Z-1.0000 F720
G01 X65.2323 Y66.9949 Z-1.0000 F720
G00 X65.2323 Y66.9949 Z5.0000 F500


;No. 5: Engraving 2
G00 X41.9597 Y79.5635 Z5.0000 F2100
G00 X41.9597 Y79.5635 Z0.5000 F500
G01 X41.9597 Y79.5635 Z-1.0000 F210
G01 X42.1344 Y80.0000 Z-1.0000 F720
G01 X42.2498 Y80.4620 Z-1.0000 F720
G01 X42.2802 Y80.7765 Z-1.0000 F720
G01 X42.2814 Y81.0924 Z-1.0000 F720
G01 X42.2535 Y81.4071 Z-1.0000 F720
G01 X42.1968 Y81.7179 Z-1.0000 F720
G01 X42.1116 Y82.0222 Z-1.0000 F720
G01 X41.9988 Y82.3173 Z-1.0000 F720
G01 X41.8592 Y82.6008 Z-1.0000 F720
G01 X41.6941 Y82.8702 Z-1.0000 F720
G01 X41.5048 Y83.1232 Z-1.0000 F720
G01 X41.2931 Y83.3577 Z-1.0000 F720
G01 X41.0606 Y83.5717 Z-1.0000 F720
G01 X40.8095 Y83.7633 Z-1.0000 F720
G01 X40.5417 Y83.9310 Z-1.0000 F720
G01 X40.2596 Y84.0733 Z-1.0000 F720
G01 X39.9656 Y84.1890 Z-1.0000 F720
G01 X39.6621 Y84.2771 Z-1.0000 F720
G01 X39.3519 Y84.3368 Z-1.0000 F720
G01 X39.0374 Y84.3677 Z-1.0000 F720
G01 X38.7215 Y84.3695 Z-1.0000 F720
G01 X38.4067 Y84.3422 Z-1.0000 F720
G01 X38.0958 Y84.2859 Z-1.0000 F720
G01 X37.7914 Y84.2013 Z-1.0000 F720
G01 X37.4961 Y84.0889 Z-1.0000 F720
G01 X37.2124 Y83.9498 Z-1.0000 F720
G01 X36.9410 Y83.7981 Z-1.0000 F720
G01 X36.6845 Y83.6224 Z-1.0000 F720
G01 X36.4450 Y83.4241 Z-1.0000 F720
G01 X36.2245 Y83.2049 Z-1.0000 F720
G01 X36.0249 Y82.9666 Z-1.0000 F720
G01 X35.8477 Y82.7111 Z-1.0000 F720
G01 X35.6945 Y82.4406 Z-1.0000 F720
G01 X35.5664 Y82.1572 Z-1.0000 F720
G01 X35.4646 Y81.8634 Z-1.0000 F720
G01 X35.3900 Y81.5616 Z-1.0000 F720
G01 X35.3430 Y81.2543 Z-1.0000 F720
G01 X35.3242 Y80.9439 Z-1.0000 F720
G01 X35.3421 Y80.6912 Z-1.0000 F720
G01 X35.3789 Y80.4406 Z-1.0000 F720
G01 X35.4345 Y80.1934 Z-1.0000 F720
G01 X35.5084 Y79.9511 Z-1.0000 F720
G01 X35.6003 Y79.7150 Z-1.0000 F720
G01 X35.7096 Y79.4864 Z-1.0000 F720
G01 X35.8358 Y79.2668 Z-1.0000 F720
G01 X35.9781 Y79.0572 Z-1.0000 F720
G01 X36.1357 Y78.8588 Z-1.0000 F720
G01 X36.3077 Y78.6729 Z-1.0000 F720
G01 X36.4933 Y78.5003 Z-1.0000 F720
G01 X36.6912 Y78.3422 Z-1.0000 F720
G01 X35.8236 Y78.0775 Z-1.0000 F720
G01 X34.9643 Y77.7869 Z-1.0000 F720
G01 X34.1140 Y77.4708 Z-1.0000 F720
G01 X33.2736 Y77.1295 Z-1.0000 F720
G01 X33.3250 Y77.3300 Z-1.0000 F720
G01 X33.3640 Y77.5332 Z-1.0000 F720
G01 X33.3903 Y77.7385 Z-1.0000 F720
G01 X33.4039 Y77.9450 Z-1.0000 F720
G01 X33.4048 Y78.1519 Z-1.0000 F720
G01 X33.3929 Y78.3585 Z-1.0000 F720
G01 X33.3683 Y78.5640 Z-1.0000 F720
G01 X33.3310 Y78.7676 Z-1.0000 F720
G01 X33.2361 Y79.0927 Z-1.0000 F720
G01 X33.1106 Y79.4073 Z-1.0000 F720
G01 X32.9557 Y79.7085 Z-1.0000 F720
G01 X32.7727 Y79.9936 Z-1.0000 F720
G01 X32.5634 Y80.2599 Z-1.0000 F720
G01 X32.3297 Y80.5050 Z-1.0000 F720
G01 X32.0736 Y80.7267 Z-1.0000 F720
G01 X31.7976 Y80.9230 Z-1.0000 F720
G01 X31.5041 Y81.0921 Z-1.0000 F720
G01 X31.1958 Y81.2324 Z-1.0000 F720
G01 X30.8755 Y81.3427 Z-1.0000 F720
G01 X30.5462 Y81.4219 Z-1.0000 F720
G01 X30.2108 Y81.4693 Z-1.0000 F720
G01 X29.8725 Y81.4846 Z-1.0000 F720
G01 X29.5342 Y81.4675 Z-1.0000 F720
G01 X29.1991 Y81.4182 Z-1.0000 F720
G01 X28.8702 Y81.3372 Z-1.0000 F720
G01 X28.5505 Y81.2252 Z-1.0000 F720
G01 X28.2430 Y81.0833 Z-1.0000 F720
G01 X27.9504 Y80.9126 Z-1.0000 F720
G01 X27.7503 Y80.7653 Z-1.0000 F720
G01 X27.5615 Y80.6038 Z-1.0000 F720
G01 X27.3849 Y80.4289 Z-1.0000 F720
G01 X27.2215 Y80.2416 Z-1.0000 F720
G01 X27.0723 Y80.0430 Z-1.0000 F720
G01 X26.9379 Y79.8339 Z-1.0000 F720
G01 X26.8191 Y79.6157 Z-1.0000 F720
G01 X26.7165 Y79.3893 Z-1.0000 F720
G01 X26.6307 Y79.1561 Z-1.0000 F720
G01 X26.5621 Y78.9172 Z-1.0000 F720
G01 X26.5111 Y78.6740 Z-1.0000 F720
G01 X26.4780 Y78.4277 Z-1.0000 F720
G01 X26.4606 Y78.0776 Z-1.0000 F720
G01 X26.4718 Y77.7983 Z-1.0000 F720
G01 X26.5151 Y77.4758 Z-1.0000 F720
G01 X26.5900 Y77.1590 Z-1.0000 F720
G01 X26.6957 Y76.8512 Z-1.0000 F720
G01 X26.8312 Y76.5553 Z-1.0000 F720
G01 X26.9952 Y76.2742 Z-1.0000 F720
G01 X27.1860 Y76.0105 Z-1.0000 F720
G01 X27.4018 Y75.7669 Z-1.0000 F720
G01 X27.6406 Y75.5458 Z-1.0000 F720
G01 X27.9000 Y75.3492 Z-1.0000 F720
G01 X28.1775 Y75.1791 Z-1.0000 F720
G01 X28.4703 Y75.0371 Z-1.0000 F720
G01 X28.7757 Y74.9246 Z-1.0000 F720
G01 X28.0714 Y74.4461 Z-1.0000 F720
G01 X27.3806 Y73.9483 Z-1.0000 F720
G01 X26.7039 Y73.4315 Z-1.0000 F720
G01 X26.0417 Y72.8962 Z-1.0000 F720
G01 X26.0517 Y73.2285 Z-1.0000 F720
G01 X26.0294 Y73.5601 Z-1.0000 F720
G01 X25.9748 Y73.8881 Z-1.0000 F720
G01 X25.8887 Y74.2091 Z-1.0000 F720
G01 X25.7717 Y74.5203 Z-1.0000 F720
G01 X25.6249 Y74.8186 Z-1.0000 F720
G01 X25.4499 Y75.1012 Z-1.0000 F720
G01 X25.2481 Y75.3654 Z-1.0000 F720
G01 X25.0216 Y75.6087 Z-1.0000 F720
G01 X24.7725 Y75.8288 Z-1.0000 F720
G01 X24.5032 Y76.0237 Z-1.0000 F720
G01 X24.2162 Y76.1914 Z-1.0000 F720
G01 X23.9142 Y76.3304 Z-1.0000 F720
G01 X23.6001 Y76.4393 Z-1.0000 F720
G01 X23.2770 Y76.5172 Z-1.0000 F720
G01 X22.9477 Y76.5632 Z-1.0000 F720
G01 X22.6156 Y76.5770 Z-1.0000 F720
G01 X22.2837 Y76.5584 Z-1.0000 F720
G01 X21.9552 Y76.5076 Z-1.0000 F720
G01 X21.6332 Y76.4250 Z-1.0000 F720
G01 X21.3207 Y76.3115 Z-1.0000 F720
G01 X21.0208 Y76.1682 Z-1.0000 F720
G01 X20.7362 Y75.9963 Z-1.0000 F720
G01 X20.4698 Y75.7976 Z-1.0000 F720
G01 X20.2239 Y75.5739 Z-1.0000 F720
G01 X20.0010 Y75.3273 Z-1.0000 F720
G01 X19.8031 Y75.0601 Z-1.0000 F720
G01 X19.6321 Y74.7750 Z-1.0000 F720
G01 X19.4898 Y74.4747 Z-1.0000 F720
G01 X19.3773 Y74.1618 Z-1.0000 F720
G01 X19.2958 Y73.8396 Z-1.0000 F720
G01 X19.2460 Y73.5109 Z-1.0000 F720
G01 X19.2287 Y73.1607 Z-1.0000 F720
G01 X19.2453 Y72.8190 Z-1.0000 F720
G01 X19.2872 Y72.5168 Z-1.0000 F720
G01 X19.3561 Y72.2196 Z-1.0000 F720
G01 X19.4514 Y71.9298 Z-1.0000 F720
G01 X19.5724 Y71.6498 Z-1.0000 F720
G01 X19.7180 Y71.3817 Z-1.0000 F720
G01 X19.8871 Y71.1278 Z-1.0000 F720
G01 X20.0784 Y70.8901 Z-1.0000 F720
G01 X20.2902 Y70.6705 Z-1.0000 F720
G01 X20.5208 Y70.4709 Z-1.0000 F720
G01 X20.7685 Y70.2928 Z-1.0000 F720
G01 X21.0312 Y70.1376 Z-1.0000 F720
G01 X21.3067 Y70.0067 Z-1.0000 F720
G01 X21.5929 Y69.9010 Z-1.0000 F720
G01 X21.8874 Y69.8215 Z-1.0000 F720
G01 X22.1879 Y69.7688 Z-1.0000 F720
G01 X22.4919 Y69.7432 Z-1.0000 F720
G01 X22.0884 Y69.3072 Z-1.0000 F720
G01 X21.6928 Y68.8640 Z-1.0000 F720
G01 X21.3053 Y68.4136 Z-1.0000 F720
G01 X20.9260 Y67.9564 Z-1.0000 F720
G01 X20.5550 Y67.4924 Z-1.0000 F720
G01 X20.1925 Y67.0217 Z-1.0000 F720
G01 X19.8385 Y66.5446 Z-1.0000 F720
G01 X19.4932 Y66.0611 Z-1.0000 F720
G01 X19.5021 Y66.4041 Z-1.0000 F720
G01 X19.4765 Y66.7463 Z-1.0000 F720
G01 X19.4169 Y67.0842 Z-1.0000 F720
G01 X19.3236 Y67.4145 Z-1.0000 F720
G01 X19.1978 Y67.7337 Z-1.0000 F720
G01 X19.0407 Y68.0387 Z-1.0000 F720
G01 X18.8538 Y68.3265 Z-1.0000 F720
G01 X18.6390 Y68.5941 Z-1.0000 F720
G01 X18.3985 Y68.8388 Z-1.0000 F720
G01 X18.1347 Y69.0583 Z-1.0000 F720
G01 X17.8503 Y69.2502 Z-1.0000 F720
G01 X17.5480 Y69.4127 Z-1.0000 F720
G01 X17.2310 Y69.5441 Z-1.0000 F720
G01 X16.9025 Y69.6431 Z-1.0000 F720
G01 X16.5657 Y69.7087 Z-1.0000 F720
G01 X16.2240 Y69.7402 Z-1.0000 F720
G01 X15.8809 Y69.7374 Z-1.0000 F720
G01 X15.5398 Y69.7002 Z-1.0000 F720
G01 X15.2041 Y69.6291 Z-1.0000 F720
G01 X14.8772 Y69.5247 Z-1.0000 F720
G01 X14.5625 Y69.3881 Z-1.0000 F720
G01 X14.2629 Y69.2207 Z-1.0000 F720
G01 X13.9817 Y69.0241 Z-1.0000 F720
G01 X13.7216 Y68.8003 Z-1.0000 F720
G01 X13.4851 Y68.5516 Z-1.0000 F720
G01 X13.2748 Y68.2805 Z-1.0000 F720
G01 X13.0926 Y67.9897 Z-1.0000 F720
G01 X12.9405 Y67.6821 Z-1.0000 F720
G01 X12.8200 Y67.3609 Z-1.0000 F720
G01 X12.7322 Y67.0292 Z-1.0000 F720
G01 X12.6781 Y66.6903 Z-1.0000 F720
G01 X12.6582 Y66.3478 Z-1.0000 F720
G01 X12.6758 Y65.9976 Z-1.0000 F720
G01 X12.7278 Y65.6647 Z-1.0000 F720
G01 X12.8120 Y65.3385 Z-1.0000 F720
G01 X12.9278 Y65.0220 Z-1.0000 F720
G01 X13.0739 Y64.7184 Z-1.0000 F720
G01 X13.2490 Y64.4305 Z-1.0000 F720
G01 X13.4513 Y64.1611 Z-1.0000 F720
G01 X13.6790 Y63.9127 Z-1.0000 F720
G01 X13.9300 Y63.6878 Z-1.0000 F720
G01 X14.2016 Y63.4885 Z-1.0000 F720
G01 X14.4915 Y63.3167 Z-1.0000 F720
G01 X14.7967 Y63.1740 Z-1.0000 F720
G01 X15.1145 Y63.0618 Z-1.0000 F720
G01 X15.4417 Y62.9813 Z-1.0000 F720
G01 X15.7751 Y62.9330 Z-1.0000 F720
G01 X16.1117 Y62.9176 Z-1.0000 F720
G01 X16.4482 Y62.9352 Z-1.0000 F720
G01 X16.7814 Y62.9856 Z-1.0000 F720
G01 X17.1081 Y63.0682 Z-1.0000 F720
G01 X17.4251 Y63.1824 Z-1.0000 F720
G01 X17.7294 Y63.3271 Z-1.0000 F720
G01 X17.3961 Y62.7359 Z-1.0000 F720
G01 X17.0743 Y62.1383 Z-1.0000 F720
G01 X16.7642 Y61.5346 Z-1.0000 F720
G01 X16.4658 Y60.9250 Z-1.0000 F720
G01 X16.1794 Y60.3098 Z-1.0000 F720
G01 X15.9049 Y59.6891 Z-1.0000 F720
G01 X15.6424 Y59.0632 Z-1.0000 F720
G01 X15.3922 Y58.4323 Z-1.0000 F720
G01 X15.3748 Y58.7654 Z-1.0000 F720
G01 X15.3249 Y59.0953 Z-1.0000 F720
G01 X15.2429 Y59.4187 Z-1.0000 F720
G01 X15.1297 Y59.7325 Z-1.0000 F720
G01 X14.9864 Y60.0338 Z-1.0000 F720
G01 X14.8143 Y60.3196 Z-1.0000 F720
G01 X14.6150 Y60.5871 Z-1.0000 F720
G01 X14.3906 Y60.8339 Z-1.0000 F720
G01 X14.1430 Y61.0576 Z-1.0000 F720
G01 X13.8748 Y61.2560 Z-1.0000 F720
G01 X13.5885 Y61.4272 Z-1.0000 F720
G01 X13.2868 Y61.5695 Z-1.0000 F720
G01 X12.9726 Y61.6817 Z-1.0000 F720
G01 X12.6489 Y61.7626 Z-1.0000 F720
G01 X12.3189 Y61.8114 Z-1.0000 F720
G01 X11.9857 Y61.8278 Z-1.0000 F720
G01 X11.6525 Y61.8114 Z-1.0000 F720
G01 X11.3225 Y61.7626 Z-1.0000 F720
G01 X10.9988 Y61.6817 Z-1.0000 F720
G01 X10.6846 Y61.5695 Z-1.0000 F720
G01 X10.3829 Y61.4272 Z-1.0000 F720
G01 X10.0966 Y61.2560 Z-1.0000 F720
G01 X9.8284 Y61.0576 Z-1.0000 F720
G01 X9.5808 Y60.8339 Z-1.0000 F720
G01 X9.3564 Y60.5871 Z-1.0000 F720
G01 X9.1571 Y60.3196 Z-1.0000 F720
G01 X8.9850 Y60.0338 Z-1.0000 F720
G01 X8.8416 Y59.7325 Z-1.0000 F720
G01 X8.7285 Y59.4187 Z-1.0000 F720
G01 X8.6465 Y59.0953 Z-1.0000 F720
G01 X8.5966 Y58.7654 Z-1.0000 F720
G01 X8.5792 Y58.4323 Z-1.0000 F720
G01 X8.5928 Y58.1320 Z-1.0000 F720
G01 X8.6314 Y57.8338 Z-1.0000 F720
G01 X8.6945 Y57.5399 Z-1.0000 F720
G01 X8.7818 Y57.2523 Z-1.0000 F720
G01 X8.8927 Y56.9728 Z-1.0000 F720
G01 X9.0263 Y56.7035 Z-1.0000 F720
G01 X9.1819 Y56.4463 Z-1.0000 F720
G01 X9.3582 Y56.2028 Z-1.0000 F720
G01 X9.5918 Y55.9248 Z-1.0000 F720
G01 X9.8546 Y55.6742 Z-1.0000 F720
G01 X10.1432 Y55.4539 Z-1.0000 F720
G01 X10.4543 Y55.2665 Z-1.0000 F720
G01 X10.7841 Y55.1145 Z-1.0000 F720
G01 X11.1285 Y54.9996 Z-1.0000 F720
G01 X11.4835 Y54.9231 Z-1.0000 F720
G01 X11.8447 Y54.8861 Z-1.0000 F720
G01 X12.2078 Y54.8890 Z-1.0000 F720
G01 X12.5684 Y54.9316 Z-1.0000 F720
G01 X12.9222 Y55.0136 Z-1.0000 F720
G01 X13.2648 Y55.1339 Z-1.0000 F720
G01 X13.5921 Y55.2911 Z-1.0000 F720
G01 X13.9002 Y55.4833 Z-1.0000 F720
G01 X14.1854 Y55.7081 Z-1.0000 F720
G01 X14.4442 Y55.9628 Z-1.0000 F720
G01 X14.2387 Y55.2416 Z-1.0000 F720
G01 X14.0476 Y54.5163 Z-1.0000 F720
G01 X13.8712 Y53.7874 Z-1.0000 F720
G01 X13.7093 Y53.0551 Z-1.0000 F720
G01 X13.5622 Y52.3197 Z-1.0000 F720
G01 X13.4298 Y51.5815 Z-1.0000 F720
G01 X13.3122 Y50.8408 Z-1.0000 F720
G01 X13.2094 Y50.0979 Z-1.0000 F720
G01 X13.0125 Y50.3889 Z-1.0000 F720
G01 X12.7864 Y50.6579 Z-1.0000 F720
G01 X12.5335 Y50.9018 Z-1.0000 F720
G01 X12.2567 Y51.1181 Z-1.0000 F720
G01 X11.9588 Y51.3045 Z-1.0000 F720
G01 X11.6432 Y51.4588 Z-1.0000 F720
G01 X11.3132 Y51.5795 Z-1.0000 F720
G01 X10.9724 Y51.6652 Z-1.0000 F720
G01 X10.6246 Y51.7149 Z-1.0000 F720
G01 X10.2735 Y51.7282 Z-1.0000 F720
G01 X9.9229 Y51.7049 Z-1.0000 F720
G01 X9.5767 Y51.6453 Z-1.0000 F720
G01 X9.2385 Y51.5500 Z-1.0000 F720
G01 X8.9121 Y51.4200 Z-1.0000 F720
G01 X8.6010 Y51.2567 Z-1.0000 F720
G01 X8.3085 Y51.0619 Z-1.0000 F720
G01 X8.0379 Y50.8378 Z-1.0000 F720
G01 X7.7921 Y50.5868 Z-1.0000 F720
G01 X7.5738 Y50.3115 Z-1.0000 F720
G01 X7.3852 Y50.0150 Z-1.0000 F720
G01 X7.2286 Y49.7005 Z-1.0000 F720
G01 X7.1055 Y49.3714 Z-1.0000 F720
G01 X7.0173 Y49.0313 Z-1.0000 F720
G01 X6.9649 Y48.6839 Z-1.0000 F720
G01 X6.9476 Y48.3340 Z-1.0000 F720
G01 X6.9649 Y47.9839 Z-1.0000 F720
G01 X7.0084 Y47.6843 Z-1.0000 F720
G01 X7.0782 Y47.3897 Z-1.0000 F720
G01 X7.1737 Y47.1024 Z-1.0000 F720
G01 X7.2942 Y46.8247 Z-1.0000 F720
G01 X7.4388 Y46.5588 Z-1.0000 F720
G01 X7.6063 Y46.3066 Z-1.0000 F720
G01 X7.7955 Y46.0703 Z-1.0000 F720
G01 X8.0048 Y45.8516 Z-1.0000 F720
G01 X8.2326 Y45.6522 Z-1.0000 F720
G01 X8.4771 Y45.4737 Z-1.0000 F720
G01 X8.7365 Y45.3176 Z-1.0000 F720
G01 X9.0086 Y45.1850 Z-1.0000 F720
G01 X9.2914 Y45.0769 Z-1.0000 F720
G01 X9.5827 Y44.9943 Z-1.0000 F720
G01 X9.8801 Y44.9377 Z-1.0000 F720
G01 X10.1813 Y44.9076 Z-1.0000 F720
G01 X10.4840 Y44.9043 Z-1.0000 F720
G01 X10.7858 Y44.9277 Z-1.0000 F720
G01 X11.0844 Y44.9777 Z-1.0000 F720
G01 X11.3774 Y45.0539 Z-1.0000 F720
G01 X11.5772 Y45.1127 Z-1.0000 F720
G01 X11.7729 Y45.1844 Z-1.0000 F720
G01 X11.9634 Y45.2687 Z-1.0000 F720
G01 X12.1481 Y45.3652 Z-1.0000 F720
G01 X12.3260 Y45.4735 Z-1.0000 F720
G01 X12.4966 Y45.5932 Z-1.0000 F720
G01 X12.6590 Y45.7237 Z-1.0000 F720
G01 X12.8125 Y45.8646 Z-1.0000 F720
G01 X12.7357 Y44.8922 Z-1.0000 F720
G01 X12.6582 Y43.9464 Z-1.0000 F720
G01 X12.3261 Y44.0815 Z-1.0000 F720
G01 X11.9865 Y44.1964 Z-1.0000 F720
G01 X11.6406 Y44.2907 Z-1.0000 F720
G01 X11.2896 Y44.3640 Z-1.0000 F720
G01 X10.9349 Y44.4160 Z-1.0000 F720
G01 X10.5777 Y44.4465 Z-1.0000 F720
G01 X10.2192 Y44.4555 Z-1.0000 F720
G01 X9.8609 Y44.4429 Z-1.0000 F720
G01 X8.8108 Y44.3370 Z-1.0000 F720
G01 X8.4141 Y44.2799 Z-1.0000 F720
G01 X8.0151 Y44.2421 Z-1.0000 F720
G01 X7.6148 Y44.2236 Z-1.0000 F720
G01 X7.2140 Y44.2244 Z-1.0000 F720
G01 X6.8138 Y44.2447 Z-1.0000 F720
G01 X6.4149 Y44.2843 Z-1.0000 F720
G01 X6.0185 Y44.3431 Z-1.0000 F720
G01 X5.6254 Y44.4210 Z-1.0000 F720
G01 X5.2365 Y44.5178 Z-1.0000 F720
G01 X4.8527 Y44.6333 Z-1.0000 F720
G01 X4.4750 Y44.7673 Z-1.0000 F720
G01 X4.1041 Y44.9193 Z-1.0000 F720
G01 X3.6739 Y45.1062 Z-1.0000 F720
G01 X3.2480 Y45.3027 Z-1.0000 F720
G01 X2.8266 Y45.5089 Z-1.0000 F720
G01 X2.4101 Y45.7247 Z-1.0000 F720
G01 X1.9985 Y45.9498 Z-1.0000 F720
G01 X1.5922 Y46.1842 Z-1.0000 F720
G01 X1.1913 Y46.4277 Z-1.0000 F720
G01 X0.7960 Y46.6803 Z-1.0000 F720
G01 X1.8307 Y45.2669 Z-1.0000 F720
G01 X2.8474 Y43.8403 Z-1.0000 F720
G01 X3.8458 Y42.4010 Z-1.0000 F720
G01 X4.8257 Y40.9490 Z-1.0000 F720
G01 X5.7872 Y39.4847 Z-1.0000 F720
G01 X6.7299 Y38.0083 Z-1.0000 F720
G01 X7.6537 Y36.5200 Z-1.0000 F720
G01 X8.5585 Y35.0201 Z-1.0000 F720
G01 X9.4442 Y33.5088 Z-1.0000 F720
G01 X10.3105 Y31.9863 Z-1.0000 F720
G01 X11.1574 Y30.4529 Z-1.0000 F720
G01 X11.9847 Y28.9089 Z-1.0000 F720
G01 X12.5571 Y27.8057 Z-1.0000 F720
G01 X13.1116 Y26.6935 Z-1.0000 F720
G01 X13.6481 Y25.5724 Z-1.0000 F720
G01 X14.1665 Y24.4429 Z-1.0000 F720
G01 X14.6666 Y23.3052 Z-1.0000 F720
G01 X15.1484 Y22.1596 Z-1.0000 F720
G01 X15.6116 Y21.0064 Z-1.0000 F720
G01 X16.0562 Y19.8458 Z-1.0000 F720
G01 X16.4821 Y18.6783 Z-1.0000 F720
G01 X16.8891 Y17.5041 Z-1.0000 F720
G01 X17.2772 Y16.3234 Z-1.0000 F720
G01 X17.6462 Y15.1367 Z-1.0000 F720
G01 X17.8696 Y14.3584 Z-1.0000 F720
G01 X18.0804 Y13.5766 Z-1.0000 F720
G01 X18.2783 Y12.7914 Z-1.0000 F720
G01 X18.4634 Y12.0031 Z-1.0000 F720
G01 X18.6356 Y11.2119 Z-1.0000 F720
G01 X18.7949 Y10.4180 Z-1.0000 F720
G01 X18.9411 Y9.6216 Z-1.0000 F720
G01 X19.0743 Y8.8229 Z-1.0000 F720
G01 X19.1027 Y8.4324 Z-1.0000 F720
G01 X19.1466 Y8.2258 Z-1.0000 F720
G01 X19.2065 Y8.0232 Z-1.0000 F720
G01 X19.2820 Y7.8260 Z-1.0000 F720
G01 X19.3727 Y7.6352 Z-1.0000 F720
G01 X19.4781 Y7.4522 Z-1.0000 F720
G01 X19.5974 Y7.2779 Z-1.0000 F720
G01 X19.7300 Y7.1135 Z-1.0000 F720
G01 X19.8751 Y6.9600 Z-1.0000 F720
G01 X20.3973 Y6.4417 Z-1.0000 F720
G01 X20.6925 Y6.2433 Z-1.0000 F720
G01 X20.9945 Y6.0554 Z-1.0000 F720
G01 X21.3028 Y5.8781 Z-1.0000 F720
G01 X21.6171 Y5.7116 Z-1.0000 F720
G01 X21.9371 Y5.5563 Z-1.0000 F720
G01 X22.2622 Y5.4122 Z-1.0000 F720
G01 X22.5923 Y5.2795 Z-1.0000 F720
G01 X22.9267 Y5.1585 Z-1.0000 F720
G01 X23.7808 Y4.8601 Z-1.0000 F720
G01 X24.7192 Y4.5708 Z-1.0000 F720
G01 X25.7980 Y4.2891 Z-1.0000 F720
G01 X26.8813 Y4.0251 Z-1.0000 F720
G01 X27.9688 Y3.7787 Z-1.0000 F720
G01 X29.0601 Y3.5501 Z-1.0000 F720
G01 X30.1549 Y3.3392 Z-1.0000 F720
G01 X31.2531 Y3.1462 Z-1.0000 F720
G01 X32.3543 Y2.9710 Z-1.0000 F720
G01 X33.4582 Y2.8138 Z-1.0000 F720
G01 X35.4388 Y2.5541 Z-1.0000 F720
G01 X37.4220 Y2.3142 Z-1.0000 F720
G01 X39.4075 Y2.0943 Z-1.0000 F720
G01 X41.3951 Y1.8944 Z-1.0000 F720
G01 X43.3846 Y1.7145 Z-1.0000 F720
G01 X45.3758 Y1.5546 Z-1.0000 F720
G01 X47.3685 Y1.4148 Z-1.0000 F720
G01 X49.3626 Y1.2950 Z-1.0000 F720
G01 X53.0245 Y1.1085 Z-1.0000 F720
G01 X56.6881 Y0.9559 Z-1.0000 F720
G01 X60.3529 Y0.8372 Z-1.0000 F720
G01 X64.0186 Y0.7524 Z-1.0000 F720
G01 X67.6850 Y0.7015 Z-1.0000 F720
G01 X71.3516 Y0.6845 Z-1.0000 F720
G01 X75.0183 Y0.7015 Z-1.0000 F720
G01 X78.6847 Y0.7524 Z-1.0000 F720
G01 X82.3504 Y0.8372 Z-1.0000 F720
G01 X86.0152 Y0.9559 Z-1.0000 F720
G01 X89.6787 Y1.1085 Z-1.0000 F720
G01 X93.3407 Y1.2950 Z-1.0000 F720
G01 X95.1418 Y1.4032 Z-1.0000 F720
G01 X96.9419 Y1.5273 Z-1.0000 F720
G01 X98.7409 Y1.6671 Z-1.0000 F720
G01 X100.5385 Y1.8227 Z-1.0000 F720
G01 X102.3347 Y1.9941 Z-1.0000 F720
G01 X104.1294 Y2.1812 Z-1.0000 F720
G01 X105.9223 Y2.3841 Z-1.0000 F720
G01 X107.7134 Y2.6026 Z-1.0000 F720
G01 X108.8800 Y2.7516 Z-1.0000 F720
G01 X110.0443 Y2.9184 Z-1.0000 F720
G01 X111.2058 Y3.1030 Z-1.0000 F720
G01 X112.3644 Y3.3053 Z-1.0000 F720
G01 X113.5197 Y3.5253 Z-1.0000 F720
G01 X114.6716 Y3.7629 Z-1.0000 F720
G01 X115.8197 Y4.0181 Z-1.0000 F720
G01 X116.9637 Y4.2909 Z-1.0000 F720
G01 X117.5124 Y4.4265 Z-1.0000 F720
G01 X118.0573 Y4.5768 Z-1.0000 F720
G01 X118.5978 Y4.7419 Z-1.0000 F720
G01 X119.1338 Y4.9215 Z-1.0000 F720
G01 X119.6647 Y5.1155 Z-1.0000 F720
G01 X120.1901 Y5.3237 Z-1.0000 F720
G01 X120.7097 Y5.5461 Z-1.0000 F720
G01 X121.2232 Y5.7825 Z-1.0000 F720
G01 X121.8111 Y6.1077 Z-1.0000 F720
G01 X122.3060 Y6.4417 Z-1.0000 F720
G01 X122.8282 Y6.9600 Z-1.0000 F720
G01 X123.0093 Y7.1475 Z-1.0000 F720
G01 X123.1700 Y7.3528 Z-1.0000 F720
G01 X123.3087 Y7.5736 Z-1.0000 F720
G01 X123.4239 Y7.8075 Z-1.0000 F720
G01 X123.5143 Y8.0520 Z-1.0000 F720
G01 X123.5790 Y8.3046 Z-1.0000 F720
G01 X123.6174 Y8.5624 Z-1.0000 F720
G01 X123.6289 Y8.8229 Z-1.0000 F720
G01 X123.8470 Y10.0949 Z-1.0000 F720
G01 X124.0989 Y11.3606 Z-1.0000 F720
G01 X124.3843 Y12.6192 Z-1.0000 F720
G01 X124.7030 Y13.8698 Z-1.0000 F720
G01 X125.1737 Y15.4879 Z-1.0000 F720
G01 X125.6814 Y17.0948 Z-1.0000 F720
G01 X126.2260 Y18.6896 Z-1.0000 F720
G01 X126.8071 Y20.2715 Z-1.0000 F720
G01 X127.4245 Y21.8395 Z-1.0000 F720
G01 X128.0777 Y23.3930 Z-1.0000 F720
G01 X128.7664 Y24.9311 Z-1.0000 F720
G01 X129.4904 Y26.4529 Z-1.0000 F720
G01 X130.7185 Y28.9089 Z-1.0000 F720
G01 X131.5458 Y30.4529 Z-1.0000 F720
G01 X132.3927 Y31.9863 Z-1.0000 F720
G01 X133.2590 Y33.5088 Z-1.0000 F720
G01 X134.1447 Y35.0201 Z-1.0000 F720
G01 X135.0495 Y36.5200 Z-1.0000 F720
G01 X135.9733 Y38.0083 Z-1.0000 F720
G01 X136.9160 Y39.4848 Z-1.0000 F720
G01 X137.8775 Y40.9491 Z-1.0000 F720
G01 X138.8574 Y42.4010 Z-1.0000 F720
G01 X139.8558 Y43.8404 Z-1.0000 F720
G01 X140.8724 Y45.2669 Z-1.0000 F720
G01 X141.9071 Y46.6803 Z-1.0000 F720
G01 X141.5129 Y46.4260 Z-1.0000 F720
G01 X141.1127 Y46.1812 Z-1.0000 F720
G01 X140.7067 Y45.9461 Z-1.0000 F720
G01 X140.2952 Y45.7207 Z-1.0000 F720
G01 X139.8785 Y45.5052 Z-1.0000 F720
G01 X139.4567 Y45.2997 Z-1.0000 F720
G01 X139.0302 Y45.1044 Z-1.0000 F720
G01 X138.5990 Y44.9193 Z-1.0000 F720
G01 X138.2281 Y44.7677 Z-1.0000 F720
G01 X137.8503 Y44.6342 Z-1.0000 F720
G01 X137.4665 Y44.5190 Z-1.0000 F720
G01 X137.0776 Y44.4224 Z-1.0000 F720
G01 X136.6844 Y44.3446 Z-1.0000 F720
G01 X136.2881 Y44.2859 Z-1.0000 F720
G01 X135.8893 Y44.2463 Z-1.0000 F720
G01 X135.4891 Y44.2259 Z-1.0000 F720
G01 X135.0884 Y44.2248 Z-1.0000 F720
G01 X134.6880 Y44.2430 Z-1.0000 F720
G01 X134.2891 Y44.2804 Z-1.0000 F720
G01 X133.8924 Y44.3370 Z-1.0000 F720
G01 X133.3687 Y44.3983 Z-1.0000 F720
G01 X132.9466 Y44.4433 Z-1.0000 F720
G01 X132.5223 Y44.4590 Z-1.0000 F720
G01 X132.0979 Y44.4455 Z-1.0000 F720
G01 X131.6755 Y44.4029 Z-1.0000 F720
G01 X131.2571 Y44.3312 Z-1.0000 F720
G01 X130.8445 Y44.2309 Z-1.0000 F720
G01 X130.4399 Y44.1024 Z-1.0000 F720
G01 X130.0450 Y43.9464 Z-1.0000 F720
G01 X129.9675 Y44.8922 Z-1.0000 F720
G01 X129.8907 Y45.8646 Z-1.0000 F720
G01 X130.0789 Y45.6981 Z-1.0000 F720
G01 X130.2789 Y45.5461 Z-1.0000 F720
G01 X130.4897 Y45.4094 Z-1.0000 F720
G01 X130.7100 Y45.2886 Z-1.0000 F720
G01 X130.9387 Y45.1846 Z-1.0000 F720
G01 X131.1745 Y45.0978 Z-1.0000 F720
G01 X131.4161 Y45.0288 Z-1.0000 F720
G01 X131.6621 Y44.9779 Z-1.0000 F720
G01 X132.0029 Y44.9262 Z-1.0000 F720
G01 X132.3472 Y44.9092 Z-1.0000 F720
G01 X132.6915 Y44.9270 Z-1.0000 F720
G01 X133.0322 Y44.9794 Z-1.0000 F720
G01 X133.3659 Y45.0660 Z-1.0000 F720
G01 X133.6892 Y45.1858 Z-1.0000 F720
G01 X133.9987 Y45.3376 Z-1.0000 F720
G01 X134.2913 Y45.5199 Z-1.0000 F720
G01 X134.5640 Y45.7307 Z-1.0000 F720
G01 X134.8140 Y45.9680 Z-1.0000 F720
G01 X135.0388 Y46.2294 Z-1.0000 F720
G01 X135.2361 Y46.5121 Z-1.0000 F720
G01 X135.4038 Y46.8132 Z-1.0000 F720
G01 X135.5403 Y47.1298 Z-1.0000 F720
G01 X135.6442 Y47.4585 Z-1.0000 F720
G01 X135.7143 Y47.7960 Z-1.0000 F720
G01 X135.7501 Y48.1389 Z-1.0000 F720
G01 X135.7510 Y48.4836 Z-1.0000 F720
G01 X135.7171 Y48.8267 Z-1.0000 F720
G01 X135.6488 Y49.1646 Z-1.0000 F720
G01 X135.5468 Y49.4938 Z-1.0000 F720
G01 X135.4120 Y49.8111 Z-1.0000 F720
G01 X135.2459 Y50.1132 Z-1.0000 F720
G01 X135.0502 Y50.3970 Z-1.0000 F720
G01 X134.8268 Y50.6595 Z-1.0000 F720
G01 X134.5780 Y50.8982 Z-1.0000 F720
G01 X134.3065 Y51.1106 Z-1.0000 F720
G01 X134.0149 Y51.2944 Z-1.0000 F720
G01 X133.7062 Y51.4479 Z-1.0000 F720
G01 X133.3836 Y51.5695 Z-1.0000 F720
G01 X133.0504 Y51.6578 Z-1.0000 F720
G01 X132.7100 Y51.7121 Z-1.0000 F720
G01 X132.3938 Y51.7307 Z-1.0000 F720
G01 X132.0773 Y51.7191 Z-1.0000 F720
G01 X131.7633 Y51.6775 Z-1.0000 F720
G01 X131.4547 Y51.6062 Z-1.0000 F720
G01 X131.1543 Y51.5058 Z-1.0000 F720
G01 X130.8648 Y51.3774 Z-1.0000 F720
G01 X130.5888 Y51.2220 Z-1.0000 F720
G01 X130.3289 Y51.0411 Z-1.0000 F720
G01 X130.0873 Y50.8363 Z-1.0000 F720
G01 X129.8663 Y50.6094 Z-1.0000 F720
G01 X129.6678 Y50.3625 Z-1.0000 F720
G01 X129.4938 Y50.0979 Z-1.0000 F720
G01 X129.3910 Y50.8408 Z-1.0000 F720
G01 X129.2734 Y51.5815 Z-1.0000 F720
G01 X129.1410 Y52.3197 Z-1.0000 F720
G01 X128.9939 Y53.0551 Z-1.0000 F720
G01 X128.8320 Y53.7874 Z-1.0000 F720
G01 X128.6556 Y54.5163 Z-1.0000 F720
G01 X128.4646 Y55.2416 Z-1.0000 F720
G01 X128.2591 Y55.9628 Z-1.0000 F720
G01 X128.4769 Y55.7459 Z-1.0000 F720
G01 X128.7139 Y55.5501 Z-1.0000 F720
G01 X128.9680 Y55.3771 Z-1.0000 F720
G01 X129.2371 Y55.2283 Z-1.0000 F720
G01 X129.5187 Y55.1050 Z-1.0000 F720
G01 X129.8105 Y55.0083 Z-1.0000 F720
G01 X130.1101 Y54.9391 Z-1.0000 F720
G01 X130.4147 Y54.8979 Z-1.0000 F720
G01 X130.7219 Y54.8850 Z-1.0000 F720
G01 X131.0289 Y54.9006 Z-1.0000 F720
G01 X131.3332 Y54.9446 Z-1.0000 F720
G01 X131.6321 Y55.0165 Z-1.0000 F720
G01 X131.9230 Y55.1158 Z-1.0000 F720
G01 X132.2036 Y55.2416 Z-1.0000 F720
G01 X132.4712 Y55.3928 Z-1.0000 F720
G01 X132.7238 Y55.5681 Z-1.0000 F720
G01 X132.9590 Y55.7661 Z-1.0000 F720
G01 X133.1749 Y55.9850 Z-1.0000 F720
G01 X133.3696 Y56.2229 Z-1.0000 F720
G01 X133.5415 Y56.4778 Z-1.0000 F720
G01 X133.7124 Y56.7707 Z-1.0000 F720
G01 X133.8629 Y57.0817 Z-1.0000 F720
G01 X133.9812 Y57.4064 Z-1.0000 F720
G01 X134.0661 Y57.7414 Z-1.0000 F720
G01 X134.1168 Y58.0832 Z-1.0000 F720
G01 X134.1327 Y58.4283 Z-1.0000 F720
G01 X134.1136 Y58.7734 Z-1.0000 F720
G01 X134.0598 Y59.1147 Z-1.0000 F720
G01 X133.9718 Y59.4489 Z-1.0000 F720
G01 X133.8505 Y59.7724 Z-1.0000 F720
G01 X133.6971 Y60.0821 Z-1.0000 F720
G01 X133.5133 Y60.3746 Z-1.0000 F720
G01 X133.3008 Y60.6472 Z-1.0000 F720
G01 X133.0620 Y60.8968 Z-1.0000 F720
G01 X132.7991 Y61.1211 Z-1.0000 F720
G01 X132.5149 Y61.3177 Z-1.0000 F720
G01 X132.2123 Y61.4845 Z-1.0000 F720
G01 X131.8944 Y61.6200 Z-1.0000 F720
G01 X131.5645 Y61.7227 Z-1.0000 F720
G01 X131.2258 Y61.7915 Z-1.0000 F720
G01 X130.8820 Y61.8257 Z-1.0000 F720
G01 X130.5365 Y61.8251 Z-1.0000 F720
G01 X130.1927 Y61.7896 Z-1.0000 F720
G01 X129.8544 Y61.7195 Z-1.0000 F720
G01 X129.5248 Y61.6157 Z-1.0000 F720
G01 X129.2074 Y61.4790 Z-1.0000 F720
G01 X128.9054 Y61.3111 Z-1.0000 F720
G01 X128.6220 Y61.1134 Z-1.0000 F720
G01 X128.3599 Y60.8882 Z-1.0000 F720
G01 X128.1219 Y60.6377 Z-1.0000 F720
G01 X127.9105 Y60.3644 Z-1.0000 F720
G01 X127.7277 Y60.0711 Z-1.0000 F720
G01 X127.5755 Y59.7609 Z-1.0000 F720
G01 X127.4866 Y59.5238 Z-1.0000 F720
G01 X127.4155 Y59.2807 Z-1.0000 F720
G01 X127.3627 Y59.0331 Z-1.0000 F720
G01 X127.3283 Y58.7822 Z-1.0000 F720
G01 X127.3110 Y58.4323 Z-1.0000 F720
G01 X127.0608 Y59.0632 Z-1.0000 F720
G01 X126.7984 Y59.6891 Z-1.0000 F720
G01 X126.5239 Y60.3098 Z-1.0000 F720
G01 X126.2374 Y60.9250 Z-1.0000 F720
G01 X125.9390 Y61.5346 Z-1.0000 F720
G01 X125.6289 Y62.1383 Z-1.0000 F720
G01 X125.3072 Y62.7359 Z-1.0000 F720
G01 X124.9739 Y63.3271 Z-1.0000 F720
G01 X125.3524 Y63.1568 Z-1.0000 F720
G01 X125.7613 Y63.0324 Z-1.0000 F720
G01 X126.1053 Y62.9604 Z-1.0000 F720
G01 X126.4550 Y62.9241 Z-1.0000 F720
G01 X126.8065 Y62.9240 Z-1.0000 F720
G01 X127.1561 Y62.9600 Z-1.0000 F720
G01 X127.5002 Y63.0319 Z-1.0000 F720
G01 X127.8351 Y63.1387 Z-1.0000 F720
G01 X128.1572 Y63.2794 Z-1.0000 F720
G01 X128.4631 Y63.4526 Z-1.0000 F720
G01 X128.7495 Y63.6562 Z-1.0000 F720
G01 X129.0135 Y63.8883 Z-1.0000 F720
G01 X129.2523 Y64.1463 Z-1.0000 F720
G01 X129.4632 Y64.4275 Z-1.0000 F720
G01 X129.6440 Y64.7289 Z-1.0000 F720
G01 X129.7929 Y65.0473 Z-1.0000 F720
G01 X129.9083 Y65.3793 Z-1.0000 F720
G01 X129.9888 Y65.7215 Z-1.0000 F720
G01 X130.0338 Y66.0701 Z-1.0000 F720
G01 X130.0426 Y66.4215 Z-1.0000 F720
G01 X130.0153 Y66.7719 Z-1.0000 F720
G01 X129.9520 Y67.1177 Z-1.0000 F720
G01 X129.8535 Y67.4551 Z-1.0000 F720
G01 X129.7208 Y67.7806 Z-1.0000 F720
G01 X129.5553 Y68.0907 Z-1.0000 F720
G01 X129.3588 Y68.3821 Z-1.0000 F720
G01 X129.1334 Y68.6518 Z-1.0000 F720
G01 X128.8814 Y68.8968 Z-1.0000 F720
G01 X128.6055 Y69.1147 Z-1.0000 F720
G01 X128.3087 Y69.3030 Z-1.0000 F720
G01 X127.9941 Y69.4597 Z-1.0000 F720
G01 X127.6650 Y69.5833 Z-1.0000 F720
G01 X127.3250 Y69.6723 Z-1.0000 F720
G01 X126.9776 Y69.7259 Z-1.0000 F720
G01 X126.6435 Y69.7456 Z-1.0000 F720
G01 X126.3091 Y69.7324 Z-1.0000 F720
G01 X125.9776 Y69.6865 Z-1.0000 F720
G01 X125.6522 Y69.6081 Z-1.0000 F720
G01 X125.3361 Y69.4981 Z-1.0000 F720
G01 X125.0324 Y69.3577 Z-1.0000 F720
G01 X124.7439 Y69.1880 Z-1.0000 F720
G01 X124.4735 Y68.9908 Z-1.0000 F720
G01 X124.2238 Y68.7680 Z-1.0000 F720
G01 X123.9972 Y68.5217 Z-1.0000 F720
G01 X123.7958 Y68.2543 Z-1.0000 F720
G01 X123.6218 Y67.9685 Z-1.0000 F720
G01 X123.4767 Y67.6669 Z-1.0000 F720
G01 X123.3619 Y67.3525 Z-1.0000 F720
G01 X123.2786 Y67.0284 Z-1.0000 F720
G01 X123.2275 Y66.6976 Z-1.0000 F720
G01 X123.2099 Y66.3478 Z-1.0000 F720
G01 X123.2099 Y66.0611 Z-1.0000 F720
G01 X122.8647 Y66.5446 Z-1.0000 F720
G01 X122.5107 Y67.0217 Z-1.0000 F720
G01 X122.1482 Y67.4923 Z-1.0000 F720
G01 X121.7772 Y67.9564 Z-1.0000 F720
G01 X121.3979 Y68.4136 Z-1.0000 F720
G01 X121.0104 Y68.8639 Z-1.0000 F720
G01 X120.6149 Y69.3072 Z-1.0000 F720
G01 X120.2114 Y69.7432 Z-1.0000 F720
G01 X120.5507 Y69.7756 Z-1.0000 F720
G01 X120.8852 Y69.8416 Z-1.0000 F720
G01 X121.2114 Y69.9406 Z-1.0000 F720
G01 X121.5261 Y70.0715 Z-1.0000 F720
G01 X121.8263 Y70.2332 Z-1.0000 F720
G01 X122.1088 Y70.4240 Z-1.0000 F720
G01 X122.3709 Y70.6419 Z-1.0000 F720
G01 X122.6100 Y70.8849 Z-1.0000 F720
G01 X122.8237 Y71.1505 Z-1.0000 F720
G01 X123.0100 Y71.4361 Z-1.0000 F720
G01 X123.1668 Y71.7387 Z-1.0000 F720
G01 X123.2927 Y72.0555 Z-1.0000 F720
G01 X123.3864 Y72.3833 Z-1.0000 F720
G01 X123.4471 Y72.7188 Z-1.0000 F720
G01 X123.4740 Y73.0586 Z-1.0000 F720
G01 X123.4669 Y73.3994 Z-1.0000 F720
G01 X123.4259 Y73.7379 Z-1.0000 F720
G01 X123.3514 Y74.0705 Z-1.0000 F720
G01 X123.2441 Y74.3941 Z-1.0000 F720
G01 X123.1052 Y74.7054 Z-1.0000 F720
G01 X122.9359 Y75.0013 Z-1.0000 F720
G01 X122.7380 Y75.2789 Z-1.0000 F720
G01 X122.5134 Y75.5354 Z-1.0000 F720
G01 X122.2644 Y75.7682 Z-1.0000 F720
G01 X121.9935 Y75.9751 Z-1.0000 F720
G01 X121.7033 Y76.1540 Z-1.0000 F720
G01 X121.3967 Y76.3031 Z-1.0000 F720
G01 X121.0768 Y76.4209 Z-1.0000 F720
G01 X120.7467 Y76.5062 Z-1.0000 F720
G01 X120.4098 Y76.5582 Z-1.0000 F720
G01 X120.0694 Y76.5765 Z-1.0000 F720
G01 X119.7289 Y76.5607 Z-1.0000 F720
G01 X119.4402 Y76.5189 Z-1.0000 F720
G01 X119.1561 Y76.4526 Z-1.0000 F720
G01 X118.8787 Y76.3622 Z-1.0000 F720
G01 X118.6100 Y76.2485 Z-1.0000 F720
G01 X118.3521 Y76.1122 Z-1.0000 F720
G01 X118.1067 Y75.9544 Z-1.0000 F720
G01 X117.8757 Y75.7762 Z-1.0000 F720
G01 X117.6608 Y75.5790 Z-1.0000 F720
G01 X117.4635 Y75.3640 Z-1.0000 F720
G01 X117.2853 Y75.1331 Z-1.0000 F720
G01 X117.1275 Y74.8877 Z-1.0000 F720
G01 X116.9913 Y74.6297 Z-1.0000 F720
G01 X116.8776 Y74.3611 Z-1.0000 F720
G01 X116.7872 Y74.0837 Z-1.0000 F720
G01 X116.7209 Y73.7996 Z-1.0000 F720
G01 X116.6791 Y73.5109 Z-1.0000 F720
G01 X116.6615 Y73.1607 Z-1.0000 F720
G01 X116.6615 Y72.8962 Z-1.0000 F720
G01 X116.0054 Y73.4393 Z-1.0000 F720
G01 X115.3305 Y73.9589 Z-1.0000 F720
G01 X114.6375 Y74.4542 Z-1.0000 F720
G01 X113.9275 Y74.9246 Z-1.0000 F720
G01 X114.1408 Y75.0023 Z-1.0000 F720
G01 X114.3487 Y75.0938 Z-1.0000 F720
G01 X114.5500 Y75.1988 Z-1.0000 F720
G01 X114.7441 Y75.3167 Z-1.0000 F720
G01 X114.9300 Y75.4471 Z-1.0000 F720
G01 X115.1069 Y75.5894 Z-1.0000 F720
G01 X115.2742 Y75.7430 Z-1.0000 F720
G01 X115.4309 Y75.9073 Z-1.0000 F720
G01 X115.6359 Y76.1755 Z-1.0000 F720
G01 X115.8133 Y76.4627 Z-1.0000 F720
G01 X115.9613 Y76.7660 Z-1.0000 F720
G01 X116.0786 Y77.0825 Z-1.0000 F720
G01 X116.1640 Y77.4091 Z-1.0000 F720
G01 X116.2166 Y77.7425 Z-1.0000 F720
G01 X116.2359 Y78.0795 Z-1.0000 F720
G01 X116.2217 Y78.4167 Z-1.0000 F720
G01 X116.1742 Y78.7509 Z-1.0000 F720
G01 X116.0938 Y79.0787 Z-1.0000 F720
G01 X115.9813 Y79.3970 Z-1.0000 F720
G01 X115.8379 Y79.7025 Z-1.0000 F720
G01 X115.6649 Y79.9923 Z-1.0000 F720
G01 X115.4641 Y80.2636 Z-1.0000 F720
G01 X115.2373 Y80.5137 Z-1.0000 F720
G01 X114.9869 Y80.7400 Z-1.0000 F720
G01 X114.7154 Y80.9405 Z-1.0000 F720
G01 X114.4253 Y81.1130 Z-1.0000 F720
G01 X114.1195 Y81.2560 Z-1.0000 F720
G01 X113.8011 Y81.3680 Z-1.0000 F720
G01 X113.4731 Y81.4478 Z-1.0000 F720
G01 X113.1389 Y81.4949 Z-1.0000 F720
G01 X112.8016 Y81.5085 Z-1.0000 F720
G01 X112.4647 Y81.4887 Z-1.0000 F720
G01 X112.1313 Y81.4356 Z-1.0000 F720
G01 X111.8049 Y81.3498 Z-1.0000 F720
G01 X111.4886 Y81.2320 Z-1.0000 F720
G01 X111.1855 Y81.0835 Z-1.0000 F720
G01 X110.9141 Y80.9318 Z-1.0000 F720
G01 X110.6576 Y80.7561 Z-1.0000 F720
G01 X110.4181 Y80.5578 Z-1.0000 F720
G01 X110.1976 Y80.3386 Z-1.0000 F720
G01 X109.9980 Y80.1002 Z-1.0000 F720
G01 X109.8208 Y79.8447 Z-1.0000 F720
G01 X109.6675 Y79.5742 Z-1.0000 F720
G01 X109.5395 Y79.2909 Z-1.0000 F720
G01 X109.4377 Y78.9971 Z-1.0000 F720
G01 X109.3631 Y78.6953 Z-1.0000 F720
G01 X109.3161 Y78.3879 Z-1.0000 F720
G01 X109.2973 Y78.0776 Z-1.0000 F720
G01 X109.3290 Y77.5930 Z-1.0000 F720
G01 X109.3702 Y77.3578 Z-1.0000 F720
G01 X109.4296 Y77.1295 Z-1.0000 F720
G01 X108.5914 Y77.4769 Z-1.0000 F720
G01 X107.7418 Y77.7950 Z-1.0000 F720
G01 X106.8816 Y78.0836 Z-1.0000 F720
G01 X106.0120 Y78.3422 Z-1.0000 F720
G01 X106.2099 Y78.5003 Z-1.0000 F720
G01 X106.3954 Y78.6729 Z-1.0000 F720
G01 X106.5675 Y78.8588 Z-1.0000 F720
G01 X106.7251 Y79.0572 Z-1.0000 F720
G01 X106.8674 Y79.2668 Z-1.0000 F720
G01 X106.9936 Y79.4864 Z-1.0000 F720
G01 X107.1029 Y79.7150 Z-1.0000 F720
G01 X107.1948 Y79.9511 Z-1.0000 F720
G01 X107.2687 Y80.1934 Z-1.0000 F720
G01 X107.3243 Y80.4406 Z-1.0000 F720
G01 X107.3611 Y80.6912 Z-1.0000 F720
G01 X107.3790 Y80.9439 Z-1.0000 F720
G01 X107.3600 Y81.2941 Z-1.0000 F720
G01 X107.3041 Y81.6339 Z-1.0000 F720
G01 X107.1996 Y81.9909 Z-1.0000 F720
G01 X107.0581 Y82.3350 Z-1.0000 F720
G01 X106.8812 Y82.6623 Z-1.0000 F720
G01 X106.6709 Y82.9691 Z-1.0000 F720
G01 X106.4295 Y83.2522 Z-1.0000 F720
G01 X106.1597 Y83.5083 Z-1.0000 F720
G01 X105.8645 Y83.7346 Z-1.0000 F720
G01 X105.5471 Y83.9286 Z-1.0000 F720
G01 X105.2110 Y84.0881 Z-1.0000 F720
G01 X104.8600 Y84.2115 Z-1.0000 F720
G01 X104.4980 Y84.2972 Z-1.0000 F720
G01 X104.1291 Y84.3444 Z-1.0000 F720
G01 X103.7571 Y84.3526 Z-1.0000 F720
G01 X103.3864 Y84.3216 Z-1.0000 F720
G01 X103.0210 Y84.2517 Z-1.0000 F720
G01 X102.6650 Y84.1439 Z-1.0000 F720
G01 X102.3223 Y83.9992 Z-1.0000 F720
G01 X101.9967 Y83.8193 Z-1.0000 F720
G01 X101.6918 Y83.6061 Z-1.0000 F720
G01 X101.4110 Y83.3621 Z-1.0000 F720
G01 X101.2136 Y83.1473 Z-1.0000 F720
G01 X101.0353 Y82.9164 Z-1.0000 F720
G01 X100.8774 Y82.6710 Z-1.0000 F720
G01 X100.7411 Y82.4131 Z-1.0000 F720
G01 X100.6274 Y82.1444 Z-1.0000 F720
G01 X100.5371 Y81.8670 Z-1.0000 F720
G01 X100.4709 Y81.5828 Z-1.0000 F720
G01 X100.4293 Y81.2941 Z-1.0000 F720
G01 X100.4117 Y80.9439 Z-1.0000 F720
G01 X100.4260 Y80.7079 Z-1.0000 F720
G01 X100.4565 Y80.4733 Z-1.0000 F720
G01 X100.5028 Y80.2414 Z-1.0000 F720
G01 X100.5648 Y80.0132 Z-1.0000 F720
G01 X100.6422 Y79.7897 Z-1.0000 F720
G01 X100.7347 Y79.5720 Z-1.0000 F720
G01 X100.8417 Y79.3611 Z-1.0000 F720
G01 X100.9629 Y79.1580 Z-1.0000 F720
G01 X99.9784 Y79.2415 Z-1.0000 F720
G01 X98.9919 Y79.2951 Z-1.0000 F720
G01 X98.0042 Y79.3187 Z-1.0000 F720
G01 X97.0162 Y79.3123 Z-1.0000 F720
G01 X97.3883 Y79.7980 Z-1.0000 F720
G01 X97.5623 Y80.0599 Z-1.0000 F720
G01 X97.7069 Y80.3390 Z-1.0000 F720
G01 X97.8205 Y80.6322 Z-1.0000 F720
G01 X97.9016 Y80.9359 Z-1.0000 F720
G01 X97.9495 Y81.2466 Z-1.0000 F720
G01 X97.9634 Y81.5607 Z-1.0000 F720
G01 X97.9433 Y81.8744 Z-1.0000 F720
G01 X97.8893 Y82.1841 Z-1.0000 F720
G01 X97.7823 Y82.5393 Z-1.0000 F720
G01 X97.6387 Y82.8812 Z-1.0000 F720
G01 X97.4602 Y83.2063 Z-1.0000 F720
G01 X97.2487 Y83.5110 Z-1.0000 F720
G01 X97.0066 Y83.7919 Z-1.0000 F720
G01 X96.7364 Y84.0460 Z-1.0000 F720
G01 X96.4411 Y84.2705 Z-1.0000 F720
G01 X96.1241 Y84.4628 Z-1.0000 F720
G01 X95.7886 Y84.6211 Z-1.0000 F720
G01 X95.4385 Y84.7433 Z-1.0000 F720
G01 X95.0775 Y84.8284 Z-1.0000 F720
G01 X94.7096 Y84.8752 Z-1.0000 F720
G01 X94.3388 Y84.8834 Z-1.0000 F720
G01 X93.9691 Y84.8528 Z-1.0000 F720
G01 X93.6047 Y84.7837 Z-1.0000 F720
G01 X93.2496 Y84.6770 Z-1.0000 F720
G01 X92.9075 Y84.5337 Z-1.0000 F720
G01 X92.5822 Y84.3554 Z-1.0000 F720
G01 X92.2774 Y84.1442 Z-1.0000 F720
G01 X91.9963 Y83.9023 Z-1.0000 F720
G01 X91.7987 Y83.6892 Z-1.0000 F720
G01 X91.6203 Y83.4598 Z-1.0000 F720
G01 X91.4623 Y83.2159 Z-1.0000 F720
G01 X91.3259 Y82.9593 Z-1.0000 F720
G01 X91.2122 Y82.6919 Z-1.0000 F720
G01 X91.1220 Y82.4156 Z-1.0000 F720
G01 X91.0559 Y82.1326 Z-1.0000 F720
G01 X91.0145 Y81.8450 Z-1.0000 F720
G01 X90.9969 Y81.4951 Z-1.0000 F720
G01 X91.0219 Y81.0842 Z-1.0000 F720
G01 X91.0855 Y80.7464 Z-1.0000 F720
G01 X91.1813 Y80.4164 Z-1.0000 F720
G01 X91.3085 Y80.0971 Z-1.0000 F720
G01 X91.4659 Y79.7915 Z-1.0000 F720
G01 X91.6520 Y79.5025 Z-1.0000 F720
G01 X91.8650 Y79.2328 Z-1.0000 F720
G01 X92.1031 Y78.9849 Z-1.0000 F720
G01 X92.3639 Y78.7611 Z-1.0000 F720
G01 X91.7933 Y78.6605 Z-1.0000 F720
G01 X91.2247 Y78.5492 Z-1.0000 F720
G01 X90.6583 Y78.4272 Z-1.0000 F720
G01 X90.0942 Y78.2945 Z-1.0000 F720
G01 X89.5328 Y78.1513 Z-1.0000 F720
G01 X88.9742 Y77.9976 Z-1.0000 F720
G01 X88.4185 Y77.8333 Z-1.0000 F720
G01 X87.8660 Y77.6587 Z-1.0000 F720
G01 X87.9799 Y77.9780 Z-1.0000 F720
G01 X88.0701 Y78.3205 Z-1.0000 F720
G01 X88.1246 Y78.6704 Z-1.0000 F720
G01 X88.1428 Y79.0240 Z-1.0000 F720
G01 X88.1244 Y79.3776 Z-1.0000 F720
G01 X88.0696 Y79.7275 Z-1.0000 F720
G01 X87.9791 Y80.0698 Z-1.0000 F720
G01 X87.8538 Y80.4011 Z-1.0000 F720
G01 X87.6951 Y80.7176 Z-1.0000 F720
G01 X87.5046 Y81.0161 Z-1.0000 F720
G01 X87.2843 Y81.2934 Z-1.0000 F720
G01 X87.0367 Y81.5465 Z-1.0000 F720
G01 X86.7642 Y81.7727 Z-1.0000 F720
G01 X86.4699 Y81.9696 Z-1.0000 F720
G01 X86.1569 Y82.1352 Z-1.0000 F720
G01 X85.8285 Y82.2677 Z-1.0000 F720
G01 X85.4882 Y82.3656 Z-1.0000 F720
G01 X85.1396 Y82.4279 Z-1.0000 F720
G01 X84.7865 Y82.4540 Z-1.0000 F720
G01 X84.4325 Y82.4435 Z-1.0000 F720
G01 X84.0815 Y82.3967 Z-1.0000 F720
G01 X83.7372 Y82.3139 Z-1.0000 F720
G01 X83.4033 Y82.1961 Z-1.0000 F720
G01 X83.0833 Y82.0445 Z-1.0000 F720
G01 X82.7806 Y81.8607 Z-1.0000 F720
G01 X82.5469 Y81.7015 Z-1.0000 F720
G01 X82.3273 Y81.5234 Z-1.0000 F720
G01 X82.1234 Y81.3275 Z-1.0000 F720
G01 X81.9366 Y81.1153 Z-1.0000 F720
G01 X81.7681 Y80.8882 Z-1.0000 F720
G01 X81.6193 Y80.6478 Z-1.0000 F720
G01 X81.4910 Y80.3958 Z-1.0000 F720
G01 X81.3843 Y80.1340 Z-1.0000 F720
G01 X81.2999 Y79.8641 Z-1.0000 F720
G01 X81.2383 Y79.5882 Z-1.0000 F720
G01 X81.2000 Y79.3080 Z-1.0000 F720
G01 X81.1853 Y79.0257 Z-1.0000 F720
G01 X81.1975 Y78.7467 Z-1.0000 F720
G01 X81.2402 Y78.4639 Z-1.0000 F720
G01 X81.3074 Y78.1858 Z-1.0000 F720
G01 X81.3986 Y77.9147 Z-1.0000 F720
G01 X81.5131 Y77.6525 Z-1.0000 F720
G01 X81.6500 Y77.4014 Z-1.0000 F720
G01 X81.8083 Y77.1631 Z-1.0000 F720
G01 X81.9867 Y76.9395 Z-1.0000 F720
G01 X82.1840 Y76.7324 Z-1.0000 F720
G01 X82.3985 Y76.5432 Z-1.0000 F720
G01 X82.6288 Y76.3735 Z-1.0000 F720
G01 X82.8730 Y76.2245 Z-1.0000 F720
G01 X83.1292 Y76.0973 Z-1.0000 F720
G01 X83.6327 Y75.8948 Z-1.0000 F720
G01 X83.0991 Y75.6040 Z-1.0000 F720
G01 X82.5712 Y75.3032 Z-1.0000 F720
G01 X82.0490 Y74.9924 Z-1.0000 F720
G01 X81.5328 Y74.6717 Z-1.0000 F720
G01 X81.0228 Y74.3413 Z-1.0000 F720
G01 X80.5192 Y74.0014 Z-1.0000 F720
G01 X80.0221 Y73.6519 Z-1.0000 F720
G01 X79.5317 Y73.2931 Z-1.0000 F720
G01 X79.5913 Y73.5654 Z-1.0000 F720
G01 X79.6369 Y73.8403 Z-1.0000 F720
G01 X79.6685 Y74.1173 Z-1.0000 F720
G01 X79.6860 Y74.3955 Z-1.0000 F720
G01 X79.6622 Y74.9576 Z-1.0000 F720
G01 X79.6032 Y75.5170 Z-1.0000 F720
G01 X79.5091 Y76.0717 Z-1.0000 F720
G01 X79.3803 Y76.6193 Z-1.0000 F720
G01 X79.2174 Y77.1578 Z-1.0000 F720
G01 X79.0210 Y77.6850 Z-1.0000 F720
G01 X78.7918 Y78.1988 Z-1.0000 F720
G01 X78.5307 Y78.6971 Z-1.0000 F720
G01 X78.2389 Y79.1781 Z-1.0000 F720
G01 X77.9174 Y79.6397 Z-1.0000 F720
G01 X77.5675 Y80.0803 Z-1.0000 F720
G01 X77.1907 Y80.4980 Z-1.0000 F720
G01 X76.7883 Y80.8912 Z-1.0000 F720
G01 X76.3620 Y81.2583 Z-1.0000 F720
G01 X75.9135 Y81.5979 Z-1.0000 F720
G01 X75.4445 Y81.9086 Z-1.0000 F720
G01 X74.9569 Y82.1892 Z-1.0000 F720
G01 X74.4526 Y82.4387 Z-1.0000 F720
G01 X73.9337 Y82.6559 Z-1.0000 F720
G01 X73.4021 Y82.8401 Z-1.0000 F720
G01 X73.2225 Y85.4008 Z-1.0000 F720
G01 X73.0708 Y87.9634 Z-1.0000 F720
G01 X72.9469 Y90.5274 Z-1.0000 F720
G01 X72.8509 Y93.0927 Z-1.0000 F720
G01 X73.9978 Y93.0575 Z-1.0000 F720
G01 X75.1441 Y93.0079 Z-1.0000 F720
G01 X76.2898 Y92.9440 Z-1.0000 F720
G01 X77.4345 Y92.8657 Z-1.0000 F720
G01 X78.5782 Y92.7730 Z-1.0000 F720
G01 X79.7207 Y92.6661 Z-1.0000 F720
G01 X80.8617 Y92.5448 Z-1.0000 F720
G01 X82.0011 Y92.4092 Z-1.0000 F720
G01 X82.0011 Y97.4583 Z-1.0000 F720
G01 X80.8599 Y97.3521 Z-1.0000 F720
G01 X79.7178 Y97.2565 Z-1.0000 F720
G01 X78.5748 Y97.1716 Z-1.0000 F720
G01 X77.4311 Y97.0974 Z-1.0000 F720
G01 X76.2868 Y97.0338 Z-1.0000 F720
G01 X75.1419 Y96.9809 Z-1.0000 F720
G01 X73.9966 Y96.9387 Z-1.0000 F720
G01 X72.8509 Y96.9071 Z-1.0000 F720
G01 X72.8854 Y99.3211 Z-1.0000 F720
G01 X72.9079 Y100.2509 Z-1.0000 F720
G01 X72.9425 Y101.1804 Z-1.0000 F720
G01 X72.9891 Y102.1094 Z-1.0000 F720
G01 X73.0477 Y103.0376 Z-1.0000 F720
