(Project crown)
(Created with Estlcam 12.119)
(Machining time about 00:02:03 hours)

(Required tools:)
(Pen)

G21
G90
G94
M03 S24000
G00 X0.0000 Y0.0000 Z0.0000 F2400
G00 Z5.0000 F900

(No. 1 Engraving machining: Engraving 4)
G00 X29.8397 Y10.9654 Z5.0000 F2400
G00 Z0.5000 F900
G01 Z0.0000 F480 S24000
G01 Z-1.0000 F480
G01 X29.1561 Y13.2806 F900
G02 X49.3843 Y17.0880 I36.0887 J-136.0933 F900
G02 X81.3342 Y18.3325 I24.2659 J-212.2347 F900
G02 X106.0443 Y15.9180 I-5.6213 J-185.1761 F900
G02 X118.1443 Y13.2806 I-19.9645 J-120.6697 F900
G01 X117.4608 Y10.9654 F900
G03 X97.5702 Y14.6802 I-35.3527 J-134.1862 F900
G03 X66.0594 Y15.8889 I-23.9200 J-212.2317 F900
G03 X41.7448 Y13.5416 I5.4165 J-183.2101 F900
G03 X29.8397 Y10.9654 I19.6353 J-119.5345 F900
G00 Z5.0000 F900

(No. 2 Engraving machining: Engraving 3)
G00 X70.9340 Y72.5221 Z5.0000 F2400
G00 Z0.5000 F900
G01 Z0.0000 F480
G01 Z-1.0000 F480
G02 X70.6655 Y81.9431 I3.1433 J4.8039 F900
G02 X73.6502 Y83.1085 I3.5399 J-4.6616 F900
G02 X78.0647 Y74.2174 I-0.5183 J-5.7987 F900
G02 X73.6502 Y71.5771 I-4.9213 J3.2174 F900
G02 X70.9340 Y72.5221 I0.4721 J5.7328 F900
G00 Z5.0000 F900

(No. 3 Engraving machining: Engraving 5)
G00 X77.5785 Y67.3417 Z5.0000 F2400
G00 Z0.5000 F900
G01 Z0.0000 F480
G01 Z-1.0000 F480
G02 X111.0304 Y76.2659 I22.4483 J-16.9880 F900
G02 X128.3749 Y50.1238 I-11.0853 J-26.1796 F900
G03 X128.7387 Y43.5184 I69.3682 J0.5085 F900
G01 X128.9261 Y41.3925 F900
G03 X126.1408 Y43.2006 I-3.4344 J-2.2414 F900
G01 X125.6123 Y43.2790 F900
G01 X125.0897 Y43.3107 F900
G03 X126.1909 Y39.8863 I6.5972 J0.2323 F900
G03 X129.0584 Y38.3939 I2.7477 J1.7785 F900
G01 X129.1288 Y37.7068 F900
G02 X129.1907 Y36.0567 I-9.0384 J-1.1650 F900
G02 X126.8756 I-1.1575 J1.4805 F900
G01 X126.0180 Y36.9180 F900
G02 X124.9099 Y38.3874 I4.0345 J4.1951 F900
G01 X124.0093 Y40.0255 F900
G03 X122.3884 Y41.3726 I-2.6098 J-1.4915 F900
G03 X120.5068 Y41.4102 I-1.0137 J-3.6306 F900
G03 X117.8766 Y40.4932 I4.0601 J-15.8761 F900
G02 X115.7408 Y39.8372 I-3.5424 J7.7289 F900
G02 X114.4622 Y40.0255 I-0.3522 J2.0439 F900
G02 X115.7646 Y38.1714 I-2.2995 J-2.9997 F900
G02 X116.2611 Y36.0341 I-17.1749 J-5.1162 F900
G03 X116.8968 Y34.2499 I5.4647 J0.9418 F900
G03 X119.4347 Y32.4922 I3.4074 J2.2087 F900
G03 X121.2923 Y32.6844 I0.3407 J5.7772 F900
G02 X123.7330 Y33.1977 I6.4655 J-24.6850 F900
G02 X125.3155 Y33.1723 I0.7340 J-3.5789 F900
G02 X126.3835 Y32.0309 I-0.3582 J-1.4055 F900
G02 X126.4095 Y30.7944 I-2.8571 J-0.6787 F900
G02 X125.7055 Y30.2939 I-0.7334 J0.2861 F900
G02 X124.1952 Y30.3518 I-0.3458 J10.7043 F900
G03 X122.4344 Y30.2081 I-0.5465 J-4.1628 F900
G03 X119.9082 Y27.1932 I1.1735 J-3.5491 F900
G03 X122.5720 Y27.1527 I1.4442 J7.3597 F900
G03 X123.8769 Y27.4799 I-0.7102 J5.5987 F900
G02 X125.8470 Y28.6084 I5.2941 J-6.9577 F900
G02 X126.7647 Y28.7411 I0.7091 J-1.6647 F900
G02 X127.4268 Y28.0090 I-0.1901 J-0.8374 F900
G02 X126.8772 Y26.2922 I-2.2980 J-0.2107 F900
G02 X124.4575 Y24.4761 I-5.2098 J4.4211 F900
G02 X119.5113 Y23.5111 I-4.3458 J9.1169 F900
G02 X112.5316 Y25.0090 I0.5486 J19.5668 F900
G02 X107.0718 Y29.2196 I4.7614 J11.8190 F900
G02 X105.1797 Y33.7417 I9.0612 J6.4481 F900
G02 X104.6318 Y37.3846 I98.4679 J16.6735 F900
G01 X104.4962 Y38.2616 F900
G03 X107.4304 Y37.2237 I2.3324 J1.9274 F900
G03 X109.7567 Y40.8799 I-0.7302 J3.0328 F900
G03 X107.0759 Y43.4431 I-3.0314 J-0.4870 F900
G03 X105.2533 Y48.3000 I-2.3182 J1.9006 F900
G03 X101.7622 Y44.5234 I-0.6502 J-2.9009 F900
G03 X97.9370 Y43.4043 I-1.2609 J-2.7868 F900
G03 X99.9027 Y38.7174 I2.4555 J-1.7258 F900
G03 X101.7622 Y38.9231 I0.6104 J2.9903 F900
G01 X100.3653 Y37.4727 F900
G01 X98.4769 Y35.5276 F900
G02 X91.5698 Y31.4800 I-10.3273 J9.7063 F900
G02 X82.1169 Y33.3448 I-2.7173 J11.1172 F900
G02 X77.9080 Y39.5564 I10.7041 J11.7845 F900
G02 X77.3323 Y42.7595 I8.4983 J3.1807 F900
G01 X77.9086 Y42.6245 F900
G01 X78.0976 Y42.6114 F900
G01 X78.2378 Y42.6552 F900
G01 X78.3419 Y42.7712 F900
G01 X78.4229 Y42.9749 F900
G01 X78.5671 Y43.7076 F900
G01 X78.6906 Y43.7890 F900
G01 X78.8163 Y43.8046 F900
G02 X79.3234 Y43.3370 I-0.2885 J-0.8218 F900
G02 X80.3309 Y40.7090 I-10.1523 J-5.3992 F900
G03 X80.8288 Y39.2926 I3.4867 J0.4299 F900
G03 X82.4015 Y38.2371 I2.2392 J1.6371 F900
G03 X83.6162 Y37.9750 I2.3661 J8.0189 F900
G03 X83.7327 Y39.8144 I-5.3063 J1.2595 F900
G03 X82.3815 Y41.7894 I-2.4562 J-0.2307 F900
G02 X80.3309 Y44.1266 I11.7680 J12.3929 F900
G03 X81.4846 Y44.1404 I0.5385 J3.2193 F900
G03 X82.2346 Y44.8102 I-0.1465 J0.9188 F900
G01 X82.3249 Y45.1739 F900
G01 X82.3815 Y45.6259 F900
G01 X83.5390 Y43.5092 F900
G01 X84.6965 Y41.3925 F900
G03 X87.4429 Y40.8968 I2.3019 J4.8981 F900
G03 X89.5366 Y41.5088 I-0.0716 J4.1326 F900
G03 X90.4912 Y42.5389 I-2.1479 J2.9479 F900
G01 X90.9218 Y43.1484 F900
G02 X92.7897 Y45.6339 I14.9613 J-9.2988 F900
G02 X94.1113 Y46.8385 I7.5285 J-6.9322 F900
G02 X91.4421 Y50.2412 I12.8414 J12.8215 F900
G01 X90.9843 Y50.9913 F900
G01 X90.1647 Y52.4389 F900
G03 X87.6388 Y53.8156 I-3.1936 J-2.8537 F900
G03 X84.8509 Y53.4090 I-0.8668 J-3.8178 F900
G03 X83.8417 Y51.5544 I4.9229 J-3.8807 F900
G01 X83.6162 Y50.9396 F900
G03 X83.3942 Y52.1028 I-2.0356 J0.2142 F900
G03 X82.4980 Y52.8385 I-1.5382 J-0.9600 F900
G01 X82.0170 Y52.9996 F900
G01 X81.4334 Y53.1224 F900
G02 X83.8808 Y54.6217 I3.0221 J-2.1860 F900
G03 X85.1657 Y56.7532 I-2.2181 J2.7902 F900
G01 X85.2749 Y57.3140 F900
G02 X85.6667 Y58.9873 I7.0406 J-0.7660 F900
G02 X84.1515 Y58.6156 I-2.0897 J5.2440 F900
G03 X82.4859 Y58.1184 I0.1817 J-3.6471 F900
G03 X81.6979 Y57.4880 I2.2611 J-3.6338 F900
G02 X80.4008 Y55.1506 I-5.0354 J1.2658 F900
G01 X80.1649 Y54.8432 F900
G01 X79.9340 Y54.4894 F900
G03 X79.7700 Y55.4394 I-1.8236 J0.1742 F900
G03 X78.9205 Y56.0124 I-1.0022 J-0.5695 F900
G01 X78.5584 Y56.0775 F900
G01 X78.1481 Y56.1210 F900
G03 X80.1494 Y57.9333 I-1.3583 J3.5110 F900
G03 X80.0333 Y60.8845 I-3.2813 J1.3488 F900
G03 X79.1183 Y62.1403 I-3.5948 J-1.6581 F900
G02 X75.9653 Y65.0066 I36.9442 J43.8060 F900
G02 X77.4685 Y67.2005 I24.4905 J-15.1678 F900
G01 X77.5785 Y67.3417 F900
G00 Z5.0000 F900

(No. 4 Engraving machining: Engraving 1)
G00 X81.8303 Y76.1852 Z5.0000 F2400
G00 Z0.5000 F900
G01 Z0.0000 F480
G01 Z-1.0000 F480
G03 X81.9535 Y78.0200 I-5.0368 J1.2599 F900
G03 X75.7008 Y85.7323 I-8.9413 J-0.8583 F900
G02 X75.1495 Y95.9849 I235.3336 J17.7941 F900
G02 X84.2997 Y95.3014 I-2.2339 J-91.4929 F900
G01 Y100.3505 F900
G02 X75.1495 Y99.7993 I-11.9588 J122.3019 F900
G02 X75.5602 Y108.4112 I83.2843 J0.3443 F900
G01 X75.7008 Y109.6330 F900
G01 X71.5997 F900
G02 X72.1509 Y99.7993 I-82.3799 J-9.5502 F900
G02 X63.0008 Y100.3505 I2.5677 J118.8531 F900
G01 Y95.3014 F900
G02 X72.1509 Y95.9849 I11.5874 J-93.5313 F900
G02 X71.5997 Y85.7323 I-261.0877 J8.8966 F900
G03 X65.3158 Y77.2877 I2.6620 J-8.5411 F900
G03 X65.4702 Y76.1852 I8.5528 J0.6356 F900
G03 X61.3691 Y78.7870 I-19.1755 J-25.6932 F900
G03 X63.7095 Y81.1070 I-0.9419 J3.2907 F900
G03 X61.6194 Y85.0674 I-3.2985 J0.7910 F900
G03 X57.0219 Y80.8702 I-1.3382 J-3.1508 F900
G01 X57.1358 Y80.5509 F900
G03 X52.6379 Y81.6533 I-9.5616 J-29.2849 F900
G03 X52.2183 Y87.3763 I-2.0320 J2.7279 F900
G03 X47.1125 Y85.0763 I-1.6462 J-3.1627 F900
G03 X47.6135 Y82.6902 I2.8271 J-0.6521 F900
G01 X47.9856 Y82.2045 F900
G03 X44.0390 Y82.0502 I-0.7043 J-32.5358 F900
G03 X41.5228 Y87.2360 I-2.8364 J1.8271 F900
G03 X37.6419 Y84.1862 I-0.3575 J-3.5391 F900
G03 X38.7052 Y81.4820 I3.1968 J-0.3041 F900
G01 X38.9898 Y81.2344 F900
G03 X35.5722 Y80.0217 I8.4228 J-29.1580 F900
G03 X33.5075 Y84.1193 I-3.3033 J0.9046 F900
G03 X29.5709 Y78.7995 I-1.3447 J-3.1214 F900
G03 X31.0743 Y77.8168 I2.5920 J2.3242 F900
G03 X28.3403 Y75.7884 I16.9274 J-25.6725 F900
G03 X21.5273 Y76.0529 I-3.4011 J0.2703 F900
G03 X24.7905 Y72.6354 I3.3982 J-0.0219 F900
G03 X21.7919 Y68.9533 I23.9271 J-22.5480 F900
G03 X14.9568 Y69.2399 I-3.4126 J0.2596 F900
G03 X20.0280 Y66.2192 I3.4409 J0.0095 F900
G03 X17.6908 Y61.3245 I30.3199 J-17.4827 F900
G03 X10.8778 I-3.4065 J-0.0110 F900
G03 X13.9452 Y57.7937 I3.5469 J-0.0164 F900
G03 X16.7428 Y58.8550 I0.3208 J3.3721 F900
G03 X15.5080 Y52.9901 I35.9282 J-10.6265 F900
G03 X9.6527 Y49.5953 I-2.8915 J-1.7598 F900
G03 X13.6760 Y47.9461 I3.0236 J1.6442 F900
G03 X15.1111 Y48.7567 I-0.8021 J3.0958 F900
G01 X15.0343 Y47.7844 F900
G01 X14.9568 Y46.8385 F900
G03 X12.1595 Y47.3350 I-2.4087 J-5.4424 F900
G01 X11.1094 Y47.2292 F900
G02 X6.4028 Y47.8115 I-1.3784 J8.1716 F900
G02 X3.0947 Y49.5725 I8.0134 J19.0407 F900
G02 X14.2834 Y31.8010 I-110.5293 J-81.9957 F900
G02 X19.9448 Y18.0288 I-68.2195 J-36.0931 F900
G02 X21.3729 Y11.7151 I-47.5300 J-14.0698 F900
G03 X22.1737 Y9.8521 I2.6510 J0.0359 F900
G01 X22.6959 Y9.3338 F900
G03 X25.2253 Y8.0506 I5.8308 J8.3588 F900
G03 X30.3158 Y6.6516 I12.5257 J35.6153 F900
G03 X40.5418 Y5.1035 I21.6385 J108.3829 F900
G03 X60.0277 Y3.8010 I27.7745 J269.1190 F900
G03 X95.6393 Y4.1872 I13.4605 J400.9283 F900
G03 X110.0120 Y5.4948 I-11.4344 J205.3184 F900
G03 X119.2623 Y7.1830 I-9.1612 J76.3845 F900
G03 X123.5218 Y8.6747 I-4.7446 J20.3760 F900
G01 X124.1097 Y8.9999 F900
G01 X124.6046 Y9.3338 F900
G03 X125.7033 Y10.6642 I-2.7421 J3.3836 F900
G03 X125.9275 Y11.7151 I-2.2835 J1.0364 F900
G02 X129.0724 Y23.0916 I55.8326 J-9.3116 F900
G02 X135.6543 Y36.5978 I86.3417 J-33.7194 F900
G02 X144.2058 Y49.5725 I129.8750 J-76.2933 F900
G02 X140.0204 Y47.4965 I-9.9682 J14.8394 F900
G02 X136.1910 Y47.2292 I-2.4667 J7.7730 F900
G03 X134.0263 Y47.3033 I-1.3681 J-8.3105 F900
G03 X132.3436 Y46.8385 I0.8839 J-6.4783 F900
G01 X132.2661 Y47.7844 F900
G01 X132.1893 Y48.7567 F900
G03 X137.2842 Y49.0506 I2.4083 J2.5606 F900
G03 X132.6356 Y53.9369 I-2.6102 J2.1712 F900
G03 X131.7924 Y52.9901 I2.1573 J-2.7701 F900
G03 X130.5577 Y58.8550 I-37.1724 J-4.7632 F900
G03 X135.8401 Y59.3699 I2.4479 J2.2406 F900
G03 X133.6950 Y64.6516 I-2.8286 J1.9277 F900
G03 X129.6096 Y61.3245 I-0.7021 J-3.3098 F900
G03 X127.2725 Y66.2192 I-32.6484 J-12.5833 F900
G03 X132.3436 Y69.2399 I1.6302 J3.0303 F900
G03 X125.5086 Y68.9533 I-3.4224 J-0.0269 F900
G03 X122.5100 Y72.6354 I-26.9329 J-18.8713 F900
G03 X122.0275 Y79.4529 I-0.1543 J3.4149 F900
G03 X118.9601 Y75.7884 I0.3539 J-3.4123 F900
G03 X116.2261 Y77.8168 I-15.6464 J-18.2324 F900
G03 X117.7712 Y83.1454 I-1.0091 J3.1809 F900
G03 X112.6614 Y83.3879 I-2.6671 J-2.2423 F900
G03 X111.7282 Y80.0217 I2.2454 J-2.4349 F900
G03 X108.3106 Y81.2344 I-10.4533 J-24.0365 F900
G03 X109.6776 Y83.8361 I-2.0060 J2.7140 F900
G03 X107.1579 Y87.1003 I-3.4883 J-0.0880 F900
G03 X102.7520 Y83.3541 I-1.0298 J-3.2528 F900
G03 X103.2615 Y82.0502 I3.7699 J0.7216 F900
G03 X99.3148 Y82.2045 I-3.2424 J-32.3819 F900
G03 X100.1894 Y83.7786 I-2.7053 J2.5331 F900
G03 X98.6676 Y87.2073 I-3.2195 J0.6231 F900
G03 X93.5635 Y85.7160 I-1.9301 J-2.8745 F900
G03 X94.6626 Y81.6533 I3.1593 J-1.3253 F900
G03 X90.1647 Y80.5509 I5.0642 J-30.3891 F900
G03 X87.0337 Y85.3354 I-3.1491 J1.3560 F900
G03 X83.5030 Y82.2680 I-0.0164 J-3.5469 F900
G03 X84.9636 Y79.2547 I3.1414 J-0.3379 F900
G01 X85.4278 Y78.9895 F900
G01 X85.9313 Y78.7870 F900
G03 X81.8303 Y76.1852 I15.0711 J-28.2892 F900
G00 Z5.0000 F900

(No. 5 Engraving machining: Engraving 2)
G00 X69.8320 Y67.2005 Z5.0000 F2400
G00 Z0.5000 F900
G01 Z0.0000 F480
G01 Z-1.0000 F480
G02 X71.3351 Y65.0066 I-22.9755 J-17.3536 F900
G02 X68.1822 Y62.1403 I-46.1276 J47.5732 F900
G03 X66.9045 Y58.7915 I2.7294 J-2.9595 F900
G03 X68.5707 Y56.4232 I3.2678 J0.5288 F900
G01 X68.8490 Y56.2673 F900
G01 X69.1523 Y56.1210 F900
G03 X67.8112 Y55.7689 I-0.0214 J-2.6488 F900
G03 X67.3845 Y54.9386 I0.7669 J-0.9188 F900
G01 X67.3664 Y54.4894 F900
G03 X66.4285 Y55.7311 I-9.7149 J-6.3626 F900
G02 X65.6025 Y57.4880 I3.7497 J2.8357 F900
G03 X63.6181 Y58.5465 I-2.5051 J-2.3068 F900
G01 X63.1490 Y58.6156 F900
G02 X61.6337 Y58.9873 I0.3832 J4.8362 F900
G02 X62.0256 Y57.3140 I-8.9692 J-2.9830 F900
G03 X62.5360 Y55.6557 I4.6777 J0.5320 F900
G03 X63.4197 Y54.6217 I3.0619 J1.7220 F900
G02 X65.8671 Y53.1224 I-0.5749 J-3.6856 F900
G03 X64.4172 Y52.6369 I0.3522 J-3.4596 F900
G03 X63.6949 Y51.3787 I0.8492 J-1.3240 F900
G01 X63.6843 Y50.9396 F900
G03 X62.6458 Y53.1554 I-8.1633 J-2.4746 F900
G01 X62.4495 Y53.4090 F900
G03 X59.6617 Y53.8156 I-1.9211 J-3.4112 F900
G03 X57.1358 Y52.4389 I0.6675 J-4.2301 F900
G02 X54.3228 Y48.0688 I-24.3735 J12.5987 F900
G01 X53.7653 Y47.4217 F900
G01 X53.1891 Y46.8385 F900
G02 X55.5166 Y44.3911 I-6.8673 J-8.8614 F900
G03 X57.2681 Y41.9438 I26.5543 J17.1533 F900
G03 X58.7336 Y41.0806 I2.1913 J2.0448 F900
G03 X62.3376 Y41.2641 I1.5172 J5.6871 F900
G01 X62.6039 Y41.3925 F900
G01 X63.7614 Y43.5092 F900
G01 X64.9190 Y45.6259 F900
G03 X65.1273 Y44.6593 I2.3841 J0.0082 F900
G03 X65.9976 Y44.1108 I0.8868 J0.4422 F900
G01 X66.4317 Y44.0934 F900
G01 X66.9695 Y44.1266 F900
G02 X64.9190 Y41.7894 I-13.8098 J10.0480 F900
G03 X63.5677 Y39.8144 I1.1065 J-2.2068 F900
G03 X63.6843 Y37.9750 I6.1060 J-0.5363 F900
G03 X65.5062 Y38.4746 I-0.6349 J5.8869 F900
G03 X66.8516 Y40.1832 I-1.0065 J2.1766 F900
G02 X67.9770 Y43.3370 I11.2871 J-2.2498 F900
G02 X68.4842 Y43.8046 I0.7956 J-0.3542 F900
G01 X68.6098 Y43.7890 F900
G01 X68.7334 Y43.7076 F900
G01 X68.8068 Y43.2820 F900
G01 X68.8775 Y42.9749 F900
G01 X68.9586 Y42.7712 F900
G01 X69.0627 Y42.6552 F900
G01 X69.2028 Y42.6114 F900
G01 X69.3918 Y42.6245 F900
G01 X69.9681 Y42.7595 F900
G02 X69.1456 Y38.9156 I-10.0704 J0.1447 F900
G02 X65.1836 Y33.3448 I-14.9062 J6.4072 F900
G02 X54.1435 Y31.9669 I-6.7748 J9.3644 F900
G02 X48.8235 Y35.5276 I5.3548 J13.7550 F900
G01 X46.9351 Y37.4727 F900
G01 X45.5383 Y38.9231 F900
G03 X49.8394 Y41.0386 I1.2732 J2.8415 F900
G03 X46.4556 Y44.7861 I-3.0926 J0.6090 F900
G03 X45.5383 Y44.5234 I0.6690 J-4.0704 F900
G03 X42.0471 Y48.3000 I-2.8409 J0.8757 F900
G03 X39.9317 Y43.8595 I0.5003 J-2.9625 F900
G01 X40.0686 Y43.6471 F900
G01 X40.2245 Y43.4431 F900
G03 X37.4905 Y40.2901 I0.3854 J-3.0960 F900
G03 X40.4891 Y37.1592 I3.0474 J-0.0828 F900
G03 X42.8042 Y38.2616 I-0.0851 J3.1607 F900
G01 X42.5266 Y36.3473 F900
G02 X41.9842 Y33.0960 I-30.4473 J3.4093 F900
G02 X36.8480 Y26.0904 I-10.9182 J2.6190 F900
G02 X30.1716 Y23.7349 I-9.0344 J14.9682 F900
G02 X27.0535 Y23.4890 I-3.4886 J24.3405 F900
G02 X21.2050 Y25.4960 I0.0958 J9.8040 F900
G02 X20.0424 Y26.9259 I2.2713 J3.0343 F900
G02 X19.9509 Y28.2518 I1.4628 J0.7671 F900
G02 X20.9621 Y28.7400 I0.7959 J-0.3573 F900
G02 X22.2727 Y28.2208 I-0.7690 J-3.8554 F900
G01 X22.8474 Y27.8720 F900
G01 X23.4235 Y27.4799 F900
G03 X27.3922 Y27.1932 I2.5244 J7.3336 F900
G03 X23.6742 Y30.3770 I-3.6569 J-0.5077 F900
G01 X23.1052 Y30.3518 F900
G02 X21.8100 Y30.2758 I-1.1395 J8.3513 F900
G02 X21.0871 Y30.4945 I-0.0471 J1.1487 F900
G02 X20.8378 Y31.3906 I0.7147 J0.6816 F900
G02 X21.2400 Y32.7086 I2.0174 J0.1046 F900
G02 X22.4632 Y33.2534 I1.2764 J-1.2202 F900
G02 X24.7832 Y32.9633 I0.1312 J-8.3732 F900
G03 X27.1398 Y32.4950 I4.1828 J14.8825 F900
G03 X28.4611 Y32.6726 I0.3716 J2.2396 F900
G03 X30.7506 Y34.9858 I-1.2506 J3.5273 F900
G03 X31.2555 Y37.1129 I-14.6533 J4.6016 F900
G02 X31.8709 Y38.9216 I5.8744 J-0.9897 F900
G02 X32.8383 Y40.0255 I3.1440 J-1.7793 F900
G02 X31.2746 Y39.8824 I-0.9946 J2.2538 F900
G02 X29.4239 Y40.4932 I2.7930 J11.5733 F900
G03 X26.7936 Y41.4102 I-5.6361 J-11.9353 F900
G03 X24.6193 Y41.2557 I-0.8658 J-3.1929 F900
G03 X23.2912 Y40.0255 I1.5138 J-2.9663 F900
G01 X22.3905 Y38.3874 F900
G02 X21.2824 Y36.9180 I-5.1426 J2.7258 F900
G01 X20.4249 Y36.0567 F900
G02 X18.1097 I-1.1576 J1.4806 F900
G02 X18.1716 Y37.7068 I9.1003 J0.4851 F900
G01 X18.2421 Y38.3939 F900
G03 X21.1095 Y39.8863 I0.1197 J3.2709 F900
G03 X22.2108 Y43.3107 I-5.4951 J3.6566 F900
G03 X19.3947 Y42.4664 I-0.0967 J-4.7962 F900
G03 X18.3743 Y41.3925 I2.2601 J-3.1689 F900
G03 X18.9117 Y49.0029 I-114.3268 J11.8972 F900
G02 X19.0724 Y53.0199 I35.5863 J0.5885 F900
G02 X56.3772 Y76.9928 I28.2180 J-2.8988 F900
G02 X69.8320 Y67.2005 I-9.3121 J-26.9346 F900
G00 Z5.0000 F900
G00 X0.0000 Y0.0000 F2400
G00 Z0.0000 F900


M05
M30
